vnguyen43/Compensation-Electrical-Current-Drift-Human-Robot-Collision/data/data_3.csv
Time [sec], q1 (deg), q2 (deg), q3 (deg), q4 (deg), q5 (deg), q6 (deg), Px (mm), Py (mm), Pz (mm), Rx (deg), Ry (deg), Rz (deg), c1 (A), c2 (A), c3 (A), c4 (A), c5 (A), c6 (A), Fx R (N), Fy R (N), Fz R (N), Tx R (Nm), Ty R (Nm), Tz R (Nm), Fx A (N), Fy A (N), Fz A (N), Tx A (Nm), Ty A (Nm), Tz A (Nm), Din, Dout
1648486790885.0637, -120.09629898868874, -162.92994523621277, 55.401522169427665, -166.4452250359649, 89.97021604950774, -0.026081304716779646, -611.5076352101763, -728.002731130898, 679.4871676937935, 45.171023102159424, 172.58466930137666, 5.725660155717987, 0.2700805962085724, 6.948853015899658, 1.27783203125, 0.2489776909351349, -0.0829925611615181, -0.01345825381577015, -1.9559174927836966, 4.653262308128739, -7.189525133612052, -3.074161699418568, -0.23278460026416425, -0.01942549237378799, 0, 0, 0, 0, 0, 0, b00000000, b00000000, 
1648486791886.073, -120.09837536619642, -162.93270463263747, 55.40288820726167, -166.4473014134726, 89.96816016256757, -0.02881338038478475, -611.5417867877532, -727.9893424782199, 679.444013376821, 45.170124100887904, 172.5856745579132, 5.731620485463224, 0.2563476860523224, 6.944275379180908, 1.2823156118392944, 0.2422485649585724, -0.0852356031537056, -0.01345825381577015, -1.9853237599498823, 4.240571067402912, -6.854357068846195, -3.042154111510663, -0.2502800223906345, -0.032186453254875846, 0, 0, 0, 0, 0, 0, b00000000, b00000000, 
1648486792886.4438, -120.09837536619642, -162.93131127404678, 55.40220518834467, -166.4466183945556, 89.96816016256757, -0.02881338038478475, -611.5382721910457, -727.9833776734772, 679.4647143569814, 45.170226218548066, 172.58609204262524, 5.729537584960941, 0.2426147758960724, 6.939697742462158, 1.2733484506607056, 0.2557068169116974, -0.0807495191693306, -0.02018737979233265, -1.2785511246978072, 4.544772497692331, -7.119711997330739, -2.9546654377860793, -0.1396234460350183, -0.1426243127850536, 0, 0, 0, 0, 0, 0, b00000000, b00000000, 
1648486793886.7507, -120.09905838511342, -162.93270463263747, 55.40220518834467, -166.4486674513066, 89.96816016256757, -0.02881338038478475, -611.5506260372833, -727.9823730109352, 679.4356138406336, 45.17097571729442, 172.58478380936813, 5.734672274184241, 0.2609253227710724, 6.962585926055908, 1.280073881149292, 0.2646789848804474, -0.0807495191693306, -0.01794433780014515, -1.4470277010332775, 4.898867645815927, -7.652635743737372, -2.9965221645393387, -0.17891768768683833, -0.09414343068267539, 0, 0, 0, 0, 0, 0, b00000000, b00000000, 
1648486794887.5322, -120.09769234727942, -162.93407067047147, 55.40083915051066, -166.4479844323896, 89.96816016256757, -0.026081304716779646, -611.5483045724241, -728.0161198168232, 679.4069981290642, 45.17291044360645, 172.58373841081095, 5.737815297911065, 0.2746582329273224, 6.921387195587158, 1.2733484506607056, 0.2512207329273224, -0.0785064771771431, -0.01570129580795765, -2.0374312533841503, 4.642382051126815, -6.533842703409427, -2.915843809909329, -0.2648937847464748, -0.039212797555909146, 0, 0, 0, 0, 0, 0, b00000000, b00000000, 
1648486795887.7559, -120.10042442294743, -162.93270463263747, 55.40288820726167, -166.4479844323896, 89.96747031346139, -0.02813036146778347, -611.5692184597316, -727.9643412919388, 679.4418840139675, 45.17430092741442, 172.5850044131638, 5.73290792234171, 0.2426147758960724, 6.944275379180908, 1.2598974704742432, 0.2624359428882599, -0.0785064771771431, -0.01570129580795765, -0.8840423708310536, 5.102578560705461, -7.748925448354057, -3.0606324023883467, -0.03900698675809115, -0.08855929515472535, 0, 0, 0, 0, 0, 0, b00000000, b00000000, 
1648486796889.4907, -120.09700932836242, -162.93131127404678, 55.39876277300298, -166.4452250359649, 89.96747031346139, -0.027447342550782197, -611.5372460975234, -728.0192514462736, 679.4479094138619, 45.1702099087514, 172.58618667497342, 5.7329419532777415, 0.2700805962085724, 6.944275379180908, 1.2598974704742432, 0.2489776909351349, -0.0650482252240181, -0.02018737979233265, -1.5086099378239517, 5.048784108782424, -7.636620731126275, -3.095601368554173, 0.086747663479631, -0.1030275913587207, 0, 0, 0, 0, 0, 0, b00000000, b00000000, 
1648486797891.2615, -120.09974140403042, -162.93338765155448, 55.39876277300298, -166.4479844323896, 89.96816016256757, -0.027447342550782197, -611.5762144706581, -728.0011532262638, 679.4054639134536, 45.17378922117932, 172.58294825638538, 5.739822592272826, 0.2334595024585724, 6.971741199493408, 1.280073881149292, 0.2489776909351349, -0.0852356031537056, -0.01345825381577015, -1.2800596771717785, 4.431155451565968, -7.803359016291184, -3.1485732043445434, -0.09399884029014197, -0.06543186875420196, 0, 0, 0, 0, 0, 0, b00000000, b00000000, 
1648486798893.2617, -120.10110744186443, -162.93407067047147, 55.401522169427665, -166.4486674513066, 89.96816016256757, -0.026764323633780923, -611.5877239980589, -727.9744593653822, 679.4090797581737, 45.1769917091022, 172.58254491885222, 5.737730589750044, 0.2517700493335724, 6.939697742462158, 1.2576557397842407, 0.2758941948413849, -0.0785064771771431, -0.01570129580795765, -0.771764710919445, 5.484105585810209, -7.7926072652005365, -2.981084893867532, -0.10053248786499813, -0.08223848130887912, 0, 0, 0, 0, 0, 0, b00000000, b00000000, 
1648486799894.2617, -120.09974140403042, -162.9306282551298, 55.40220518834467, -166.4473014134726, 89.96678729454439, -0.02539828579977837, -611.5583894501607, -727.9573578523597, 679.4737043781913, 45.17769517392493, 172.5855661396314, 5.730169743763194, 0.2563476860523224, 6.925964832305908, 1.2711066007614136, 0.2467346489429474, -0.0874786451458931, -0.006729126907885075, -1.8511376074090469, 4.54123634214816, -6.710721724419651, -3.038642759814881, -0.2975752958900575, 0.054013025800088946, 0, 0, 0, 0, 0, 0, b00000000, b00000000, 
1648486800895.2617, -120.09629898868874, -162.93270463263747, 55.401522169427665, -166.4452250359649, 89.96609744543822, -0.024715266882777098, -611.5323951915445, -728.0192687840345, 679.4419743455171, 45.173669510336616, 172.5871852528935, 5.73155928064036, 0.2655029594898224, 6.935120105743408, 1.2733484506607056, 0.2601929008960724, -0.0785064771771431, -0.01794433780014515, -1.6214494359371994, 4.825950781534951, -7.016431744153118, -2.921334084835108, -0.20916208183314736, -0.08448025927485242, 0, 0, 0, 0, 0, 0, b00000000, b00000000, 
1648486801895.9941, -120.09905838511342, -162.93131127404678, 55.401522169427665, -166.4473014134726, 89.96747031346139, -0.027447342550782197, -611.5513012685842, -727.9763949743668, 679.4583949338498, 45.17333399735173, 172.58554770937798, 5.731888905126098, 0.2197265923023224, 6.944275379180908, 1.2688647508621216, 0.2377624809741974, -0.0874786451458931, -0.006729126907885075, -1.261568845654502, 4.2217698802517045, -7.262078508123256, -3.1733917029213297, -0.09704412838598665, 0.010991937078811978, 0, 0, 0, 0, 0, 0, b00000000, b00000000, 
1648486802896.997, -120.09700932836242, -162.93202161372048, 55.40288820726167, -166.4486674513066, 89.96953303059074, -0.02539828579977837, -611.5195605072015, -727.9944342717591, 679.4509449102125, 45.172923411755235, 172.583540735177, 5.732166879873081, 0.2655029594898224, 6.971741199493408, 1.2643811702728271, 0.2444916069507599, -0.0829925611615181, -0.02018737979233265, -1.4227200754975622, 4.994107213009771, -8.274479133577245, -3.348570998317838, -0.01710260569068356, -0.1264253879902113, 0, 0, 0, 0, 0, 0, b00000000, b00000000, 
1648486803897.2664, -120.09905838511342, -162.93202161372048, 55.401522169427665, -166.4459080548819, 89.96747031346139, -0.02813036146778347, -611.556057115267, -727.9863441101239, 679.4510943626237, 45.17236544721438, 172.58598191254887, 5.730846608564202, 0.2471924126148224, 6.939697742462158, 1.2845574617385864, 0.2130890041589737, -0.0785064771771431, -0.011215210892260075, -2.4642134829734483, 3.491876989411329, -6.411280227610455, -3.1316009631359005, -0.11177724366124883, 0.00400942180293859, 0, 0, 0, 0, 0, 0, b00000000, b00000000, 
1648486804897.408, -120.09837536619642, -162.93338765155448, 55.39876277300298, -166.4466183945556, 89.96678729454439, -0.024032247965775824, -611.5679754897578, -728.0152922595372, 679.4096162320609, 45.177287835293185, 172.5839663401886, 5.738462891165104, 0.2471924126148224, 6.958008289337158, 1.2554138898849487, 0.2512207329273224, -0.0762634351849556, -0.01570129580795765, -0.9630275885888302, 5.136182480969677, -8.213860487158025, -3.249704246735814, 0.083963736738566, -0.08315933335661743, 0, 0, 0, 0, 0, 0, b00000000, b00000000, 
1648486805897.5251, -120.10042442294743, -162.93131127404678, 55.40288820726167, -166.4493504702236, 89.96678729454439, -0.027447342550782197, -611.5628476170236, -727.9478522364998, 679.4604201535491, 45.17545059791707, 172.58542629481803, 5.733180580641422, 0.2883911430835724, 6.944275379180908, 1.2823156118392944, 0.2714081108570099, -0.0807495191693306, -0.01345825381577015, -1.9882762101392433, 5.122733921356029, -7.08466282870842, -2.870916039202005, -0.36216789088009793, 0.0006218761541151585, 0, 0, 0, 0, 0, 0, b00000000, b00000000, 
1648486806899.5244, -120.09700932836242, -162.9347536893885, 55.40015613159366, -166.4466183945556, 89.96678729454439, -0.02813036146778347, -611.5482034496669, -728.0359110196744, 679.3958675435508, 45.169052857930076, 172.58603950743088, 5.7383622765670355, 0.2426147758960724, 6.935120105743408, 1.2867993116378784, 0.2646789848804474, -0.0852356031537056, -0.01794433780014515, -1.4820769761377197, 4.354238883871475, -6.617012752216443, -2.772384413135578, -0.3257326325432292, -0.1108583714649477, 0, 0, 0, 0, 0, 0, b00000000, b00000000, 
1648486807901.0667, -120.09905838511342, -162.93407067047147, 55.39807975408598, -166.4493504702236, 89.97021604950774, -0.026764323633780923, -611.5668003260063, -728.0168103989641, 679.3859298495729, 45.173190256131306, 172.58025543946027, 5.743063058757333, 0.2609253227710724, 6.967163562774658, 1.280073881149292, 0.2377624809741974, -0.0785064771771431, -0.01570129580795765, -1.9159024745869249, 4.403576542204331, -7.572825523591024, -3.187908213537235, -0.07127290523166938, -0.05556924147514061, 0, 0, 0, 0, 0, 0, b00000000, b00000000, 
1648486808903.0002, -120.09493295085474, -162.93202161372048, 55.401522169427665, -166.4438589981309, 89.96541442652122, -0.027447342550782197, -611.5124008607751, -728.0324769663875, 679.4573754183688, 45.1677801814863, 172.59000214825585, 5.728754358240724, 0.2838135063648224, 6.944275379180908, 1.280073881149292, 0.2265472710132599, -0.0785064771771431, -0.01794433780014515, -2.590803764100354, 4.198252384987213, -6.79730279003322, -3.1551858215689608, -0.17772078239395253, -0.05344832158490606, 0, 0, 0, 0, 0, 0, b00000000, b00000000, 
1648486809903.286, -120.09974140403042, -162.93131127404678, 55.401522169427665, -166.4479844323896, 89.96953303059074, -0.02539828579977837, -611.5562576386781, -727.9688563783648, 679.4562999754211, 45.17701211420816, 172.58238355901253, 5.732064199346072, 0.2334595024585724, 6.944275379180908, 1.2711066007614136, 0.2400055229663849, -0.0785064771771431, -0.01794433780014515, -1.3574767906452638, 4.253087801999417, -7.204195759162241, -3.081617890494865, -0.02349823113405035, -0.11810278028775253, 0, 0, 0, 0, 0, 0, b00000000, b00000000, 
1648486810903.8894, -120.10042442294743, -162.93202161372048, 55.40083915051066, -166.4486674513066, 89.96884318148457, -0.02539828579977837, -611.5712090710146, -727.9686345769588, 679.4383861327849, 45.17799995408522, 172.58211902169185, 5.735446128396899, 0.2243042290210724, 6.930542469024658, 1.2688647508621216, 0.2489776909351349, -0.0807495191693306, -0.01570129580795765, -1.119297981486129, 4.326820871491841, -6.94141377072572, -2.968973920138788, -0.08984034037943225, -0.10094863857674886, 0, 0, 0, 0, 0, 0, b00000000, b00000000, 
1648486811905.383, -120.09769234727942, -162.93202161372048, 55.39947311267666, -166.4486674513066, 89.96953303059074, -0.026081304716779646, -611.5384772372349, -728.0068793674578, 679.4300424002669, 45.172629140145986, 172.58247025821842, 5.737236386355926, 0.2838135063648224, 6.953430652618408, 1.2845574617385864, 0.2579498589038849, -0.0807495191693306, -0.01570129580795765, -2.1140199714226853, 4.800198377266417, -7.176848515460544, -2.980111535094043, -0.28956254334776904, -0.032393910273668475, 0, 0, 0, 0, 0, 0, b00000000, b00000000, 
1648486812905.6812, -120.09905838511342, -162.93131127404678, 55.40220518834467, -166.4473014134726, 89.96747031346139, -0.02539828579977837, -611.5513669230724, -727.9712591865808, 679.4625530754378, 45.17649307085714, 172.58500800523018, 5.7309131850736055, 0.2792358696460724, 6.958008289337158, 1.280073881149292, 0.2601929008960724, -0.0852356031537056, -0.01794433780014515, -1.8383522070304332, 4.9383703183684196, -7.478184587876648, -3.0530699495041422, -0.28033831383112695, -0.07589404257006388, 0, 0, 0, 0, 0, 0, b00000000, b00000000, 
1648486813907.3242, -120.09769234727942, -162.92994523621277, 55.39947311267666, -166.4466183945556, 89.97021604950774, -0.026764323633780923, -611.5291021547748, -727.9962591182041, 679.4703274149686, 45.171789250205926, 172.58330618612845, 5.7307624799946915, 0.2197265923023224, 6.930542469024658, 1.27783203125, 0.2444916069507599, -0.0695343092083931, -0.01345825381577015, -1.370962990147272, 3.9773774227501675, -6.613093530174615, -2.839270180524189, -0.00855807009925507, -0.05889129463536211, 0, 0, 0, 0, 0, 0, b00000000, b00000000, 
1648486814907.331, -120.10110744186443, -162.93202161372048, 55.40357122617867, -166.4466183945556, 89.96747031346139, -0.026764323633780923, -611.5759445905171, -727.950195800444, 679.4614315015568, 45.177613778222046, 172.5850268065842, 5.728836819639153, 0.2838135063648224, 6.944275379180908, 1.2554138898849487, 0.2400055229663849, -0.0762634351849556, -0.006729126907885075, -1.9377746785882353, 5.203330920187588, -7.710074310268435, -3.3097461472055665, -0.05568517408465197, 0.0859144805664847, 0, 0, 0, 0, 0, 0, b00000000, b00000000, 
1648486815909.0437, -120.09769234727942, -162.93131127404678, 55.39947311267666, -166.4452250359649, 89.96816016256757, -0.026081304716779646, -611.5434865060352, -728.0080306932225, 679.4522556976574, 45.17322995250266, 172.584967853364, 5.731602612485525, 0.2792358696460724, 6.935120105743408, 1.2688647508621216, 0.2332763969898224, -0.0762634351849556, -0.01794433780014515, -2.2057687510283936, 4.52264912079298, -6.94458448740398, -3.144724752953504, -0.11764715301022281, -0.06261475594695504, 0, 0, 0, 0, 0, 0, b00000000, b00000000, 
1648486816909.0588, -120.09905838511342, -162.93131127404678, 55.39876277300298, -166.4479844323896, 89.96816016256757, -0.024715266882777098, -611.5605233104123, -727.9894638874122, 679.4393709907658, 45.17705352397328, 172.58287907598614, 5.736797577170646, 0.2838135063648224, 6.967163562774658, 1.2643811702728271, 0.2534637749195099, -0.0919647291302681, -0.01794433780014515, -1.6026101072003387, 5.3223127967971715, -8.208805211816745, -3.3497814223995426, -0.2101569670421792, -0.08532132666743192, 0, 0, 0, 0, 0, 0, b00000000, b00000000, 
1648486817910.0615, -120.09905838511342, -162.93202161372048, 55.40357122617867, -166.4473014134726, 89.96884318148457, -0.02813036146778347, -611.5440761002202, -727.9730063204521, 679.4593637592739, 45.172158699815334, 172.5849111209171, 5.729290851639543, 0.1922607570886612, 6.944275379180908, 1.2688647508621216, 0.2265472710132599, -0.0852356031537056, -0.01345825381577015, -0.9407339496206489, 3.697769719573589, -7.174674176664959, -3.181087438908613, 0.04763383373930656, -0.10689734301510798, 0, 0, 0, 0, 0, 0, b00000000, b00000000, 
1648486818910.2495, -120.09905838511342, -162.93338765155448, 55.401522169427665, -166.4452250359649, 89.96953303059074, -0.02539828579977837, -611.5617281517914, -728.0005824851505, 679.4308808672902, 45.176070020156246, 172.5828367620562, 5.731043163628994, 0.2792358696460724, 6.958008289337158, 1.2845574617385864, 0.2422485649585724, -0.0807495191693306, -0.006729126907885075, -2.39969902643398, 4.538966281401812, -7.187951002068825, -3.117763544062534, -0.24372581699692147, 0.08861161998881177, 0, 0, 0, 0, 0, 0, b00000000, b00000000, 
1648486819910.2532, -120.09974140403042, -162.93131127404678, 55.40288820726167, -166.4466183945556, 89.96678729454439, -0.027447342550782197, -611.5582453000018, -727.9622250750677, 679.4688553274266, 45.17465728171778, 172.58650614312404, 5.729101807831872, 0.2334595024585724, 6.971741199493408, 1.2733484506607056, 0.2444916069507599, -0.0852356031537056, -0.01345825381577015, -1.2054470860106492, 4.5168434460922775, -7.986519602144306, -3.24217684805069, -0.037193097631242684, -0.06747327160385409, 0, 0, 0, 0, 0, 0, b00000000, b00000000, 
1648486820911.2769, -120.09974140403042, -162.93338765155448, 55.39947311267666, -166.4466183945556, 89.96816016256757, -0.02813036146778347, -611.5752109736645, -728.0011030076693, 679.4140388249969, 45.17292903619278, 172.5838057624255, 5.7367006277711585, 0.2197265923023224, 6.930542469024658, 1.2442048788070679, 0.2444916069507599, -0.0829925611615181, -0.008972168900072575, -0.6442977721342356, 4.892940719895461, -7.710584836649735, -3.2537885678912555, 0.0551134352925645, -0.027778525286363, 0, 0, 0, 0, 0, 0, b00000000, b00000000, 
1648486821912.6162, -120.09629898868874, -162.93338765155448, 55.40288820726167, -166.4473014134726, 89.96609744543822, -0.026081304716779646, -611.5266909936634, -728.0126954782255, 679.4327799410172, 45.17149020275636, 172.58728482174206, 5.733620668917728, 0.2426147758960724, 6.930542469024658, 1.2890410423278809, 0.2489776909351349, -0.0740203931927681, -0.01345825381577015, -1.9053221849387754, 3.978329791957076, -6.280748696064089, -2.7634118940943817, -0.20413230672251162, -0.032737006842180755, 0, 0, 0, 0, 0, 0, b00000000, b00000000, 
1648486822914.5703, -120.09837536619642, -162.93407067047147, 55.40015613159366, -166.4466183945556, 89.96953303059074, -0.02813036146778347, -611.5556490444023, -728.0193674708776, 679.4070821726734, 45.170630080921555, 172.58309755511334, 5.736145483336802, 0.2471924126148224, 6.967163562774658, 1.275590181350708, 0.2400055229663849, -0.0829925611615181, -0.01794433780014515, -1.525038045905408, 4.425604482226025, -7.738808861980917, -3.2208662349159143, -0.05510558053357684, -0.10862221125906105, 0, 0, 0, 0, 0, 0, b00000000, b00000000, 
1648486823915.3943, -120.09837536619642, -162.93202161372048, 55.40015613159366, -166.4466183945556, 89.96747031346139, -0.026764323633780923, -611.5522262982109, -727.9986680978337, 679.4405208905514, 45.17323728037594, 172.58515806889952, 5.733994586311729, 0.2563476860523224, 6.916809558868408, 1.27783203125, 0.2467346489429474, -0.0852356031537056, -0.011215210892260075, -2.0083049781671223, 4.265131320296985, -6.2181052516924264, -2.898585706037784, -0.338572707333796, -0.0003734958054396331, 0, 0, 0, 0, 0, 0, b00000000, b00000000, 
1648486824915.6838, -120.09905838511342, -162.93338765155448, 55.40015613159366, -166.4459080548819, 89.96678729454439, -0.02881338038478475, -611.5679447114196, -728.0049367504683, 679.4203970925336, 45.17124765603999, 172.58604077070606, 5.735200639351898, 0.2563476860523224, 6.958008289337158, 1.2867993116378784, 0.2557068169116974, -0.0807495191693306, -0.008972168900072575, -1.827381356512704, 4.530181503841499, -7.225810387122325, -2.972233509446843, -0.2293306987963107, 0.03008904091384644, 0, 0, 0, 0, 0, 0, b00000000, b00000000, 
1648486825915.6863, -120.09905838511342, -162.93270463263747, 55.401522169427665, -166.4452250359649, 89.96541442652122, -0.026764323633780923, -611.5668366487575, -727.9901640271416, 679.4419857691197, 45.174830227747194, 172.58739845302802, 5.731746488387219, 0.2563476860523224, 6.935120105743408, 1.2823156118392944, 0.2489776909351349, -0.0852356031537056, -0.011215210892260075, -1.9550440278270218, 4.326564646960621, -6.635704298932755, -2.9485894163685207, -0.30782664490662026, -0.0015311222310658845, 0, 0, 0, 0, 0, 0, b00000000, b00000000, 
1648486826917.3984, -120.09837536619642, -162.93407067047147, 55.40357122617867, -166.4479844323896, 89.96747031346139, -0.027447342550782197, -611.5483400957078, -727.9932954160332, 679.4237302913399, 45.17222262752839, 172.58541433925996, 5.733985482368679, 0.2380371391773224, 6.939697742462158, 1.280073881149292, 0.2400055229663849, -0.0852356031537056, -0.004486084450036287, -1.8274662437423201, 4.120516148471465, -6.775601363581557, -3.0404579310285844, -0.2234911295085365, 0.07027965070662998, 0, 0, 0, 0, 0, 0, b00000000, b00000000, 
1648486827919.0686, -120.09769234727942, -162.93270463263747, 55.39947311267666, -166.4473014134726, 89.96678729454439, -0.02539828579977837, -611.5511819657439, -728.0119597280042, 679.4230374399949, 45.174247529216785, 172.58497865281555, 5.737391679049782, 0.2609253227710724, 6.944275379180908, 1.2867993116378784, 0.2534637749195099, -0.0807495191693306, -0.01794433780014515, -1.9123612550476436, 4.360190330463459, -6.797398829570984, -2.8971804252579263, -0.26020235293313226, -0.08475825078027968, 0, 0, 0, 0, 0, 0, b00000000, b00000000, 
1648486828920.3997, -120.09974140403042, -162.92994523621277, 55.401522169427665, -166.4459080548819, 89.96816016256757, -0.026764323633780923, -611.5545507685761, -727.9618567777865, 679.4850291189107, 45.175477533561114, 172.5851835525808, 5.727469205756878, 0.2151489406824112, 6.948853015899658, 1.2576557397842407, 0.2310333549976349, -0.0762634351849556, -0.02018737979233265, -0.8624536849929367, 4.277979459836192, -7.709275204078333, -3.2516497174356607, 0.18536600202695203, -0.1724855712803226, 0, 0, 0, 0, 0, 0, b00000000, b00000000, 
1648486829920.4373, -120.09905838511342, -162.9306282551298, 55.401522169427665, -166.4466183945556, 89.96747031346139, -0.026764323633780923, -611.5497747242553, -727.9720558804977, 679.4716595649008, 45.174475284731315, 172.58570539246787, 5.729860944438604, 0.2792358696460724, 6.967163562774658, 1.2823156118392944, 0.2332763969898224, -0.0785064771771431, -0.01345825381577015, -2.3635445176674375, 4.43461535289498, -7.461502518168844, -3.225657606156834, -0.12791498284193814, -0.0016463503778859911, 0, 0, 0, 0, 0, 0, b00000000, b00000000, 
1648486830920.6924, -120.09424993193774, -162.93338765155448, 55.40220518834467, -166.4459080548819, 89.96816016256757, -0.027447342550782197, -611.4984542297865, -728.0456840111474, 679.4329531809758, 45.16602275233874, 172.586917519285, 5.731690101458788, 0.2334595024585724, 6.967163562774658, 1.2912828922271729, 0.2400055229663849, -0.0717773512005806, -0.02018737979233265, -1.651557258459802, 3.874407989459516, -7.227910557074264, -2.976573170217786, 0.0053573336414326975, -0.1357024362044573, 0, 0, 0, 0, 0, 0, b00000000, b00000000, 
1648486831921.3909, -120.09905838511342, -162.93202161372048, 55.401522169427665, -166.4473014134726, 89.96678729454439, -0.02539828579977837, -611.558642717155, -727.9801080337421, 679.446748165456, 45.176513840504, 172.5852246322918, 5.7332835980532915, 0.2014160305261612, 6.925964832305908, 1.2980083227157593, 0.2198181450366974, -0.0762634351849556, -0.01794433780014515, -1.93745932788253, 2.711769058196119, -5.622481609772151, -2.7868345115668554, -0.1075618511857856, -0.12962230891797571, 0, 0, 0, 0, 0, 0, b00000000, b00000000, 
1648486832922.4883, -120.09769234727942, -162.93202161372048, 55.40015613159366, -166.4466183945556, 89.96678729454439, -0.027447342550782197, -611.5444378280849, -728.005457055417, 679.4405163887466, 45.17130901894059, 172.58633603194272, 5.734285143358012, 0.2563476860523224, 6.925964832305908, 1.2643811702728271, 0.2534637749195099, -0.0829925611615181, -0.008972168900072575, -1.5564392714084572, 4.84013253449335, -6.9837996083813065, -3.027632846090141, -0.2152056364969326, 0.022285013553667896, 0, 0, 0, 0, 0, 0, b00000000, b00000000, 
1648486833923.3179, -120.09837536619642, -162.93270463263747, 55.401522169427665, -166.4452250359649, 89.96747031346139, -0.02539828579977837, -611.554717023156, -727.9993919805119, 679.442007270316, 45.17548649101042, 172.58526670858012, 5.730915996317518, 0.2426147758960724, 6.953430652618408, 1.2733484506607056, 0.2467346489429474, -0.0762634351849556, -0.011215210892260075, -1.465475101766127, 4.529853410968502, -7.457145904209594, -3.080967260728607, -0.04097506990403767, -0.015572395861406518, 0, 0, 0, 0, 0, 0, b00000000, b00000000, 
1648486834923.9363, -120.09974140403042, -162.93131127404678, 55.40083915051066, -166.4473014134726, 89.96816016256757, -0.027447342550782197, -611.5605169692517, -727.973901861895, 679.4542254551855, 45.17417012243355, 172.58440603429239, 5.732600528832208, 0.2334595024585724, 6.948853015899658, 1.2733484506607056, 0.2422485649585724, -0.0897216871380806, -0.011215210892260075, -1.4137483403032065, 4.319004788645956, -7.286626242578881, -3.15418623192448, -0.1700983558973229, -0.036801369855138766, 0, 0, 0, 0, 0, 0, b00000000, b00000000, 
1648486835925.502, -120.09769234727942, -162.9347536893885, 55.401522169427665, -166.4459080548819, 89.96816016256757, -0.024715266882777098, -611.5540128164315, -728.0224765965615, 679.4064106198914, 45.175160416324026, 172.5838388000648, 5.734733195025539, 0.2288818657398224, 6.948853015899658, 1.2890410423278809, 0.2355194389820099, -0.0740203931927681, -0.011215210892260075, -1.8339953419644786, 3.7318659913412566, -6.72023206107119, -2.9424934831547382, -0.07186233349856544, -0.017186346973224992, 0, 0, 0, 0, 0, 0, b00000000, b00000000, 
1648486836927.441, -120.09769234727942, -162.93131127404678, 55.40220518834467, -166.4473014134726, 89.96678729454439, -0.027447342550782197, -611.53339089466, -727.9861872846104, 679.4625645075233, 45.17147331773645, 172.58697299207205, 5.731189039479432, 0.2563476860523224, 6.925964832305908, 1.2823156118392944, 0.2400055229663849, -0.0874786451458931, -0.01570129580795765, -2.1104431531231698, 4.044064515370306, -6.290557628570138, -2.9592810936891816, -0.32937428322862616, -0.0613134488229885, 0, 0, 0, 0, 0, 0, b00000000, b00000000, 
1648486837927.736, -120.09837536619642, -162.93270463263747, 55.40083915051066, -166.4473014134726, 89.96884318148457, -0.02539828579977837, -611.5505122816816, -727.999732026353, 679.4314395172554, 45.17499551798766, 172.58317537608946, 5.734462838546545, 0.2471924126148224, 6.990051746368408, 1.2621393203735352, 0.2871094048023224, -0.0785064771771431, -0.01570129580795765, -0.28602671110107303, 5.920881700673927, -9.238412171158192, -3.154635818155987, 0.03438074840712421, -0.09623726010936755, 0, 0, 0, 0, 0, 0, b00000000, b00000000, 
1648486838929.7368, -120.09629898868874, -162.93270463263747, 55.39947311267666, -166.4486674513066, 89.96884318148457, -0.027447342550782197, -611.5242242109855, -728.0273499151745, 679.418881672532, 45.168554212484636, 172.5839959216807, 5.738549704684323, 0.2334595024585724, 6.953430652618408, 1.275590181350708, 0.2579498589038849, -0.0852356031537056, -0.01345825381577015, -1.138865708212369, 4.597075022655955, -7.475842359445311, -3.0257879799252594, -0.15509177843428887, -0.06695794640493057, 0, 0, 0, 0, 0, 0, b00000000, b00000000, 
1648486839930.556, -120.09905838511342, -162.93131127404678, 55.40083915051066, -166.4493504702236, 89.96884318148457, -0.026081304716779646, -611.5486469189128, -727.9759567896692, 679.4478958683176, 45.174913576301776, 172.5829672538901, 5.735424148889647, 0.2609253227710724, 6.948853015899658, 1.27783203125, 0.2243042290210724, -0.0829925611615181, -0.008972168900072575, -2.2970832013525375, 4.102767424135737, -6.992462581096283, -3.228760647778181, -0.15501010480548882, 0.03780354221733101, 0, 0, 0, 0, 0, 0, b00000000, b00000000, 
1648486840930.6182, -120.09974140403042, -162.93131127404678, 55.401522169427665, -166.4479844323896, 89.96678729454439, -0.026081304716779646, -611.5621149162517, -727.9655590973865, 679.4562577933232, 45.176497160517684, 172.58520270421897, 5.733217522486852, 0.2792358696460724, 6.980896472930908, 1.2867993116378784, 0.2714081108570099, -0.0807495191693306, -0.01570129580795765, -1.6841033790185416, 5.173871160003386, -8.031262947390571, -3.026080165749178, -0.22881476364687178, -0.04411588532007796, 0, 0, 0, 0, 0, 0, b00000000, b00000000, 
1648486841932.425, -120.09769234727942, -162.93338765155448, 55.40015613159366, -166.4473014134726, 89.96884318148457, -0.027447342550782197, -611.5450677721499, -728.0178426748365, 679.4161170890937, 45.170763561840694, 172.58379627367577, 5.736472472524808, 0.2517700493335724, 6.953430652618408, 1.280073881149292, 0.2691650688648224, -0.0897216871380806, -0.01345825381577015, -1.3300271434262574, 4.870586845158837, -7.417716795593027, -2.964341839027061, -0.31193427968242426, -0.05120827891949009, 0, 0, 0, 0, 0, 0, b00000000, b00000000, 
1648486842932.4536, -120.09769234727942, -162.93338765155448, 55.40083915051066, -166.4479844323896, 89.96884318148457, -0.02813036146778347, -611.5410954427211, -728.0126343816396, 679.4181987293967, 45.169728660791655, 172.5840530471191, 5.736461321407392, 0.2517700493335724, 6.921387195587158, 1.275590181350708, 0.2512207329273224, -0.0874786451458931, -0.01570129580795765, -1.7181795502718848, 4.37420408811416, -6.464115148807704, -2.9175910638187883, -0.31945419345708564, -0.07221315241899665, 0, 0, 0, 0, 0, 0, b00000000, b00000000, 
1648486843933.5735, -120.09424993193774, -162.93270463263747, 55.40083915051066, -166.4479844323896, 89.96678729454439, -0.02539828579977837, -611.5020253000812, -728.039206159347, 679.4292933246138, 45.16914627261273, 172.58665453956067, 5.736449507308813, 0.2517700493335724, 6.976318836212158, 1.275590181350708, 0.2377624809741974, -0.0829925611615181, -0.01794433780014515, -1.5785014055126367, 4.4882258932052945, -7.993183713747933, -3.2957331003234267, -0.027829998032279486, -0.10430499899831552, 0, 0, 0, 0, 0, 0, b00000000, b00000000, 
1648486844933.5757, -120.09905838511342, -162.93338765155448, 55.40220518834467, -166.4479844323896, 89.96953303059074, -0.026764323633780923, -611.5539034197557, -727.9904159127516, 679.4265598138601, 45.17382633980762, 172.58274180624358, 5.734128288545112, 0.2426147758960724, 6.958008289337158, 1.27783203125, 0.2287903130054474, -0.0852356031537056, -0.01345825381577015, -1.812471258493406, 4.062324853682839, -7.303464929963874, -3.2334556858254024, -0.09857141581131965, -0.04889827328159252, 0, 0, 0, 0, 0, 0, b00000000, b00000000, 
1648486845934.5786, -120.09905838511342, -162.93407067047147, 55.40220518834467, -166.4466183945556, 89.96884318148457, -0.026764323633780923, -611.5609024797685, -727.9987070351448, 679.4196005197362, 45.174022011960474, 172.5835738521413, 5.733394325995095, 0.2792358696460724, 6.971741199493408, 1.275590181350708, 0.2400055229663849, -0.0762634351849556, -0.01345825381577015, -2.065557797756882, 4.782655690150954, -7.871064452255578, -3.2593786626198984, -0.059769087553286825, -0.005620095928882907, 0, 0, 0, 0, 0, 0, b00000000, b00000000, 
1648486846935.1868, -120.10042442294743, -162.93131127404678, 55.39947311267666, -166.4473014134726, 89.97021604950774, -0.026764323633780923, -611.5693967505722, -727.9766977484948, 679.4458908342675, 45.17572540677398, 172.5815311335139, 5.733765480691433, 0.2700805962085724, 6.948853015899658, 1.2576557397842407, 0.2175751030445099, -0.0829925611615181, -0.01345825381577015, -2.0400680026016125, 4.548218191618254, -7.5950595857079355, -3.4714822832004866, -0.013465690487777404, -0.02217117558922499, 0, 0, 0, 0, 0, 0, b00000000, b00000000, 
1648486847936.556, -120.09629898868874, -162.93407067047147, 55.40083915051066, -166.4486674513066, 89.96678729454439, -0.026764323633780923, -611.5321324303189, -728.027784590758, 679.4048724294222, 45.169990893695676, 172.58566639952866, 5.739437966407179, 0.2563476860523224, 6.948853015899658, 1.2823156118392944, 0.2489776909351349, -0.0829925611615181, -0.01570129580795765, -1.812682302834623, 4.395134387365157, -7.044703089610349, -3.0074781870407383, -0.22077554935264584, -0.06331841410440345, 0, 0, 0, 0, 0, 0, b00000000, b00000000, 
1648486848938.5564, -120.09629898868874, -162.93270463263747, 55.39947311267666, -166.4459080548819, 89.9709058986139, -0.026764323633780923, -611.5241277807943, -728.0368752398966, 679.427430519443, 45.1694305751473, 172.58261403375496, 5.733552661634862, 0.2288818657398224, 6.994629383087158, 1.280073881149292, 0.2332763969898224, -0.0807495191693306, -0.01794433780014515, -1.283210827896775, 4.207246135640165, -8.359533882860916, -3.3426144029488425, 0.10505688669707478, -0.1275564753222349, 0, 0, 0, 0, 0, 0, b00000000, b00000000, 
1648486849940.557, -120.09424993193774, -162.93131127404678, 55.39876277300298, -166.4473014134726, 89.96609744543822, -0.02813036146778347, -611.5016379029183, -728.0418832048388, 679.4414818482189, 45.16512656067967, 172.58829181254788, 5.736681653525627, 0.2471924126148224, 6.939697742462158, 1.2890410423278809, 0.2444916069507599, -0.0919647291302681, -0.011215210892260075, -2.0059991021084933, 4.007280923601264, -6.518473763069514, -2.968979568105275, -0.37461325898786535, -0.01447265402412054, 0, 0, 0, 0, 0, 0, b00000000, b00000000, 
1648486850940.5583, -120.10042442294743, -162.93270463263747, 55.40083915051066, -166.4466183945556, 89.96816016256757, -0.026081304716779646, -611.5784561210156, -727.9791302121649, 679.4335437174891, 45.17721771866555, 172.5833906370115, 5.733671204196789, 0.2563476860523224, 6.935120105743408, 1.2823156118392944, 0.2355194389820099, -0.0717773512005806, -0.011215210892260075, -2.2033711328623617, 4.057157728025383, -6.526749720817776, -2.9517594796627087, -0.12329003370716311, 0.014511060953739024, 0, 0, 0, 0, 0, 0, b00000000, b00000000, 
1648486851942.5588, -120.09837536619642, -162.9306282551298, 55.40015613159366, -166.4473014134726, 89.96747031346139, -0.02539828579977837, -611.5459849020054, -727.9844507382228, 679.4611706869949, 45.17534941633781, 172.58488946466554, 5.732967998690575, 0.2380371391773224, 6.903076648712158, 1.275590181350708, 0.2377624809741974, -0.0807495191693306, -0.01570129580795765, -1.8601305989458008, 3.8448283404471892, -5.811489329437008, -2.8355500910766023, -0.24015271113300948, -0.07456284665934995, 0, 0, 0, 0, 0, 0, b00000000, b00000000, 
1648486852943.9382, -120.09974140403042, -162.9306282551298, 55.401522169427665, -166.4486674513066, 89.96609744543822, -0.024715266882777098, -611.5609665981443, -727.95631911167, 679.4652843652465, 45.17868806393336, 172.58536283944076, 5.733544434990482, 0.2105713039636612, 6.930542469024658, 1.2733484506607056, 0.2377624809741974, -0.0874786451458931, -0.008972168900072575, -1.278893370337913, 3.9040715507022345, -6.707492107108703, -3.0326450902991935, -0.14691950761456196, -0.025288215787903356, 0, 0, 0, 0, 0, 0, b00000000, b00000000, 
1648486853945.3857, -120.09700932836242, -162.93202161372048, 55.401522169427665, -166.4479844323896, 89.96816016256757, -0.02539828579977837, -611.5282827601048, -728.0020686398369, 679.4446644582183, 45.1731270613382, 172.58461198013583, 5.733767071833997, 0.2197265923023224, 6.971741199493408, 1.2643811702728271, 0.2400055229663849, -0.0785064771771431, -0.011215210892260075, -0.8976048465060453, 4.556386787663302, -8.244344525560189, -3.2994013023926536, 0.1380246158199894, -0.049411694189054556, 0, 0, 0, 0, 0, 0, b00000000, b00000000, 
1648486854947.3845, -120.09905838511342, -162.93131127404678, 55.401522169427665, -166.4452250359649, 89.96884318148457, -0.026764323633780923, -611.5518473609571, -727.9832140236624, 679.4648228470879, 45.17428323109674, 172.58461411989316, 5.728208571561703, 0.2288818657398224, 6.953430652618408, 1.2711066007614136, 0.2400055229663849, -0.0874786451458931, -0.01345825381577015, -1.2742675098852034, 4.3090021457050645, -7.478454698081468, -3.1927044211462516, -0.08969390935661338, -0.07179022033425542, 0, 0, 0, 0, 0, 0, b00000000, b00000000, 
1648486855947.3875, -120.09837536619642, -162.93270463263747, 55.40288820726167, -166.4486674513066, 89.96884318148457, -0.027447342550782197, -611.5396139112443, -727.9858778760118, 679.4397924448584, 45.171948292474404, 172.5841432403179, 5.7334060452112, 0.2288818657398224, 6.925964832305908, 1.2733484506607056, 0.2355194389820099, -0.0852356031537056, -0.004486084450036287, -1.6951193567759688, 4.023477766498697, -6.550681761314104, -3.0402793508454784, -0.1928608748996162, 0.059925192757587085, 0, 0, 0, 0, 0, 0, b00000000, b00000000, 
1648486856949.3872, -120.09700932836242, -162.9306282551298, 55.401522169427665, -166.4466183945556, 89.96884318148457, -0.02881338038478475, -611.5181693492508, -727.9970603782593, 679.4717086420524, 45.16804355381982, 172.5860355113139, 5.729276945698474, 0.2334595024585724, 6.953430652618408, 1.2823156118392944, 0.2444916069507599, -0.0829925611615181, -0.008972168900072575, -1.5866055352043722, 4.179631568406025, -7.148417445504141, -3.042287694714987, -0.15156636263867734, 0.003658744141218029, 0, 0, 0, 0, 0, 0, b00000000, b00000000, 
1648486857950.3884, -120.09629898868874, -162.92994523621277, 55.401522169427665, -166.4466183945556, 89.96816016256757, -0.027447342550782197, -611.5089982916156, -727.9971816044488, 679.4828438878374, 45.169226422991485, 172.58668835492273, 5.72859287435261, 0.2517700493335724, 6.958008289337158, 1.280073881149292, 0.2534637749195099, -0.0829925611615181, -0.01345825381577015, -1.5820470783451615, 4.586952151595279, -7.427681812473129, -3.0510372772829455, -0.17905390724257003, -0.0413868032540195, 0, 0, 0, 0, 0, 0, b00000000, b00000000, 
1648486858952.39, -120.09905838511342, -162.92994523621277, 55.401522169427665, -166.4479844323896, 89.96747031346139, -0.027447342550782197, -611.5436818828775, -727.963253852452, 679.4786136360349, 45.173375893220836, 172.58576771775773, 5.730873695869251, 0.2471924126148224, 6.939697742462158, 1.2823156118392944, 0.2310333549976349, -0.0874786451458931, -0.008972168900072575, -2.119930210917793, 3.928818460921491, -6.629389034611489, -3.096647291451404, -0.25021936666494027, 0.020492534971489867, 0, 0, 0, 0, 0, 0, b00000000, b00000000, 
1648486859952.492, -120.09700932836242, -162.93202161372048, 55.39947311267666, -166.4473014134726, 89.96678729454439, -0.027447342550782197, -611.5369390121691, -728.0148385166061, 679.4342254245788, 45.17017157891074, 172.58622280359594, 5.736342999427282, 0.2334595024585724, 6.953430652618408, 1.27783203125, 0.2422485649585724, -0.0897216871380806, -0.008972168900072575, -1.5154049287059619, 4.2507778557540705, -7.277022960515319, -3.1419208568020665, -0.18967548363820178, -0.004561113945732498, 0, 0, 0, 0, 0, 0, b00000000, b00000000, 
1648486860953.6626, -120.09700932836242, -162.93202161372048, 55.40288820726167, -166.4486674513066, 89.96816016256757, -0.026081304716779646, -611.5221118068562, -727.9929980281789, 679.4509277729331, 45.17214884560802, 172.58507454902252, 5.732736133066695, 0.2838135063648224, 6.958008289337158, 1.2688647508621216, 0.2377624809741974, -0.0897216871380806, -0.011215210892260075, -2.12520990307849, 4.867554604818968, -7.663365415240585, -3.3523179889189905, -0.22540262297201752, 0.016834201395636822, 0, 0, 0, 0, 0, 0, b00000000, b00000000, 
1648486861954.2263, -120.10042442294743, -162.93407067047147, 55.40220518834467, -166.4486674513066, 89.96953303059074, -0.027447342550782197, -611.5727862068453, -727.9801736087012, 679.413295122982, 45.174731549124004, 172.5820039599943, 5.736126733653955, 0.2655029594898224, 6.921387195587158, 1.27783203125, 0.2624359428882599, -0.0650482252240181, -0.01345825381577015, -1.8434823162790395, 4.689004029261066, -6.478198238658077, -2.7066452417899076, -0.15914540886962256, -0.006466097145012228, 0, 0, 0, 0, 0, 0, b00000000, b00000000, 
1648486862954.9854, -120.10042442294743, -162.93202161372048, 55.401522169427665, -166.4473014134726, 89.96816016256757, -0.02881338038478475, -611.5689188301839, -727.9695108167697, 679.4468130817838, 45.17313014841809, 172.58460166240081, 5.732596677549938, 0.2471924126148224, 6.907654285430908, 1.2711066007614136, 0.2108459621667862, -0.0695343092083931, -0.01345825381577015, -2.3814020740911888, 3.5523701763671793, -5.8759901430714, -3.02696664870741, -0.02750881908990388, -0.019275575370025444, 0, 0, 0, 0, 0, 0, b00000000, b00000000, 
1648486863956.2317, -120.09424993193774, -162.93270463263747, 55.40220518834467, -166.4459080548819, 89.96747031346139, -0.02881338038478475, -611.4953062214258, -728.0399127766555, 679.4441205298049, 45.164134546620616, 172.5882689693985, 5.730934841063559, 0.2288818657398224, 6.935120105743408, 1.2666230201721191, 0.2265472710132599, -0.0829925611615181, -0.01345825381577015, -1.5278350280371398, 4.021133304112355, -6.970233125279107, -3.187368351976814, -0.041074481742863315, -0.06338477849004374, 0, 0, 0, 0, 0, 0, b00000000, b00000000, 
1648486864956.6982, -120.09700932836242, -162.93131127404678, 55.40083915051066, -166.4459080548819, 89.96678729454439, -0.026764323633780923, -611.5319431300419, -728.0043894652496, 679.4584943010858, 45.17148804807083, 172.58700577650436, 5.731170347685309, 0.2609253227710724, 6.948853015899658, 1.2643811702728271, 0.2467346489429474, -0.0717773512005806, -0.01345825381577015, -1.5550432422948326, 4.882838400068036, -7.610596533792402, -3.1345003282273947, 0.01033638337649883, -0.02536970498345456, 0, 0, 0, 0, 0, 0, b00000000, b00000000, 
1648486865957.2234, -120.09905838511342, -162.93131127404678, 55.40428156585235, -166.4466183945556, 89.96816016256757, -0.024715266882777098, -611.5447947476604, -727.961798968897, 679.4773796493091, 45.17762653795531, 172.5849365320739, 5.726510849932394, 0.2197265923023224, 6.971741199493408, 1.2666230201721191, 0.2736511528491974, -0.0919647291302681, -0.011215210892260075, -0.3495640852343696, 5.176032222712778, -8.442424857326126, -3.143726261620137, -0.11566551288771695, -0.06938440352887573, 0, 0, 0, 0, 0, 0, b00000000, b00000000, 
1648486866957.5908, -120.09561596977174, -162.93131127404678, 55.40015613159366, -166.4459080548819, 89.96953303059074, -0.024715266882777098, -611.5120895607258, -728.0255710375181, 679.4543383323788, 45.17192717349332, 172.58407554380915, 5.73109635323765, 0.2471924126148224, 6.967163562774658, 1.2935247421264648, 0.2332763969898224, -0.0897216871380806, -0.02243042178452015, -1.9882993424308428, 3.781694269362205, -7.100107065677846, -3.126777138809401, -0.21843312736290552, -0.16529833744545763, 0, 0, 0, 0, 0, 0, b00000000, b00000000, 
1648486867959.2937, -120.09629898868874, -162.93131127404678, 55.40083915051066, -166.4452250359649, 89.96816016256757, -0.026764323633780923, -611.5206300712439, -728.015602430219, 679.4606281735038, 45.17022175336826, 172.58621947380615, 5.7295782896634675, 0.2288818657398224, 6.953430652618408, 1.2711066007614136, 0.2265472710132599, -0.0897216871380806, -0.011215210892260075, -1.534500016242674, 4.051623230132862, -7.370525038672457, -3.2979022608151722, -0.08458279815965272, -0.03982265593845008, 0, 0, 0, 0, 0, 0, b00000000, b00000000, 
1648486868959.5403, -120.09837536619642, -162.93131127404678, 55.40220518834467, -166.4493504702236, 89.96953303059074, -0.027447342550782197, -611.5324003636057, -727.977306828949, 679.4562884979757, 45.1718050652878, 172.58351995746904, 5.7330764006363015, 0.2563476860523224, 6.944275379180908, 1.2711066007614136, 0.2467346489429474, -0.0785064771771431, -0.008972168900072575, -1.7154242526316592, 4.661351047274425, -7.255918430409263, -3.086258507763316, -0.125955804014249, 0.0285897229497913, 0, 0, 0, 0, 0, 0, b00000000, b00000000, 
1648486869960.526, -120.09974140403042, -162.9306282551298, 55.39876277300298, -166.4473014134726, 89.96816016256757, -0.027447342550782197, -611.5639010751883, -727.9799574344853, 679.4526755668386, 45.17404745136638, 172.5839891628254, 5.734681406998851, 0.2838135063648224, 6.971741199493408, 1.2845574617385864, 0.2377624809741974, -0.0829925611615181, -0.01345825381577015, -2.374319464461158, 4.540459477610146, -7.56076255570791, -3.236591935546756, -0.19946325293735997, -0.0016829051843611498, 0, 0, 0, 0, 0, 0, b00000000, b00000000, 
1648486870961.6013, -120.09629898868874, -162.93270463263747, 55.40015613159366, -166.4459080548819, 89.97021604950774, -0.02539828579977837, -611.5251002303833, -728.0312291193154, 679.431584161637, 45.17168587014166, 172.5829687563241, 5.732855755251891, 0.2471924126148224, 6.962585926055908, 1.2711066007614136, 0.2601929008960724, -0.0829925611615181, -0.011215210892260075, -1.1865164354920423, 4.96863382634794, -7.91129201798293, -3.117633270607133, -0.11501044706319233, -0.02311754878265332, 0, 0, 0, 0, 0, 0, b00000000, b00000000, 
1648486871961.6025, -120.09561596977174, -162.9347536893885, 55.40357122617867, -166.4486674513066, 89.96747031346139, -0.026081304716779646, -611.517069328404, -728.025812225655, 679.4104416680573, 45.17004979740675, 172.58568293729493, 5.736116918562009, 0.2563476860523224, 6.921387195587158, 1.2823156118392944, 0.2467346489429474, -0.0829925611615181, -0.01345825381577015, -2.055780096191491, 4.1645451536001135, -6.2078441535306474, -2.8644758748423738, -0.3210336315924798, -0.02741597772470933, 0, 0, 0, 0, 0, 0, b00000000, b00000000, 
1648486872963.3745, -120.09837536619642, -162.93407067047147, 55.40015613159366, -166.4479844323896, 89.96953303059074, -0.026764323633780923, -611.5551208488245, -728.0149768370563, 679.4028489283334, 45.17258338223009, 172.5822056830838, 5.738221613602453, 0.2380371391773224, 6.971741199493408, 1.2845574617385864, 0.2400055229663849, -0.0829925611615181, -0.011215210892260075, -1.6418344325715788, 4.188998304662857, -7.584327536635641, -3.1601450041894976, -0.0932666994742404, -0.02291491242968971, 0, 0, 0, 0, 0, 0, b00000000, b00000000, 
1648486873964.0708, -120.09837536619642, -162.93202161372048, 55.40083915051066, -166.4486674513066, 89.96884318148457, -0.027447342550782197, -611.5429100117007, -727.9917791877338, 679.4384100970466, 45.171827907656514, 172.58373460251062, 5.735446128396523, 0.2380371391773224, 6.962585926055908, 1.275590181350708, 0.2557068169116974, -0.0829925611615181, -0.01570129580795765, -1.165722661541373, 4.644102284795158, -7.729903170054329, -3.0828066951830007, -0.09657225475887529, -0.09129399322159915, 0, 0, 0, 0, 0, 0, b00000000, b00000000, 
1648486874965.9915, -120.09974140403042, -162.93338765155448, 55.401522169427665, -166.4459080548819, 89.96884318148457, -0.02813036146778347, -611.5680296134464, -727.9922844725766, 679.4287914327721, 45.17302977272189, 172.58398909212653, 5.732286422337658, 0.2243042290210724, 6.935120105743408, 1.2733484506607056, 0.2579498589038849, -0.0897216871380806, -0.01345825381577015, -1.0552956809686689, 4.438141536959619, -7.0043264713585485, -2.95462858195827, -0.2323615119621486, -0.07944894516950833, 0, 0, 0, 0, 0, 0, b00000000, b00000000, 
1648486875967.1648, -120.09769234727942, -162.93338765155448, 55.40220518834467, -166.4486674513066, 89.96884318148457, -0.026764323633780923, -611.53718900067, -728.0022904963384, 679.4244384784481, 45.17185281052922, 172.58377027136106, 5.735474532777951, 0.2563476860523224, 6.939697742462158, 1.2733484506607056, 0.2467346489429474, -0.0874786451458931, -0.01345825381577015, -1.7289722400714058, 4.533856032826588, -7.046513699680881, -3.0861980260355373, -0.24392319674475327, -0.03945007480213708, 0, 0, 0, 0, 0, 0, b00000000, b00000000, 
1648486876968.3635, -120.09629898868874, -162.93338765155448, 55.40083915051066, -166.4493504702236, 89.96816016256757, -0.02881338038478475, -611.5222432052528, -728.0234631109686, 679.4139769397276, 45.166621263617195, 172.58513761429174, 5.738813888139208, 0.2334595024585724, 6.939697742462158, 1.2711066007614136, 0.2624359428882599, -0.0829925611615181, -0.01794433780014515, -0.9916137859547427, 4.673631583384687, -7.248246110551956, -2.937232092120964, -0.15006018044384306, -0.12735829442776106, 0, 0, 0, 0, 0, 0, b00000000, b00000000, 
1648486877969.3083, -120.09974140403042, -162.93270463263747, 55.39876277300298, -166.4452250359649, 89.96816016256757, -0.027447342550782197, -611.5770310939295, -728.002622471499, 679.425147063662, 45.174071134390225, 172.58395487560577, 5.734669012056419, 0.2288818657398224, 6.944275379180908, 1.2733484506607056, 0.2467346489429474, -0.0672912672162056, -0.011215210892260075, -1.3165439343442906, 4.341520807713154, -7.18551682843691, -2.9514150232768586, 0.06023099251582001, -0.020991957379358717, 0, 0, 0, 0, 0, 0, b00000000, b00000000, 
1648486878970.3293, -120.09769234727942, -162.9347536893885, 55.401522169427665, -166.4479844323896, 89.97021604950774, -0.026764323633780923, -611.5436999668111, -728.0211535924007, 679.4000619381856, 45.17149475212341, 172.58205911088376, 5.736925492661964, 0.2746582329273224, 6.935120105743408, 1.2688647508621216, 0.2601929008960724, -0.0829925611615181, -0.01570129580795765, -1.6863825601630025, 5.041937506102624, -7.161776445761367, -3.009400096921237, -0.2586048268192499, -0.050449171250815605, 0, 0, 0, 0, 0, 0, b00000000, b00000000, 
1648486879971.4414, -120.09837536619642, -162.93131127404678, 55.40083915051066, -166.4500334891406, 89.96678729454439, -0.02813036146778347, -611.5416362257024, -727.9799631226449, 679.4457735428919, 45.17111909991463, 172.58573000080045, 5.737292702944409, 0.2243042290210724, 6.962585926055908, 1.27783203125, 0.2422485649585724, -0.0740203931927681, -0.008972168900072575, -1.3297979465506977, 4.239230404397943, -7.550148823795896, -3.0843672457755074, 0.0403625128136777, -0.0013893757221135894, 0, 0, 0, 0, 0, 0, b00000000, b00000000, 
1648486880973.2166, -120.09769234727942, -162.9306282551298, 55.40083915051066, -166.4479844323896, 89.96747031346139, -0.027447342550782197, -611.5318245712375, -727.9873815561044, 679.4632679273667, 45.17122300388822, 172.58593325308544, 5.732942171278365, 0.2426147758960724, 6.948853015899658, 1.2688647508621216, 0.2377624809741974, -0.0807495191693306, -0.01570129580795765, -1.4866583002454432, 4.3985368046079385, -7.394930267320799, -3.175618171570379, -0.040618098543259124, -0.08057687898097929, 0, 0, 0, 0, 0, 0, b00000000, b00000000, 
1648486881974.9348, -120.09769234727942, -162.93407067047147, 55.39876277300298, -166.4479844323896, 89.96884318148457, -0.026764323633780923, -611.5525884487158, -728.0292103018623, 679.3943041413195, 45.171574882667315, 172.58272172579262, 5.740610154619822, 0.2792358696460724, 6.939697742462158, 1.2957664728164673, 0.2377624809741974, -0.0807495191693306, -0.01345825381577015, -2.764851697974378, 3.969668390289424, -6.240211243548818, -2.92010730331016, -0.3543430709825677, 0.006325045521614309, 0, 0, 0, 0, 0, 0, b00000000, b00000000, 
1648486882975.2317, -120.10042442294743, -162.93338765155448, 55.40220518834467, -166.4486674513066, 89.96678729454439, -0.02881338038478475, -611.5745884992829, -727.9716161025503, 679.4244247830753, 45.173232027487096, 172.58528029856322, 5.7362462296692645, 0.2609253227710724, 6.953430652618408, 1.2554138898849487, 0.2557068169116974, -0.0874786451458931, -0.01794433780014515, -1.0904781730899487, 5.297982526481077, -8.112106457200644, -3.2796126811035293, -0.0976751949660368, -0.10951102446805258, 0, 0, 0, 0, 0, 0, b00000000, b00000000, 
1648486883975.2717, -120.09769234727942, -162.93407067047147, 55.40015613159366, -166.4466183945556, 89.96816016256757, -0.027447342550782197, -611.5510312821209, -728.0243724216883, 679.4070489922727, 45.170900450875195, 172.58442446396532, 5.736758958649193, 0.2426147758960724, 6.930542469024658, 1.2643811702728271, 0.2355194389820099, -0.0740203931927681, -0.01570129580795765, -1.5467335481707294, 4.339187509752881, -6.976703466482209, -3.083534149036712, 0.0028783098380793792, -0.07299628258450222, 0, 0, 0, 0, 0, 0, b00000000, b00000000, 
1648486884975.2988, -120.09561596977174, -162.93338765155448, 55.401522169427665, -166.4466183945556, 89.96678729454439, -0.026764323633780923, -611.5210120388559, -728.0308400257086, 679.4265448008202, 45.16924647453814, 172.58696333010496, 5.734343475788472, 0.2334595024585724, 6.935120105743408, 1.27783203125, 0.2579498589038849, -0.0829925611615181, -0.01794433780014515, -1.2527706175177433, 4.3717807230578565, -6.856356008657026, -2.87490664349397, -0.1995232720544873, -0.12181464952615417, 0, 0, 0, 0, 0, 0, b00000000, b00000000, 
1648486885976.6653, -120.09769234727942, -162.9306282551298, 55.40083915051066, -166.4486674513066, 89.96816016256757, -0.026081304716779646, -611.5306541094265, -727.9856968422763, 679.4611558556469, 45.1731033695702, 172.58459299999853, 5.733701481593409, 0.2334595024585724, 6.939697742462158, 1.2598974704742432, 0.2534637749195099, -0.0785064771771431, -0.01345825381577015, -0.9536136804184632, 4.820656662861658, -7.541810215723798, -3.0826999370355535, -0.01418164470897211, -0.06510962479891629, 0, 0, 0, 0, 0, 0, b00000000, b00000000, 
1648486886977.0457, -120.09769234727942, -162.93131127404678, 55.40357122617867, -166.4473014134726, 89.96884318148457, -0.026764323633780923, -611.5247972706906, -727.9808247554355, 679.470958044122, 45.17223209073589, 172.58521123155663, 5.728289602594781, 0.2655029594898224, 6.962585926055908, 1.2890410423278809, 0.2512207329273224, -0.0852356031537056, -0.01570129580795765, -1.982356146769362, 4.445631468758254, -7.251819632264255, -3.036274769271395, -0.2701595455313254, -0.05442078714794746, 0, 0, 0, 0, 0, 0, b00000000, b00000000, 
1648486887978.045, -120.09700932836242, -162.9306282551298, 55.40083915051066, -166.4466183945556, 89.96884318148457, -0.027447342550782197, -611.5218777372788, -728.0000736822528, 679.4675105966185, 45.17005512963609, 172.58533281888225, 5.730326150815201, 0.2655029594898224, 6.971741199493408, 1.27783203125, 0.2489776909351349, -0.0807495191693306, -0.01794433780014515, -1.6829054778807089, 4.747679570283823, -7.872067797943728, -3.1803167757486843, -0.10036854200141113, -0.0876866948924141, 0, 0, 0, 0, 0, 0, b00000000, b00000000, 
1648486888978.6147, -120.09769234727942, -162.93270463263747, 55.40015613159366, -166.4452250359649, 89.96747031346139, -0.027447342550782197, -611.548171394174, -728.0156800753678, 679.4336665641745, 45.17124746645478, 172.5858906389018, 5.732926212493194, 0.2700805962085724, 6.958008289337158, 1.2643811702728271, 0.2467346489429474, -0.0829925611615181, -0.01794433780014515, -1.5714778128654354, 4.9971062806134, -7.882770814532732, -3.263841105588968, -0.09106910727440987, -0.08881250221541878, 0, 0, 0, 0, 0, 0, b00000000, b00000000, 
1648486889979.9343, -120.09769234727942, -162.93131127404678, 55.40015613159366, -166.4473014134726, 89.96747031346139, -0.026764323633780923, -611.5390969916253, -727.9982751114927, 679.4500227215701, 45.17220822798584, 172.58546772803095, 5.733972590128623, 0.2517700493335724, 6.944275379180908, 1.2823156118392944, 0.2400055229663849, -0.0874786451458931, -0.004486084450036287, -2.063516185024484, 4.218451122795869, -6.837677168418978, -3.0796416942331297, -0.28204863808374203, 0.08390888081192074, 0, 0, 0, 0, 0, 0, b00000000, b00000000, 
1648486890980.9363, -120.09700932836242, -162.9306282551298, 55.40288820726167, -166.4473014134726, 89.96884318148457, -0.02813036146778347, -611.5135079790949, -727.9871405891389, 679.4779557715962, 45.16913357499979, 172.58600113752973, 5.728275413745945, 0.2426147758960724, 6.939697742462158, 1.2733484506607056, 0.2512207329273224, -0.0874786451458931, -0.006729126907885075, -1.5204724819252564, 4.5495657688472235, -7.084746687239918, -3.0490067077102507, -0.2392517412733, 0.036314737739675446, 0, 0, 0, 0, 0, 0, b00000000, b00000000, 
1648486891981.6558, -120.09974140403042, -162.93338765155448, 55.39947311267666, -166.4459080548819, 89.96747031346139, -0.02813036146778347, -611.5779319322799, -728.0020094905286, 679.4162192016629, 45.1731192168198, 172.58465700518624, 5.735929840368681, 0.2838135063648224, 6.948853015899658, 1.27783203125, 0.2579498589038849, -0.0829925611615181, -0.011215210892260075, -2.0437825823979003, 4.976134303206601, -7.260001774204609, -3.0395308544412867, -0.298424607877549, 0.024250754460048568, 0, 0, 0, 0, 0, 0, b00000000, b00000000, 
1648486892982.101, -120.09974140403042, -162.93202161372048, 55.40220518834467, -166.4493504702236, 89.96816016256757, -0.02881338038478475, -611.5549851287218, -727.9676270899677, 679.4446689840544, 45.1719911722291, 172.58450506176015, 5.734661644492669, 0.2380371391773224, 6.948853015899658, 1.2598974704742432, 0.2579498589038849, -0.0852356031537056, -0.01570129580795765, -0.8534145005536602, 5.001920986193149, -7.850361882146511, -3.15214135823084, -0.07260790957988854, -0.09979049005357415, 0, 0, 0, 0, 0, 0, b00000000, b00000000, 
1648486893982.1033, -120.09905838511342, -162.93131127404678, 55.401522169427665, -166.4466183945556, 89.96884318148457, -0.02813036146778347, -611.5482592425292, -727.9804510215395, 679.4605368354678, 45.1720977726433, 172.58470831749656, 5.730266819027837, 0.2380371391773224, 6.948853015899658, 1.2733484506607056, 0.2534637749195099, -0.0717773512005806, -0.011215210892260075, -1.310419683637127, 4.592639729024757, -7.3751635966443, -2.975811349170839, -0.014480658508984019, -0.017417589337352962, 0, 0, 0, 0, 0, 0, b00000000, b00000000, 
1648486894983.5664, -120.09700932836242, -162.93338765155448, 55.40288820726167, -166.4452250359649, 89.96884318148457, -0.027447342550782197, -611.5306919082329, -728.0150672631665, 679.4392567015161, 45.17014172016399, 172.58550967083917, 5.72929701114193, 0.2288818657398224, 6.925964832305908, 1.280073881149292, 0.2534637749195099, -0.0852356031537056, -0.01345825381577015, -1.422871061277149, 4.145181675853526, -6.475118706836407, -2.843903751812986, -0.2610591404223743, -0.06383641049214217, 0, 0, 0, 0, 0, 0, b00000000, b00000000, 
1648486895984.567, -120.09629898868874, -162.93131127404678, 55.40083915051066, -166.4486674513066, 89.96816016256757, -0.026764323633780923, -611.5154953300889, -728.0066780183178, 679.450000035938, 45.169932142642715, 172.58522438178275, 5.734736059398583, 0.2517700493335724, 6.916809558868408, 1.2957664728164673, 0.2534637749195099, -0.0785064771771431, -0.01345825381577015, -2.2080253987581395, 3.8729877940011948, -5.687383481969619, -2.630301138207969, -0.38417443309192006, -0.022225848102439105, 0, 0, 0, 0, 0, 0, b00000000, b00000000, 
1648486896985.5686, -120.10110744186443, -162.93131127404678, 55.40083915051066, -166.4459080548819, 89.97021604950774, -0.02813036146778347, -611.574246098745, -727.9661444051642, 679.4585730922187, 45.17491099486663, 172.58255250570858, 5.729594144949463, 0.2609253227710724, 6.958008289337158, 1.2733484506607056, 0.2377624809741974, -0.0874786451458931, -0.01345825381577015, -1.840176506549862, 4.52732982187319, -7.519857793506126, -3.2586574927513947, -0.1648282835732804, -0.03507514681542703, 0, 0, 0, 0, 0, 0, b00000000, b00000000, 
1648486897987.306, -120.09769234727942, -162.92994523621277, 55.40015613159366, -166.4479844323896, 89.96953303059074, -0.02813036146778347, -611.5250009270939, -727.9887787817631, 679.4702954451141, 45.16979191780109, 172.584253469769, 5.732050508867344, 0.2151489406824112, 6.962585926055908, 1.27783203125, 0.2355194389820099, -0.0874786451458931, -0.01570129580795765, -1.202570019476943, 3.9674488082087125, -7.497698004443056, -3.1874901373496196, -0.04744090881842397, -0.11488514795332808, 0, 0, 0, 0, 0, 0, b00000000, b00000000, 
1648486898987.4163, -120.09974140403042, -162.9306282551298, 55.39947311267666, -166.4493504702236, 89.96816016256757, -0.029496399301786023, -611.5562930195905, -727.9719023211617, 679.4507229451926, 45.170831616600964, 172.58435613771883, 5.736646745263713, 0.2380371391773224, 6.953430652618408, 1.2912828922271729, 0.2534637749195099, -0.0829925611615181, -0.01570129580795765, -1.621674198082715, 4.11802520286519, -6.927287488720259, -2.8930116546469176, -0.22844448168808767, -0.08106085472328597, 0, 0, 0, 0, 0, 0, b00000000, b00000000, 
1648486899988.4167, -120.09974140403042, -162.9306282551298, 55.40015613159366, -166.4473014134726, 89.96678729454439, -0.02813036146778347, -611.561966746858, -727.9706424718863, 679.4611900776404, 45.17338854193394, 172.58594278580208, 5.733170396559943, 0.2609253227710724, 6.930542469024658, 1.2711066007614136, 0.2422485649585724, -0.0807495191693306, -0.01794433780014515, -1.836680837412696, 4.445553483428719, -6.809665406898525, -3.039854810841096, -0.17532284176832194, -0.087678505134823, 0, 0, 0, 0, 0, 0, b00000000, b00000000, 
1648486900988.4187, -120.09837536619642, -162.93338765155448, 55.40083915051066, -166.4486674513066, 89.96747031346139, -0.029496399301786023, -611.5505514562807, -728.0025615499186, 679.4160808815192, 45.168885642987384, 172.58534774040058, 5.738024600188702, 0.2334595024585724, 6.944275379180908, 1.2643811702728271, 0.2063598781824112, -0.0785064771771431, -0.01570129580795765, -1.8171839962599232, 3.764128576138793, -7.1530662733749795, -3.368273841932747, 0.10556685885732744, -0.0824365561586658, 0, 0, 0, 0, 0, 0, b00000000, b00000000, 
1648486901988.4226, -120.09905838511342, -162.93270463263747, 55.40015613159366, -166.4473014134726, 89.96816016256757, -0.026764323633780923, -611.5615245535221, -727.9962270016675, 679.4272607316167, 45.17402294817387, 172.58381595967464, 5.7357290518548885, 0.2426147758960724, 6.953430652618408, 1.2711066007614136, 0.2198181450366974, -0.0762634351849556, -0.01345825381577015, -1.8535778165764378, 4.026597878992374, -7.31379743056397, -3.2732316971210884, 0.05266127850655572, -0.04078060524874891, 0, 0, 0, 0, 0, 0, b00000000, b00000000, 
1648486902989.4207, -120.09769234727942, -162.93270463263747, 55.40288820726167, -166.4473014134726, 89.96953303059074, -0.027447342550782197, -611.5313120181643, -727.9976443855054, 679.4440225948688, 45.1709095472778, 172.58418230263084, 5.731080591798055, 0.2288818657398224, 6.967163562774658, 1.2666230201721191, 0.2287903130054474, -0.0807495191693306, -0.008972168900072575, -1.3435260440570302, 4.334456660507426, -7.943604371461245, -3.3547811579785103, 0.08189620426773656, -0.005874036464607532, 0, 0, 0, 0, 0, 0, b00000000, b00000000, 
1648486903990.4233, -120.09905838511342, -162.93202161372048, 55.40015613159366, -166.4466183945556, 89.96816016256757, -0.026081304716779646, -611.5599982402732, -727.991888307272, 679.4405255197468, 45.17516422843649, 172.5839736893608, 5.733701125663072, 0.2471924126148224, 6.967163562774658, 1.280073881149292, 0.2467346489429474, -0.0762634351849556, -0.011215210892260075, -1.6034922176180901, 4.494576373121461, -7.646762307957905, -3.103710743832597, -0.04765903148080105, -0.009350420122954617, 0, 0, 0, 0, 0, 0, b00000000, b00000000, 
1648486904991.423, -120.10042442294743, -162.9347536893885, 55.39876277300298, -166.4438589981309, 89.96609744543822, -0.027447342550782197, -611.602614845483, -728.0131308873197, 679.3958334994101, 45.17545020377877, 172.58536468533882, 5.736542995322238, 0.2655029594898224, 6.948853015899658, 1.2845574617385864, 0.2624359428882599, -0.0852356031537056, -0.008972168900072575, -1.856536433684322, 4.740480401992569, -7.079207426917243, -2.9375148030485323, -0.33878612056105967, 0.03472117867061002, 0, 0, 0, 0, 0, 0, b00000000, b00000000, 
1648486905991.4277, -120.09837536619642, -162.93131127404678, 55.40220518834467, -166.4466183945556, 89.96884318148457, -0.02539828579977837, -611.5404015336713, -727.982180870385, 679.4646869495243, 45.17526768108656, 172.58421014256942, 5.729320542006467, 0.2563476860523224, 6.958008289337158, 1.2643811702728271, 0.2467346489429474, -0.0785064771771431, -0.01570129580795765, -1.3887334274830612, 4.8902982412511475, -7.884298547692003, -3.2199087071940835, -0.012362471489464254, -0.06917926016634726, 0, 0, 0, 0, 0, 0, b00000000, b00000000, 
1648486906992.4294, -120.09629898868874, -162.93202161372048, 55.401522169427665, -166.4486674513066, 89.96747031346139, -0.027447342550782197, -611.5176350641311, -728.0082179190877, 679.4425670669851, 45.16903343321751, 172.58610739575752, 5.7350550647564225, 0.2517700493335724, 6.925964832305908, 1.2733484506607056, 0.2377624809741974, -0.0672912672162056, -0.01345825381577015, -1.9225444562718088, 4.215304394550294, -6.564469823824518, -2.9309462829374087, -0.03556293530470733, -0.020713994976956973, 0, 0, 0, 0, 0, 0, b00000000, b00000000, 
1648486907993.425, -120.09905838511342, -162.93131127404678, 55.40083915051066, -166.4493504702236, 89.96884318148457, -0.02881338038478475, -611.5456276005418, -727.9776548854064, 679.4479278243535, 45.170777103910076, 172.58396111658575, 5.735365291265527, 0.2471924126148224, 6.935120105743408, 1.275590181350708, 0.2287903130054474, -0.0762634351849556, -0.008972168900072575, -2.0462261248135953, 4.03014165449093, -6.693541894352573, -3.0787070438030644, -0.0924229974141237, 0.02883953677209708, 0, 0, 0, 0, 0, 0, b00000000, b00000000, 
1648486908995.428, -120.09629898868874, -162.9347536893885, 55.40083915051066, -166.4473014134726, 89.96953303059074, -0.027447342550782197, -611.5301026040133, -728.0411569307806, 679.3979836596563, 45.16850311432071, 172.58353035018072, 5.737227797158891, 0.2243042290210724, 6.958008289337158, 1.280073881149292, 0.2512207329273224, -0.0785064771771431, -0.01345825381577015, -1.1920069179945787, 4.295043098503212, -7.412547190856543, -2.998092426875398, -0.052396865695096724, -0.06754329129333031, 0, 0, 0, 0, 0, 0, b00000000, b00000000, 
1648486909996.4272, -120.09769234727942, -162.93407067047147, 55.40288820726167, -166.4466183945556, 89.97021604950774, -0.026764323633780923, -611.5380406994914, -728.0112862622526, 679.4238079497188, 45.171772662051936, 172.5830743566774, 5.731819967155412, 0.2655029594898224, 6.953430652618408, 1.2598974704742432, 0.2444916069507599, -0.0874786451458931, -0.008972168900072575, -1.5742790389356818, 5.0586448091755685, -7.8755580375411744, -3.331395479102735, -0.13442272421990822, 0.023494710764432186, 0, 0, 0, 0, 0, 0, b00000000, b00000000, 
1648486910997.4292, -120.09769234727942, -162.9306282551298, 55.40015613159366, -166.4479844323896, 89.96609744543822, -0.026081304716779646, -611.5388390414543, -727.9885339007951, 679.459044921584, 45.17349410784846, 172.5865158696538, 5.734575362081886, 0.2288818657398224, 6.944275379180908, 1.2711066007614136, 0.2377624809741974, -0.0785064771771431, -0.01345825381577015, -1.3814220072081231, 4.19893498607002, -7.187062007073858, -3.097332803773756, -0.018152179453537386, -0.06114259187713708, 0, 0, 0, 0, 0, 0, b00000000, b00000000, 
1648486911997.4685, -120.09700932836242, -162.93131127404678, 55.39947311267666, -166.4466183945556, 89.96953303059074, -0.027447342550782197, -611.5279137146737, -728.0144183268354, 679.4479949919631, 45.16976169883813, 172.58406668049253, 5.733091573311802, 0.2471924126148224, 6.958008289337158, 1.275590181350708, 0.2601929008960724, -0.0942077711224556, -0.006729126907885075, -1.3630655172355017, 4.846499280869756, -7.6296120211505345, -3.125575046910494, -0.29759914688305056, 0.030718077371825317, 0, 0, 0, 0, 0, 0, b00000000, b00000000, 
1648486912999.4656, -120.09974140403042, -162.93131127404678, 55.39947311267666, -166.4479844323896, 89.96884318148457, -0.02813036146778347, -611.5614959981351, -727.9812055915071, 679.4437729263218, 45.17283602000349, 172.58340597242284, 5.735358160432265, 0.2380371391773224, 6.935120105743408, 1.3002501726150513, 0.2377624809741974, -0.0874786451458931, -0.011215210892260075, -2.268564624759612, 3.4604238776414085, -5.963172279971207, -2.837019504940508, -0.3745588439242293, -0.01226391937938806, 0, 0, 0, 0, 0, 0, b00000000, b00000000, 
1648486914000.4673, -120.09905838511342, -162.93338765155448, 55.40015613159366, -166.4466183945556, 89.96747031346139, -0.026081304716779646, -611.5682595453328, -728.0023229067954, 679.418184677595, 45.175195269472134, 172.5842020665713, 5.736033150657232, 0.2609253227710724, 6.935120105743408, 1.2711066007614136, 0.2332763969898224, -0.0829925611615181, -0.02018737979233265, -1.9322539163403367, 4.280246930620621, -6.873872795682218, -3.1350937145642317, -0.1529826850518717, -0.11911116064053343, 0, 0, 0, 0, 0, 0, b00000000, b00000000, 
1648486915001.47, -120.09905838511342, -162.93270463263747, 55.40357122617867, -166.4473014134726, 89.9709058986139, -0.02813036146778347, -611.5424089570422, -727.9814873700102, 679.4482379260478, 45.17171902211842, 172.5827712056443, 5.729432648175595, 0.2380371391773224, 6.953430652618408, 1.2666230201721191, 0.2467346489429474, -0.0785064771771431, -0.011215210892260075, -1.2373270833564207, 4.664905147239985, -7.677060854862462, -3.1529313474087957, -0.009066265974138, -0.026459791467935256, 0, 0, 0, 0, 0, 0, b00000000, b00000000, 
1648486916003.4697, -120.09700932836242, -162.93338765155448, 55.401522169427665, -166.4479844323896, 89.96953303059074, -0.024715266882777098, -611.5323311450819, -728.0148748631595, 679.4223536413804, 45.17380229880411, 172.58266071724142, 5.735236389207299, 0.2334595024585724, 6.948853015899658, 1.2666230201721191, 0.2355194389820099, -0.0829925611615181, -0.02243042178452015, -1.241916082637591, 4.280021632343505, -7.450727336608273, -3.200936124511051, -0.0019219668230220852, -0.18580107906307913, 0, 0, 0, 0, 0, 0, b00000000, b00000000, 
1648486917004.4722, -120.09905838511342, -162.93407067047147, 55.401522169427665, -166.4486674513066, 89.96747031346139, -0.02813036146778347, -611.5618408081232, -727.996244958485, 679.4090830882253, 45.1719841562272, 172.5845578740959, 5.738038794873084, 0.2700805962085724, 6.930542469024658, 1.2867993116378784, 0.2557068169116974, -0.0807495191693306, -0.01345825381577015, -2.1622576104804234, 4.420303603703999, -6.404980718566949, -2.822782422101306, -0.35240520786313334, -0.011439769168821196, 0, 0, 0, 0, 0, 0, b00000000, b00000000, 
1648486918005.4727, -120.09629898868874, -162.93270463263747, 55.40083915051066, -166.4479844323896, 89.96953303059074, -0.027447342550782197, -611.5191847804408, -728.0223316210851, 679.4293674620749, 45.16859465455375, 172.58395912187274, 5.735193331095778, 0.2700805962085724, 6.944275379180908, 1.2688647508621216, 0.2444916069507599, -0.0807495191693306, -0.008972168900072575, -1.917058468920467, 4.7984566130533155, -7.30942188953853, -3.1560754423099215, -0.1653056017856284, 0.041165453572636915, 0, 0, 0, 0, 0, 0, b00000000, b00000000, 
1648486919006.0732, -120.09974140403042, -162.93543670830547, 55.40288820726167, -166.4486674513066, 89.96678729454439, -0.026081304716779646, -611.57663083605, -727.9904002828606, 679.3950829510346, 45.176252898615246, 172.5841559913117, 5.738357760352895, 0.2197265923023224, 6.948853015899658, 1.2867993116378784, 0.2601929008960724, -0.0852356031537056, -0.01345825381577015, -1.168645549815502, 4.189594628252438, -6.99324515902889, -2.85699559104466, -0.21681095989017873, -0.07620835820275858, 0, 0, 0, 0, 0, 0, b00000000, b00000000, 
1648486920007.7104, -120.10042442294743, -162.93202161372048, 55.40357122617867, -166.4466183945556, 89.96678729454439, -0.027447342550782197, -611.5681566742551, -727.9569849982122, 679.4614270004199, 45.17568556517323, 172.58620481467122, 5.729127384111891, 0.2380371391773224, 6.971741199493408, 1.2733484506607056, 0.2400055229663849, -0.0874786451458931, -0.01794433780014515, -1.2962069772801241, 4.433949204489903, -7.949703737327864, -3.2841338636375945, -0.049178425411284414, -0.12475326838052392, 0, 0, 0, 0, 0, 0, b00000000, b00000000, 
1648486921009.026, -120.09769234727942, -162.93270463263747, 55.40083915051066, -166.4493504702236, 89.96747031346139, -0.026081304716779646, -611.5413284156882, -728.0002736105206, 679.4250964377898, 45.17302525367267, 172.58440683166737, 5.738116913933972, 0.2197265923023224, 6.967163562774658, 1.2733484506607056, 0.2355194389820099, -0.0874786451458931, -0.008972168900072575, -1.2282600412141071, 4.209505130125184, -7.780005374345627, -3.2755031362671616, -0.031407026141917135, -0.020769261799018002, 0, 0, 0, 0, 0, 0, b00000000, b00000000, 
1648486922010.15, -120.09700932836242, -162.93202161372048, 55.39947311267666, -166.4486674513066, 89.96678729454439, -0.027447342550782197, -611.5349012599426, -728.0112969092158, 679.4300081318247, 45.17005660975149, 172.58582785909942, 5.738389719535925, 0.2334595024585724, 6.930542469024658, 1.2576557397842407, 0.2400055229663849, -0.0762634351849556, -0.01345825381577015, -1.196977797359135, 4.540450333824731, -7.23362079444327, -3.1237081447022996, 0.028378626215385602, -0.059248861535287856, 0, 0, 0, 0, 0, 0, b00000000, b00000000, 
1648486923010.3801, -120.09905838511342, -162.93407067047147, 55.40083915051066, -166.4466183945556, 89.96747031346139, -0.026764323633780923, -611.56860597104, -728.0045701638888, 679.4112107923401, 45.17416815646737, 172.5844475893579, 5.736017936348465, 0.2105713039636612, 6.967163562774658, 1.2890410423278809, 0.2332763969898224, -0.0785064771771431, -0.01794433780014515, -1.3770965500490402, 3.6051149312034574, -7.250287796239781, -3.054812868657408, 0.017602510207752872, -0.13653680257707562, 0, 0, 0, 0, 0, 0, b00000000, b00000000, 
1648486924012.238, -120.09561596977174, -162.93131127404678, 55.40015613159366, -166.44454201704792, 89.96953303059074, -0.026081304716779646, -611.5126173991971, -728.0299614403012, 679.4585719162061, 45.16997382603425, 172.58496732832054, 5.729020195786491, 0.2334595024585724, 6.962585926055908, 1.2845574617385864, 0.2601929008960724, -0.0740203931927681, -0.011215210892260075, -1.2873830952496537, 4.4924552776674105, -7.473885333715707, -2.912783155837584, -0.07033937720870109, -0.022859516144696446, 0, 0, 0, 0, 0, 0, b00000000, b00000000, 
1648486925013.4521, -120.09905838511342, -162.9347536893885, 55.40220518834467, -166.4473014134726, 89.96609744543822, -0.02813036146778347, -611.5682859610803, -727.9997482627389, 679.4062934392076, 45.172365640752346, 172.58623521710624, 5.7365756558975285, 0.2243042290210724, 6.967163562774658, 1.2867993116378784, 0.2489776909351349, -0.0807495191693306, -0.01794433780014515, -1.2670031419672494, 4.106102822206947, -7.447955224053881, -3.008165428951868, -0.06997571560944636, -0.12838130029861633, 0, 0, 0, 0, 0, 0, b00000000, b00000000, 
1648486926015.157, -120.09769234727942, -162.93131127404678, 55.40083915051066, -166.4459080548819, 89.96884318148457, -0.026764323633780923, -611.5356706330018, -727.999885956521, 679.4585318711798, 45.17212259252991, 172.5847909564189, 5.730281139499474, 0.2655029594898224, 6.935120105743408, 1.2666230201721191, 0.2601929008960724, -0.0762634351849556, -0.011215210892260075, -1.55552887474918, 5.052674120733284, -7.236102816722843, -2.9834802897077433, -0.15830409861802547, 0.006163367827408339, 0, 0, 0, 0, 0, 0, b00000000, b00000000, 
1648486927015.1995, -120.09837536619642, -162.93131127404678, 55.40083915051066, -166.44454201704792, 89.96953303059074, -0.02881338038478475, -611.5424609108445, -727.998345664865, 679.4627861604001, 45.17002795482401, 172.58499540084847, 5.727882145896625, 0.2517700493335724, 6.939697742462158, 1.280073881149292, 0.2377624809741974, -0.0829925611615181, -0.008972168900072575, -2.028440203175959, 4.167074886097535, -6.7557538108419815, -3.0530776081408404, -0.2158161860947606, 0.026969209947610637, 0, 0, 0, 0, 0, 0, b00000000, b00000000, 
1648486928016.2986, -120.09629898868874, -162.93338765155448, 55.401522169427665, -166.4466183945556, 89.96953303059074, -0.026081304716779646, -611.5238333315328, -728.0268470176952, 679.4265870268104, 45.17078481041373, 172.58385417437196, 5.733175545497291, 0.2380371391773224, 6.944275379180908, 1.2666230201721191, 0.2355194389820099, -0.0829925611615181, -0.011215210892260075, -1.485782261739751, 4.369298499427568, -7.314287605373814, -3.1999551694796446, -0.06170175523332318, -0.02637879056331424, 0, 0, 0, 0, 0, 0, b00000000, b00000000, 
1648486929017.746, -120.09769234727942, -162.93338765155448, 55.39947311267666, -166.4459080548819, 89.96953303059074, -0.026764323633780923, -611.5484384541905, -728.0258275806589, 679.4162410309003, 45.17172782610558, 172.58309899665161, 5.735125881258901, 0.2471924126148224, 6.935120105743408, 1.2688647508621216, 0.2467346489429474, -0.0852356031537056, -0.01570129580795765, -1.4849290778825985, 4.5204245813567185, -7.05727559655088, -3.071367228468073, -0.1759481609702912, -0.07985755164699271, 0, 0, 0, 0, 0, 0, b00000000, b00000000, 
1648486930019.4487, -120.10110744186443, -162.93131127404678, 55.39947311267666, -166.4473014134726, 89.96609744543822, -0.026764323633780923, -611.5879928633096, -727.9638242258272, 679.4458154987278, 45.17752730519072, 172.58509702407613, 5.735502960964498, 0.2563476860523224, 6.944275379180908, 1.2621393203735352, 0.2826233208179474, -0.0874786451458931, -0.01794433780014515, -0.7621025806880171, 5.558681099692136, -7.837118765418284, -2.980172795704935, -0.2362878914453555, -0.11636167360925664, 0, 0, 0, 0, 0, 0, b00000000, b00000000, 
1648486931020.448, -120.09837536619642, -162.9347536893885, 55.40083915051066, -166.4459080548819, 89.96747031346139, -0.027447342550782197, -611.5635320882241, -728.0198113232349, 679.4022475008948, 45.172120876384206, 172.58498271560546, 5.735972925103614, 0.2471924126148224, 6.925964832305908, 1.2845574617385864, 0.2534637749195099, -0.0829925611615181, -0.01345825381577015, -1.815879833619973, 4.193200771749823, -6.326540221094842, -2.8131443775680864, -0.31351857961119867, -0.03897769776562482, 0, 0, 0, 0, 0, 0, b00000000, b00000000, 
1648486932021.4514, -120.09974140403042, -162.93338765155448, 55.40220518834467, -166.4493504702236, 89.96609744543822, -0.027447342550782197, -611.5680623126883, -727.9753517123282, 679.4222876350424, 45.17434994611209, 172.5855217823431, 5.737607167469717, 0.2059936672449112, 6.930542469024658, 1.2711066007614136, 0.2736511528491974, -0.0785064771771431, -0.01345825381577015, -0.48375070941709475, 4.619930578684016, -7.068774532829588, -2.7509092233767265, -0.10530712946708344, -0.09359164601851509, 0, 0, 0, 0, 0, 0, b00000000, b00000000, 
1648486933022.4468, -120.09837536619642, -162.92994523621277, 55.40357122617867, -166.4500334891406, 89.96816016256757, -0.026081304716779646, -611.525199269442, -727.9537311879632, 679.484829384806, 45.17428811679891, 172.58493988806467, 5.730635024107433, 0.2746582329273224, 6.962585926055908, 1.2688647508621216, 0.2422485649585724, -0.0829925611615181, -0.011215210892260075, -1.8812237496799677, 4.9110822860206715, -7.836721605045032, -3.2948927358876308, -0.1229345164412295, 0.011157955784140638, 0, 0, 0, 0, 0, 0, b00000000, b00000000, 
1648486934022.5535, -120.09769234727942, -162.93270463263747, 55.401522169427665, -166.4479844323896, 89.96678729454439, -0.02539828579977837, -611.5435672372977, -727.9986028188174, 679.433475504555, 45.174360163153345, 172.58539855047687, 5.735355642089826, 0.2426147758960724, 6.948853015899658, 1.27783203125, 0.2243042290210724, -0.0807495191693306, -0.01570129580795765, -1.9254659253296809, 3.889191795083141, -6.994147715754582, -3.1768441153624036, -0.06418822376993236, -0.07254387236051668, 0, 0, 0, 0, 0, 0, b00000000, b00000000, 
1648486935024.21, -120.09769234727942, -162.93338765155448, 55.40220518834467, -166.4466183945556, 89.96884318148457, -0.026764323633780923, -611.5402456009946, -728.007602706785, 679.4307646003585, 45.17202520073619, 172.58436264297612, 5.7324044664916185, 0.2471924126148224, 6.930542469024658, 1.27783203125, 0.2444916069507599, -0.0785064771771431, -0.01570129580795765, -1.7657781897530571, 4.206614627765916, -6.609824959000133, -2.930859189489674, -0.17229914256873335, -0.06736877690294091, 0, 0, 0, 0, 0, 0, b00000000, b00000000, 
1648486936025.9534, -120.09837536619642, -162.93202161372048, 55.401522169427665, -166.4473014134726, 89.96884318148457, -0.026764323633780923, -611.5435039139627, -727.9910340225582, 679.4468016488229, 45.173033643888054, 172.58408684882625, 5.732394346771226, 0.2288818657398224, 6.944275379180908, 1.2823156118392944, 0.2557068169116974, -0.0785064771771431, -0.008972168900072575, -1.3823402551355155, 4.3001515761405225, -6.965890557528696, -2.881093712070625, -0.1536667223580335, 0.0014472737465551777, 0, 0, 0, 0, 0, 0, b00000000, b00000000, 
1648486937026.0435, -120.09493295085474, -162.93338765155448, 55.40220518834467, -166.4459080548819, 89.96953303059074, -0.027447342550782197, -611.5038269707586, -728.0402549769269, 679.4329783588646, 45.16678648748642, 172.585342183747, 5.731091454005616, 0.2929687798023224, 6.903076648712158, 1.27783203125, 0.2332763969898224, -0.0785064771771431, -0.01570129580795765, -2.8579987249389665, 4.191039864240498, -5.69521767369116, -2.9079350003681244, -0.3607853793561478, -0.008730495338868827, 0, 0, 0, 0, 0, 0, b00000000, b00000000, 
1648486938027.0083, -120.10110744186443, -162.93270463263747, 55.40083915051066, -166.4466183945556, 89.96816016256757, -0.024715266882777098, -611.5886438642456, -727.97099042213, 679.4335277637505, 45.1803091827252, 172.58260355701069, 5.733685909066712, 0.2563476860523224, 6.935120105743408, 1.2733484506607056, 0.2557068169116974, -0.0785064771771431, -0.01570129580795765, -1.583031149307549, 4.668716872060647, -6.981643331980206, -2.9411818950032087, -0.1793916867954313, -0.06303242542700846, 0, 0, 0, 0, 0, 0, b00000000, b00000000, 
1648486939028.1282, -120.09769234727942, -162.93202161372048, 55.40288820726167, -166.4479844323896, 89.96816016256757, -0.026081304716779646, -611.5318089573916, -727.987478758245, 679.453036528925, 45.17322956098284, 172.58498196502674, 5.731698066079397, 0.2380371391773224, 6.948853015899658, 1.2621393203735352, 0.2646789848804474, -0.0785064771771431, -0.006729126907885075, -0.9091354849218342, 5.146284041156822, -7.831400552639555, -3.060350304703657, -0.056594412076500775, 0.028957305342905734, 0, 0, 0, 0, 0, 0, b00000000, b00000000, 
1648486940028.3005, -120.09974140403042, -162.9306282551298, 55.39947311267666, -166.4438589981309, 89.96816016256757, -0.02813036146778347, -611.5659947296674, -727.9852894501461, 679.4676612968027, 45.17336195018297, 172.58544685807755, 5.728448408977644, 0.2471924126148224, 6.930542469024658, 1.2711066007614136, 0.2198181450366974, -0.0740203931927681, -0.01345825381577015, -2.074441628341967, 3.9009061035112444, -6.6308729898794745, -3.131364529323413, -0.017759348925916657, -0.029558355552847637, 0, 0, 0, 0, 0, 0, b00000000, b00000000, 
1648486941028.8965, -120.10042442294743, -162.92994523621277, 55.401522169427665, -166.4466183945556, 89.96678729454439, -0.027447342550782197, -611.5647202812129, -727.9512886379229, 679.4828188030497, 45.17566651957995, 172.5862220179431, 5.729088147995569, 0.2746582329273224, 6.953430652618408, 1.280073881149292, 0.2422485649585724, -0.0852356031537056, -0.011215210892260075, -2.1929462418379284, 4.5483736902297744, -7.198454964398303, -3.1476473410580823, -0.25553957027136015, 0.01644646067718572, 0, 0, 0, 0, 0, 0, b00000000, b00000000, 
1648486942029.8977, -120.09837536619642, -162.93407067047147, 55.40428156585235, -166.4479844323896, 89.96747031346139, -0.026764323633780923, -611.5468082482276, -727.9888542729379, 679.4280716786523, 45.17331572122618, 172.58537988308106, 5.732939591472472, 0.2380371391773224, 6.916809558868408, 1.2711066007614136, 0.2512207329273224, -0.0807495191693306, -0.01345825381577015, -1.4645730821100151, 4.352774815232141, -6.475098574101163, -2.875742432537449, -0.20276752681301788, -0.05187990794944883, 0, 0, 0, 0, 0, 0, b00000000, b00000000, 
1648486943031.214, -120.09905838511342, -162.93338765155448, 55.39876277300298, -166.4459080548819, 89.96953303059074, -0.027447342550782197, -611.5673275508916, -728.0156878485967, 679.4118992664462, 45.172681228439714, 172.58255335795417, 5.736142287491458, 0.2380371391773224, 6.948853015899658, 1.2890410423278809, 0.2467346489429474, -0.0874786451458931, -0.02018737979233265, -1.6544513901171036, 3.973456226114336, -6.809753823308574, -2.9516224680979053, -0.24896021113402952, -0.1454957611388196, 0, 0, 0, 0, 0, 0, b00000000, b00000000, 
1648486944033.1582, -120.09837536619642, -162.93270463263747, 55.40083915051066, -166.4473014134726, 89.96953303059074, -0.027447342550782197, -611.5465865346267, -728.0019406643803, 679.4314761450457, 45.17176275823612, 172.58327493199624, 5.734125235411505, 0.2471924126148224, 6.953430652618408, 1.2733484506607056, 0.2691650688648224, -0.0829925611615181, -0.02018737979233265, -1.0261386052304795, 4.959337131951984, -7.636871374461918, -2.9686444673353614, -0.16235919796936293, -0.1454862758316029, 0, 0, 0, 0, 0, 0, b00000000, b00000000, 
1648486945033.2249, -120.09837536619642, -162.93270463263747, 55.39876277300298, -166.4486674513066, 89.96884318148457, -0.024715266882777098, -611.5559130790353, -728.0075062734073, 679.4145001125878, 45.17574234910687, 172.5819063506331, 5.739624409818658, 0.2014160305261612, 6.930542469024658, 1.275590181350708, 0.2691650688648224, -0.0762634351849556, -0.02243042178452015, -0.4802177254121599, 4.305069756312124, -6.886659148967925, -2.7010008460526054, -0.06159635432036281, -0.21606698989768525, 0, 0, 0, 0, 0, 0, b00000000, b00000000, 
1648486946033.3105, -120.09769234727942, -162.9306282551298, 55.40083915051066, -166.4459080548819, 89.96884318148457, -0.02881338038478475, -611.5301060102835, -727.9954741895549, 679.4697197342488, 45.16906988927886, 172.5857450925908, 5.7292177431443, 0.2746582329273224, 6.962585926055908, 1.2823156118392944, 0.2422485649585724, -0.0852356031537056, -0.01570129580795765, -2.1287453086443175, 4.5237039899874825, -7.39804712727668, -3.172222062062227, -0.22483992085182064, -0.045438334630728855, 0, 0, 0, 0, 0, 0, b00000000, b00000000, 
1648486947033.3828, -120.09561596977174, -162.92994523621277, 55.401522169427665, -166.4473014134726, 89.96953303059074, -0.026764323633780923, -611.4967497831807, -728.004136845571, 679.4807522345724, 45.16892026728869, 172.58524711178262, 5.729061704497476, 0.2243042290210724, 6.944275379180908, 1.2711066007614136, 0.2512207329273224, -0.0829925611615181, -0.01794433780014515, -1.0137480699305943, 4.396625806589957, -7.295839000856344, -3.023789034403384, -0.07963074364161583, -0.13538635428462176, 0, 0, 0, 0, 0, 0, b00000000, b00000000, 
1648486948034.0999, -120.09837536619642, -162.93338765155448, 55.40220518834467, -166.4479844323896, 89.96472457741505, -0.027447342550782197, -611.5560497596729, -727.9916131067929, 679.4264800256235, 45.17267795370075, 172.5877821504977, 5.736173876532954, 0.2471924126148224, 6.971741199493408, 1.2688647508621216, 0.2489776909351349, -0.0852356031537056, -0.008972168900072575, -1.298151932176263, 4.882834129894512, -8.167264305136845, -3.283495765693821, -0.06741425949315522, 0.005787604923002912, 0, 0, 0, 0, 0, 0, b00000000, b00000000, 
1648486949035.3384, -120.09769234727942, -162.93338765155448, 55.39947311267666, -166.4500334891406, 89.96884318148457, -0.02539828579977837, -611.545455099883, -728.0133476580869, 679.4034764677822, 45.17357934057148, 172.58205518467508, 5.741629796550618, 0.2380371391773224, 6.944275379180908, 1.2733484506607056, 0.2579498589038849, -0.0829925611615181, -0.006729126907885075, -1.3058675822385786, 4.679982617100952, -7.27563143229363, -2.997621691179271, -0.17924301367454198, 0.03271279630604072, 0, 0, 0, 0, 0, 0, b00000000, b00000000, 
1648486950035.3408, -120.09974140403042, -162.9306282551298, 55.40015613159366, -166.4466183945556, 89.96816016256757, -0.027447342550782197, -611.5604344348534, -727.9738495192365, 679.4633159625984, 45.17422058446859, 172.5846064455646, 5.73157768491823, 0.2517700493335724, 6.935120105743408, 1.2890410423278809, 0.2646789848804474, -0.0829925611615181, -0.01794433780014515, -1.680408802408836, 4.37825239848831, -6.542858571102016, -2.750046477569194, -0.3396194725638115, -0.09721552934792813, 0, 0, 0, 0, 0, 0, b00000000, b00000000, 
1648486951036.3442, -120.09837536619642, -162.93131127404678, 55.39876277300298, -166.4466183945556, 89.96884318148457, -0.029496399301786023, -611.546954123231, -728.0041931474749, 679.4436567296647, 45.16877727635805, 172.5846638502094, 5.734372042061359, 0.2151489406824112, 6.939697742462158, 1.2890410423278809, 0.2422485649585724, -0.0829925611615181, -0.01794433780014515, -1.4637288180551637, 3.626109070572973, -6.5035144670323595, -2.869901695099272, -0.16783600423118153, -0.13340008934746284, 0, 0, 0, 0, 0, 0, b00000000, b00000000, 
1648486952037.3418, -120.09905838511342, -162.93202161372048, 55.40220518834467, -166.4473014134726, 89.96472457741505, -0.027447342550782197, -611.5591467896807, -727.9747235686534, 679.4509166134656, 45.17385815062209, 172.5881070545422, 5.733097237377499, 0.2426147758960724, 6.962585926055908, 1.2643811702728271, 0.2512207329273224, -0.0874786451458931, -0.01345825381577015, -1.083707577903903, 4.904865967960921, -8.059123949367244, -3.2579174689294508, -0.0772176308841993, -0.06416322887316683, 0, 0, 0, 0, 0, 0, b00000000, b00000000, 
1648486953038.3425, -120.09769234727942, -162.93131127404678, 55.40015613159366, -166.4486674513066, 89.96747031346139, -0.02881338038478475, -611.5347947189491, -727.9960071181512, 679.4458292357881, 45.16899088291637, 172.58581815641114, 5.735975206213291, 0.2563476860523224, 6.971741199493408, 1.2643811702728271, 0.2467346489429474, -0.0785064771771431, -0.01345825381577015, -1.3293057336259795, 5.007365116611993, -8.293934386273282, -3.304477157087686, 0.031371374359493914, -0.04086013443808503, 0, 0, 0, 0, 0, 0, b00000000, b00000000, 
1648486954039.0764, -120.09769234727942, -162.93270463263747, 55.40288820726167, -166.4473014134726, 89.96678729454439, -0.026764323633780923, -611.5386790744836, -727.9934982701883, 679.4439643744947, 45.1724627873213, 172.5865044975512, 5.732263281354952, 0.2517700493335724, 6.921387195587158, 1.275590181350708, 0.2512207329273224, -0.0829925611615181, -0.008972168900072575, -1.8089416625072865, 4.424143041198967, -6.464155529648689, -2.9011103564448106, -0.2887840994534405, 0.024357227618309565, 0, 0, 0, 0, 0, 0, b00000000, b00000000, 
1648486955040.1965, -120.09700932836242, -162.93202161372048, 55.40015613159366, -166.4452250359649, 89.96747031346139, -0.027447342550782197, -611.5361928479633, -728.0172851919654, 679.4448306971261, 45.17027389189935, 172.58638937953685, 5.7319216193618265, 0.2609253227710724, 6.962585926055908, 1.280073881149292, 0.2736511528491974, -0.0874786451458931, -0.008972168900072575, -1.3976519167947101, 5.144453534459562, -7.725785980936429, -2.9959033803517516, -0.30219437054406584, 0.020074616888924174, 0, 0, 0, 0, 0, 0, b00000000, b00000000, 
1648486956040.6313, -120.09905838511342, -162.93131127404678, 55.40288820726167, -166.4452250359649, 89.96747031346139, -0.027447342550782197, -611.5500008692329, -727.9740531361658, 679.4731698848736, 45.173622102839936, 172.58655945986152, 5.726738262295253, 0.2151489406824112, 6.958008289337158, 1.2643811702728271, 0.2444916069507599, -0.0874786451458931, -0.011215210892260075, -0.825573290784726, 4.50298235479861, -7.872065677141909, -3.239156115027083, -0.0109498764181514, -0.06174196630518401, 0, 0, 0, 0, 0, 0, b00000000, b00000000, 
1648486957041.0771, -120.10042442294743, -162.9347536893885, 55.40083915051066, -166.4466183945556, 89.96953303059074, -0.02539828579977837, -611.5858051601551, -727.9976204860225, 679.4000682968011, 45.17784322229089, 172.58123057578933, 5.736159694033286, 0.2243042290210724, 6.921387195587158, 1.2823156118392944, 0.2400055229663849, -0.0762634351849556, -0.01570129580795765, -1.6456847367919836, 3.7245804458531553, -6.157304316030976, -2.816277613606052, -0.13927978927132761, -0.08596643034031762, 0, 0, 0, 0, 0, 0, b00000000, b00000000, 
1648486958042.995, -120.09769234727942, -162.93270463263747, 55.401522169427665, -166.4479844323896, 89.96747031346139, -0.027447342550782197, -611.5396579055191, -728.0008021430883, 679.4335118456514, 45.17112865707402, 172.58550447810714, 5.735020999784876, 0.2426147758960724, 6.925964832305908, 1.27783203125, 0.2377624809741974, -0.0785064771771431, -0.011215210892260075, -1.8968206384109658, 4.0278448031002, -6.4201197935232805, -2.9487680740079223, -0.17148110978967662, -0.008616820541771264, 0, 0, 0, 0, 0, 0, b00000000, b00000000, 
1648486959043.9126, -120.09769234727942, -162.93131127404678, 55.40015613159366, -166.4479844323896, 89.96747031346139, -0.027447342550782197, -611.5373232879302, -727.996928884667, 679.4479219814035, 45.17111662241968, 172.58551873047065, 5.734981252325884, 0.2151489406824112, 6.944275379180908, 1.2666230201721191, 0.2355194389820099, -0.0807495191693306, -0.011215210892260075, -1.127371843187829, 4.163322403147181, -7.317155590563547, -3.153091570089842, 0.022374365643263693, -0.04978648599285686, 0, 0, 0, 0, 0, 0, b00000000, b00000000, 
1648486960045.6409, -120.10042442294743, -162.93131127404678, 55.40015613159366, -166.4486674513066, 89.96747031346139, -0.02813036146778347, -611.5702624063124, -727.9664215118302, 679.4458212662911, 45.1741179974728, 172.58440957591247, 5.735931098115354, 0.2151489406824112, 6.935120105743408, 1.280073881149292, 0.2422485649585724, -0.0874786451458931, -0.01794433780014515, -1.2832248488168148, 3.8276527697975635, -6.6596889776431505, -2.9570515206956878, -0.17402374078348506, -0.1415135539363615, 0, 0, 0, 0, 0, 0, b00000000, b00000000, 
1648486961046.0605, -120.09700932836242, -162.93131127404678, 55.40220518834467, -166.4493504702236, 89.9709058986139, -0.02539828579977837, -611.5140022398201, -727.9924739249852, 679.4562897082219, 45.17260138694531, 172.58206925404644, 5.732566027009082, 0.2609253227710724, 6.916809558868408, 1.2711066007614136, 0.2624359428882599, -0.0762634351849556, -0.01345825381577015, -1.6353211389559006, 4.788115779050574, -6.562425463724033, -2.8078316795665557, -0.24286642446633222, -0.024958341120781435, 0, 0, 0, 0, 0, 0, b00000000, b00000000, 
1648486962048.0515, -120.09974140403042, -162.93338765155448, 55.40220518834467, -166.4479844323896, 89.96953303059074, -0.02881338038478475, -611.5603172188711, -727.9843991581498, 679.4265838136889, 45.17174723350375, 172.58319718509864, 5.734069412478019, 0.2563476860523224, 6.916809558868408, 1.2621393203735352, 0.2175751030445099, -0.0897216871380806, -0.011215210892260075, -2.1518968489148054, 4.0857572775735225, -6.49554321923002, -3.266355261131297, -0.2048958139534695, -0.005533048067469737, 0, 0, 0, 0, 0, 0, b00000000, b00000000, 
1648486963049.3281, -120.09905838511342, -162.93338765155448, 55.40220518834467, -166.4486674513066, 89.96678729454439, -0.02813036146778347, -611.5579869679638, -727.9857724611345, 679.4244168238279, 45.17221966205955, 172.58561191590815, 5.736290320656592, 0.2792358696460724, 6.948853015899658, 1.2464466094970703, 0.2579498589038849, -0.0740203931927681, -0.01345825381577015, -1.236084163547721, 5.747819590724799, -8.28330261952018, -3.274071611462546, 0.027734342688168247, -0.019252069135039546, 0, 0, 0, 0, 0, 0, b00000000, b00000000, 
1648486964050.537, -120.09905838511342, -162.93338765155448, 55.39876277300298, -166.4479844323896, 89.96953303059074, -0.02539828579977837, -611.5664943786625, -728.0090310009292, 679.4054650964335, 45.17560886052641, 172.58120761013208, 5.7392974185972925, 0.2288818657398224, 6.944275379180908, 1.2666230201721191, 0.2534637749195099, -0.0897216871380806, -0.02018737979233265, -0.9074820750164148, 4.5840824177908805, -7.459737513996863, -3.0970373399199707, -0.1351931162651519, -0.17048743992003262, 0, 0, 0, 0, 0, 0, b00000000, b00000000, 
1648486965051.1074, -120.09837536619642, -162.93270463263747, 55.40083915051066, -166.4479844323896, 89.96678729454439, -0.026081304716779646, -611.5536894697407, -727.9955991879352, 679.429301281129, 45.17429257401481, 172.58515118950945, 5.736346052624922, 0.2563476860523224, 6.921387195587158, 1.2666230201721191, 0.2444916069507599, -0.0807495191693306, -0.01345825381577015, -1.7383205207484638, 4.533460557903966, -6.701645937471385, -3.0156443989444655, -0.18545111175896928, -0.032823180092522275, 0, 0, 0, 0, 0, 0, b00000000, b00000000, 
1648486966051.337, -120.09837536619642, -162.93407067047147, 55.40220518834467, -166.4459080548819, 89.96953303059074, -0.02881338038478475, -611.5493578705662, -728.0100474736081, 679.4218302542253, 45.16982575993156, 172.58416878301003, 5.732007148248894, 0.2380371391773224, 6.944275379180908, 1.2823156118392944, 0.2108459621667862, -0.0807495191693306, -0.01794433780014515, -2.1903521451001606, 3.4068046345270147, -6.60363513406846, -3.1838400968023146, -0.05645316520322921, -0.10197077749842992, 0, 0, 0, 0, 0, 0, b00000000, b00000000, 
1648486967051.6218, -120.09837536619642, -162.93338765155448, 55.39876277300298, -166.4459080548819, 89.96609744543822, -0.026764323633780923, -611.5676771603235, -728.0178969964954, 679.4118284751135, 45.17334151189243, 172.58581145217912, 5.737633275417783, 0.2426147758960724, 6.948853015899658, 1.2576557397842407, 0.2489776909351349, -0.0762634351849556, -0.01570129580795765, -1.0395712966053186, 4.923208375177062, -7.8503420007064655, -3.182395137599567, 0.05356123673357275, -0.08498898049513062, 0, 0, 0, 0, 0, 0, b00000000, b00000000, 
1648486968052.915, -120.09974140403042, -162.93202161372048, 55.39947311267666, -166.4459080548819, 89.96884318148457, -0.02881338038478475, -611.567270899279, -727.9929253842429, 679.4385807472847, 45.17192494344013, 172.5840376689581, 5.733292517980218, 0.2059936672449112, 6.930542469024658, 1.275590181350708, 0.2422485649585724, -0.0785064771771431, -0.02018737979233265, -1.046718865783141, 3.8158530128263433, -6.669931859561855, -2.90011892537891, -0.03200255162613701, -0.17549748850908437, 0, 0, 0, 0, 0, 0, b00000000, b00000000, 
1648486969054.8604, -120.09905838511342, -162.9306282551298, 55.40015613159366, -166.4466183945556, 89.96953303059074, -0.026764323633780923, -611.5492050303275, -727.9825761909639, 679.4633331406076, 45.17397188199501, 172.5833626624244, 5.731023078853522, 0.2700805962085724, 6.921387195587158, 1.2890410423278809, 0.2557068169116974, -0.0852356031537056, -0.01345825381577015, -2.267330909907552, 4.292906444520953, -6.059411401775995, -2.7755949165378198, -0.450126941987117, -0.01294327875521406, 0, 0, 0, 0, 0, 0, b00000000, b00000000, 
1648486970056.0562, -120.09769234727942, -162.93131127404678, 55.40357122617867, -166.4473014134726, 89.96884318148457, -0.02539828579977837, -611.5263069300328, -727.9799757077743, 679.4709420698777, 45.17430033148238, 172.584714244301, 5.728319003547507, 0.2471924126148224, 6.976318836212158, 1.2867993116378784, 0.2669220268726349, -0.0762634351849556, -0.0291595496237278, -1.1205583854767398, 4.663155493159524, -7.861597662756644, -2.9310449514885386, -0.06372915523628028, -0.2579965427388585, 0, 0, 0, 0, 0, 0, b00000000, b00000000, 
1648486971057.0583, -120.10042442294743, -162.93270463263747, 55.40220518834467, -166.4479844323896, 89.96884318148457, -0.024715266882777098, -611.5718853676212, -727.9679415359639, 679.437687153128, 45.17915524280659, 172.5822708204537, 5.7334171906204965, 0.2563476860523224, 6.930542469024658, 1.2688647508621216, 0.2579498589038849, -0.0807495191693306, -0.011215210892260075, -1.525526085541173, 4.830703154876829, -7.009731847371956, -2.964478176895704, -0.20946123158398428, -0.005911079097042499, 0, 0, 0, 0, 0, 0, b00000000, b00000000, 
1648486972057.412, -120.09629898868874, -162.93338765155448, 55.39739673516898, -166.4493504702236, 89.96678729454439, -0.026764323633780923, -611.5388939246168, -728.0397929976561, 679.3928489204558, 45.16969728535993, 172.58464035858213, 5.74458177903709, 0.2655029594898224, 6.967163562774658, 1.2733484506607056, 0.2377624809741974, -0.0785064771771431, -0.01570129580795765, -1.8346845228143054, 4.6221721152709865, -7.791660024425055, -3.2590076943657076, -0.03838125139820932, -0.05379056939696003, 0, 0, 0, 0, 0, 0, b00000000, b00000000, 
