vnguyen43/Compensation-Electrical-Current-Drift-Human-Robot-Collision/data/data_1.csv
Time [sec], q1 (deg), q2 (deg), q3 (deg), q4 (deg), q5 (deg), q6 (deg), Px (mm), Py (mm), Pz (mm), Rx (deg), Ry (deg), Rz (deg), c1 (A), c2 (A), c3 (A), c4 (A), c5 (A), c6 (A), Fx R (N), Fy R (N), Fz R (N), Tx R (Nm), Ty R (Nm), Tz R (Nm), Fx A (N), Fy A (N), Fz A (N), Tx A (Nm), Ty A (Nm), Tz A (Nm), Din, Dout
1648478458184.718, -120.09769234727942, -162.93131127404678, 55.40015613159366, -166.4438589981309, 89.97434148376642, -0.026764323633780923, -611.5276849291746, -728.0165126064946, 679.4607775731004, 45.17119857054238, 172.58002974268425, 5.725892146742587, 0.2288818657398224, 6.985474109649658, 1.1702251434326172, 0.2915954887866974, -0.0538330152630806, 0.0269165076315403, 1.5840419524246707, 8.551780082776082, -12.138822822810871, -3.8736281304138833, 0.8191446863896614, 0.44182777782221483, 0, 0, 0, 0, 0, 0, b00000000, b00000000, 
1648478459184.93, -120.09769234727942, -162.93131127404678, 55.40288820726167, -166.4438589981309, 89.97434148376642, -0.026764323633780923, -611.5188898403883, -728.0010633260435, 679.4775063308003, 45.171425049899355, 172.58085270649286, 5.721813025204485, 0.2197265923023224, 6.889343738555908, 1.1724668741226196, 0.3028106987476349, -0.0672912672162056, 0.02018737979233265, 1.358197573783726, 7.880742191340742, -9.291395474732669, -3.273788056504823, 0.31825720626178655, 0.34122417092842605, 0, 0, 0, 0, 0, 0, b00000000, b00000000, 
1648478460186.6252, -120.09769234727942, -162.9306282551298, 55.40288820726167, -166.4438589981309, 89.97296861574326, -0.02539828579977837, -611.5204053806941, -727.9926679819987, 679.4886285671879, 45.17380252227157, 172.5818496943316, 5.721407109241739, 0.2426147758960724, 6.953430652618408, 1.1993685960769653, 0.2871094048023224, -0.0650482252240181, 0.02018737979233265, 0.515865419490039, 7.529578273475058, -10.195500332882768, -3.5129041619729224, 0.3797976174420325, 0.3762539152759806, 0, 0, 0, 0, 0, 0, b00000000, b00000000, 
1648478461186.9236, -120.09837536619642, -162.93202161372048, 55.401522169427665, -166.4452250359649, 89.97296861574326, -0.026081304716779646, -611.5374213550647, -728.0015841063292, 679.453280296069, 45.1734623328569, 172.58057618629212, 5.727543252543248, 0.2014160305261612, 6.958008289337158, 1.1702251434326172, 0.3005676567554474, -0.0650482252240181, 0.02467346377670765, 2.0383459956371754, 8.265257115143612, -11.395852944153965, -3.680765039373704, 0.6488872646672565, 0.37213494491718996, 0, 0, 0, 0, 0, 0, b00000000, b00000000, 
1648478462186.936, -120.09700932836242, -162.93202161372048, 55.40220518834467, -166.4452250359649, 89.97296861574326, -0.026764323633780923, -611.5171107484675, -728.0127263224563, 679.4574705161035, 45.17043841188467, 172.5816104319143, 5.726538208166342, 0.2380371391773224, 6.944275379180908, 1.1881595849990845, 0.2871094048023224, -0.0560760572552681, 0.0314025916159153, 0.6339690395853654, 7.800774248050823, -10.288632790799188, -3.523339487903538, 0.5006922270703933, 0.5287710675843248, 0, 0, 0, 0, 0, 0, b00000000, b00000000, 
1648478463187.9827, -120.09700932836242, -162.93202161372048, 55.40288820726167, -166.44454201704792, 89.97296861574326, -0.02539828579977837, -611.5174404586838, -728.0097855583156, 679.4637454125912, 45.172620651088224, 172.58151659606955, 5.724524536315563, 0.2746582329273224, 6.912231922149658, 1.1859177350997925, 0.2848663628101349, -0.0583190992474556, 0.02243042178452015, -0.019452085760696347, 7.844443925064955, -9.383532411392812, -3.422218578257922, 0.3104832224431954, 0.4496391140784721, 0, 0, 0, 0, 0, 0, b00000000, b00000000, 
1648478464189.3347, -120.09700932836242, -162.93202161372048, 55.401522169427665, -166.44454201704792, 89.97365163466026, -0.026081304716779646, -611.5194382196853, -728.0188604881779, 679.4554017783136, 45.17134413045405, 172.5807141424121, 5.726258875820449, 0.2197265923023224, 6.994629383087158, 1.181434154510498, 0.2983246147632599, -0.0628051832318306, 0.02243042178452015, 1.714051958515582, 8.342139910944264, -12.101507404754896, -3.81136988146469, 0.696881314851103, 0.36428929111743746, 0, 0, 0, 0, 0, 0, b00000000, b00000000, 
1648478465190.809, -120.09700932836242, -162.93202161372048, 55.40428156585235, -166.4438589981309, 89.97296861574326, -0.02881338038478475, -611.5101995038814, -728.0057992961443, 679.4744260218662, 45.16762308203053, 172.58337616687228, 5.721347153782762, 0.2471924126148224, 6.930542469024658, 1.1634997129440308, 0.2960815727710724, -0.0560760572552681, 0.02467346377670765, 1.2065228675661945, 8.565614769071011, -10.75392344905268, -3.6225502829286405, 0.5859630463715519, 0.43422228538670005, 0, 0, 0, 0, 0, 0, b00000000, b00000000, 
1648478466191.464, -120.09700932836242, -162.93202161372048, 55.40220518834467, -166.44180994137992, 89.97434148376642, -0.027447342550782197, -611.5181435302933, -728.023864476545, 679.468048577373, 45.169431701736706, 172.581560626745, 5.720822804778667, 0.2288818657398224, 6.912231922149658, 1.1993685960769653, 0.2938385307788849, -0.0650482252240181, 0.02243042178452015, 0.5583382515359878, 7.257024998662928, -9.023095564268823, -3.2113664386185374, 0.24105197003327428, 0.3967050829723009, 0, 0, 0, 0, 0, 0, b00000000, b00000000, 
1648478467193.9526, -120.09837536619642, -162.93202161372048, 55.401522169427665, -166.4479844323896, 89.97502450268342, -0.026764323633780923, -611.5275994640493, -727.9976417975009, 679.4448071019702, 45.17180757652283, 172.57810219442044, 5.7307882845681855, 0.2288818657398224, 6.976318836212158, 1.1859177350997925, 0.2960815727710724, -0.0650482252240181, 0.0269165076315403, 1.2571395775820893, 8.158936262302804, -11.390620275110683, -3.7101799142897844, 0.5454915719979548, 0.43960625858147656, 0, 0, 0, 0, 0, 0, b00000000, b00000000, 
1648478468195.8425, -120.09561596977174, -162.93202161372048, 55.40220518834467, -166.4452250359649, 89.97365163466026, -0.027447342550782197, -611.4970065411203, -728.0289476148195, 679.457491239334, 45.16718776377737, 172.58181098830948, 5.7262630300644055, 0.2517700493335724, 6.948853015899658, 1.1859177350997925, 0.2960815727710724, -0.0605621412396431, 0.02467346377670765, 0.7440295220438586, 8.149332819107707, -10.56855985238298, -3.549733422342794, 0.44179066370265835, 0.4435424613752754, 0, 0, 0, 0, 0, 0, b00000000, b00000000, 
1648478469197.3389, -120.09905838511342, -162.93131127404678, 55.40220518834467, -166.4459080548819, 89.97434148376642, -0.02813036146778347, -611.5338793483589, -727.9858830882084, 679.467013724714, 45.17117450782633, 172.5799717235316, 5.725843842693738, 0.2288818657398224, 6.925964832305908, 1.1702251434326172, 0.3005676567554474, -0.0650482252240181, 0.0269165076315403, 1.3722293792463045, 8.294649152964585, -10.437353382395834, -3.535761763318039, 0.4548623486648145, 0.4388815577011286, 0, 0, 0, 0, 0, 0, b00000000, b00000000, 
1648478470197.6572, -120.09905838511342, -162.93131127404678, 55.40015613159366, -166.44454201704792, 89.97434148376642, -0.026764323633780923, -611.5440231744021, -728.0001618419925, 679.4586687419643, 45.173187611400586, 172.5792523130081, 5.7268859835378665, 0.2655029594898224, 6.930542469024658, 1.192643165588379, 0.2960815727710724, -0.0583190992474556, 0.02467346377670765, 0.2553436332689707, 7.962797064773357, -9.80177063609645, -3.383349985280989, 0.3197218762940598, 0.46755881386297177, 0, 0, 0, 0, 0, 0, b00000000, b00000000, 
1648478471198.3438, -120.09974140403042, -162.93270463263747, 55.40428156585235, -166.4424929602969, 89.97434148376642, -0.02263888937509322, -611.5537682003733, -727.9838884490821, 679.4674326764585, 45.18086969895079, 172.578870282217, 5.7198100803868, 0.2380371391773224, 6.953430652618408, 1.1904014348983765, 0.2938385307788849, -0.0583190992474556, 0.02467346377670765, 0.8461125472264975, 7.895470763199258, -10.54209148966917, -3.514302003778689, 0.49512629391114743, 0.43255026148269266, 0, 0, 0, 0, 0, 0, b00000000, b00000000, 
1648478472200.6125, -120.09561596977174, -162.93202161372048, 55.40357122617867, -166.44317597921392, 89.97365163466026, -0.02539828579977837, -611.4979298859863, -728.0252610597073, 679.4721580215553, 45.17057549097291, 172.5820691840416, 5.721197593082695, 0.1968383938074112, 6.925964832305908, 1.18367600440979, 0.2803802788257599, -0.0628051832318306, 0.02018737979233265, 1.3013652565532392, 7.192909007123211, -9.83966087239716, -3.466018938216504, 0.5457127072062357, 0.3252544892829789, 0, 0, 0, 0, 0, 0, b00000000, b00000000, 
1648478473200.8435, -120.09905838511342, -162.93131127404678, 55.401522169427665, -166.44317597921392, 89.97434148376642, -0.027447342550782197, -611.5409083302322, -727.9964030627752, 679.4712590335711, 45.17238158624496, 172.58030718321234, 5.722785012439964, 0.2151489406824112, 6.967163562774658, 1.1657414436340332, 0.3072967827320099, -0.0605621412396431, 0.0269165076315403, 2.066390764030082, 8.728375257092964, -11.86738479887753, -3.729490771248031, 0.7016343239609752, 0.4168967254837683, 0, 0, 0, 0, 0, 0, b00000000, b00000000, 
1648478474202.243, -120.09837536619642, -162.93338765155448, 55.40220518834467, -166.4438589981309, 89.97227876663709, -0.026764323633780923, -611.5447667932538, -728.0121226992126, 679.4393473633382, 45.17263091112849, 172.5816537484896, 5.726794010057235, 0.2197265923023224, 6.962585926055908, 1.181434154510498, 0.2646789848804474, -0.0628051832318306, 0.02467346377670765, 0.8962131036360228, 7.4411105520649, -10.875617272760337, -3.8451638920910267, 0.664643177896074, 0.40888894615927274, 0, 0, 0, 0, 0, 0, b00000000, b00000000, 
1648478475202.5217, -120.09769234727942, -162.93270463263747, 55.401522169427665, -166.44317597921392, 89.97296861574326, -0.024032247965775824, -611.5373637296682, -728.0185975061845, 679.4484186147063, 45.17566400687439, 172.58050423018184, 5.72555142184897, 0.2380371391773224, 6.921387195587158, 1.2016104459762573, 0.2938385307788849, -0.0650482252240181, 0.0269165076315403, 0.364536135090004, 7.380386041376528, -9.221994700437051, -3.2644995323329136, 0.2233381194911877, 0.46799440396990905, 0, 0, 0, 0, 0, 0, b00000000, b00000000, 
1648478476204.1248, -120.09974140403042, -162.9306282551298, 55.401522169427665, -166.4459080548819, 89.97502450268342, -0.027447342550782197, -611.5405661683811, -727.977271295023, 679.4740001200345, 45.17309564218183, 172.5787967126657, 5.725553818302535, 0.2288818657398224, 6.935120105743408, 1.179192304611206, 0.2983246147632599, -0.0672912672162056, 0.0291595496237278, 1.1607991041061785, 8.09555523639928, -10.400205147688725, -3.535979483743549, 0.40351233077468923, 0.47111126819142335, 0, 0, 0, 0, 0, 0, b00000000, b00000000, 
1648478477205.2546, -120.09769234727942, -162.93131127404678, 55.40428156585235, -166.4479844323896, 89.9709058986139, -0.026764323633780923, -611.5165243469993, -727.9778331360639, 679.4732362415853, 45.17184352766144, 172.5832965867244, 5.727374985697892, 0.2197265923023224, 6.971741199493408, 1.179192304611206, 0.3117828667163849, -0.0560760572552681, 0.0291595496237278, 1.7598911004993432, 8.556789502629403, -11.600320757326566, -3.5804309745027387, 0.6477204460406896, 0.46222719920269795, 0, 0, 0, 0, 0, 0, b00000000, b00000000, 
1648478478205.4678, -120.09629898868874, -162.9306282551298, 55.40015613159366, -166.4438589981309, 89.97296861574326, -0.026081304716779646, -611.5107413462422, -728.0234133252277, 679.471908067871, 45.170454498823936, 172.5818668715891, 5.725501605933104, 0.2426147758960724, 6.962585926055908, 1.192643165588379, 0.2893524467945099, -0.0538330152630806, 0.0269165076315403, 0.6697907721580707, 7.871740657131492, -10.705717437505456, -3.5582692925067203, 0.5567646744132855, 0.47334000095663786, 0, 0, 0, 0, 0, 0, b00000000, b00000000, 
1648478479207.8228, -120.09700932836242, -162.93202161372048, 55.40083915051066, -166.44454201704792, 89.97434148376642, -0.029496399301786023, -611.5162013932312, -728.0257802530015, 679.4512726951459, 45.165986599608516, 172.58110488114522, 5.726911489849153, 0.2059936672449112, 6.967163562774658, 1.1679832935333252, 0.2781372368335724, -0.0605621412396431, 0.02467346377670765, 1.680886170804613, 7.978920993408904, -11.560786619430864, -3.880199575577553, 0.7949315931534353, 0.3843587602171813, 0, 0, 0, 0, 0, 0, b00000000, b00000000, 
1648478480209.6453, -120.09561596977174, -162.93202161372048, 55.40220518834467, -166.4424929602969, 89.97365163466026, -0.02813036146778347, -611.5003265288806, -728.0364545275344, 679.4659348652452, 45.16638326025776, 172.58284909779297, 5.7221548866431675, 0.2334595024585724, 6.948853015899658, 1.18367600440979, 0.2960815727710724, -0.0605621412396431, 0.02018737979233265, 1.14088175128875, 8.010544807605077, -10.643688381040324, -3.537257156853567, 0.5166561567278105, 0.3605411935478745, 0, 0, 0, 0, 0, 0, b00000000, b00000000, 
1648478481209.6255, -120.09837536619642, -162.93270463263747, 55.40288820726167, -166.4452250359649, 89.97296861574326, -0.026081304716779646, -611.5363238854004, -727.9995447585143, 679.4504806639976, 45.17352598317703, 172.58077898985306, 5.726522958965664, 0.2471924126148224, 6.935120105743408, 1.1747087240219116, 0.3117828667163849, -0.0672912672162056, 0.02243042178452015, 1.2938855641811595, 8.603287880316268, -10.651631396611867, -3.50630489475367, 0.368464171845562, 0.39389207561322864, 0, 0, 0, 0, 0, 0, b00000000, b00000000, 
1648478482210.3728, -120.09629898868874, -162.93543670830547, 55.40220518834467, -166.4438589981309, 89.97502450268342, -0.027447342550782197, -611.5209155123699, -728.0554851292956, 679.4059136308227, 45.16781818652908, 172.5795869840133, 5.728713990233287, 0.2334595024585724, 6.921387195587158, 1.1724668741226196, 0.3140259087085724, -0.0583190992474556, 0.01794433780014515, 1.560599734868036, 8.453623073205515, -10.333979842604084, -3.349104498580725, 0.47417810413401734, 0.3260580573276934, 0, 0, 0, 0, 0, 0, b00000000, b00000000, 
1648478483211.0962, -120.09700932836242, -162.93338765155448, 55.401522169427665, -166.4473014134726, 89.97434148376642, -0.02539828579977837, -611.5210155196919, -728.0235875041043, 679.4245590058931, 45.17191662146108, 172.57860474009178, 5.732153034049493, 0.2288818657398224, 6.912231922149658, 1.1702251434326172, 0.2983246147632599, -0.0560760572552681, 0.02018737979233265, 1.3215472397916956, 8.102473900802842, -10.008812786159805, -3.401946002388181, 0.5284346555097484, 0.35810170527678326, 0, 0, 0, 0, 0, 0, b00000000, b00000000, 
1648478484212.1404, -120.09769234727942, -162.93202161372048, 55.40083915051066, -166.4459080548819, 89.97434148376642, -0.026764323633780923, -611.52586181048, -728.013251034163, 679.4470228167027, 45.17103138327125, 172.5794261431436, 5.7290024169291, 0.1922607570886612, 6.958008289337158, 1.181434154510498, 0.2893524467945099, -0.0583190992474556, 0.0291595496237278, 1.6673528638377504, 7.6941275987748465, -10.941161678402812, -3.598530050395334, 0.6896062604521582, 0.4382276004407721, 0, 0, 0, 0, 0, 0, b00000000, b00000000, 
1648478485213.0334, -120.09629898868874, -162.93131127404678, 55.401522169427665, -166.44180994137992, 89.97502450268342, -0.02813036146778347, -611.5054846325163, -728.0307457037455, 679.4754977150947, 45.16719923288636, 172.5814824945694, 5.720492639745187, 0.2197265923023224, 6.958008289337158, 1.192643165588379, 0.3229980766773224, -0.0605621412396431, 0.0269165076315403, 1.5936727539089341, 8.312358025553689, -10.842801001953548, -3.3223073155867935, 0.4346470312079559, 0.43358049230196527, 0, 0, 0, 0, 0, 0, b00000000, b00000000, 
1648478486213.7773, -120.09561596977174, -162.93407067047147, 55.40220518834467, -166.4466183945556, 89.97502450268342, -0.02539828579977837, -611.5037858411088, -728.0429779682654, 679.4196985480581, 45.16976455870118, 172.57875137251872, 5.730868794618232, 0.2609253227710724, 6.925964832305908, 1.197126865386963, 0.3005676567554474, -0.0583190992474556, 0.0493469275534153, -0.03981196077531535, 8.040003450100906, -9.55653770010042, -3.3201865697173223, 0.20401928006227024, 0.8020177004279323, 0, 0, 0, 0, 0, 0, b00000000, b00000000, 
1648478487215.253, -120.09629898868874, -162.93131127404678, 55.40428156585235, -166.4466183945556, 89.97227876663709, -0.02539828579977837, -611.4990617078444, -727.9972571586852, 679.4774632343884, 45.17167955383765, 172.5825006741311, 5.724803827176015, 0.2563476860523224, 6.939697742462158, 1.1724668741226196, 0.3028106987476349, -0.0650482252240181, 0.01570129580795765, 1.156108092130923, 8.547845283016313, -10.78754238075565, -3.600397117984651, 0.443761457478468, 0.3145884507108182, 0, 0, 0, 0, 0, 0, b00000000, b00000000, 
1648478488215.4111, -120.09769234727942, -162.9306282551298, 55.40288820726167, -166.4459080548819, 89.97502450268342, -0.026081304716779646, -611.5116433726719, -727.9905675029847, 679.4823479780546, 45.17220737720718, 172.57958119292496, 5.723588041603738, 0.2334595024585724, 6.944275379180908, 1.179192304611206, 0.2960815727710724, -0.0583190992474556, 0.02018737979233265, 1.211691289196155, 8.095435110766362, -10.653443494520552, -3.539303229160936, 0.554675710087819, 0.36104693240779995, 0, 0, 0, 0, 0, 0, b00000000, b00000000, 
1648478489218.116, -120.09837536619642, -162.93270463263747, 55.40357122617867, -166.4438589981309, 89.97365163466026, -0.026764323633780923, -611.5337630339839, -728.0005739417817, 679.4589012749238, 45.172534174592755, 172.5809886057848, 5.723151227600943, 0.2563476860523224, 6.930542469024658, 1.194885015487671, 0.2871094048023224, -0.0672912672162056, 0.0291595496237278, 0.14458899643434903, 7.668823942104103, -9.658002521692131, -3.4706018912824224, 0.24117370517547615, 0.513716491542956, 0, 0, 0, 0, 0, 0, b00000000, b00000000, 
1648478490218.3052, -120.09905838511342, -162.93202161372048, 55.401522169427665, -166.4452250359649, 89.97227876663709, -0.02539828579977837, -611.5485158328074, -727.9929343336239, 679.4532595011482, 45.17565010819692, 172.5806835283908, 5.72783667976516, 0.2471924126148224, 6.935120105743408, 1.1769505739212036, 0.2983246147632599, -0.0628051832318306, 0.02018737979233265, 1.032488046774091, 8.25617996745833, -10.470137552788042, -3.5402293697508647, 0.4454896091206995, 0.37202773636254005, 0, 0, 0, 0, 0, 0, b00000000, b00000000, 
1648478491218.988, -120.09769234727942, -162.93131127404678, 55.39947311267666, -166.4452250359649, 89.97365163466026, -0.026764323633780923, -611.5295072626732, -728.015898461115, 679.4523648497359, 45.17115756660647, 172.5800749834947, 5.729252023944476, 0.2288818657398224, 6.967163562774658, 1.1747087240219116, 0.3072967827320099, -0.0628051832318306, 0.02243042178452015, 1.7045987184556581, 8.583256085029642, -11.57331234151384, -3.6695292230568244, 0.5940277009088899, 0.37332559666067994, 0, 0, 0, 0, 0, 0, b00000000, b00000000, 
1648478492220.5815, -120.09493295085474, -162.93338765155448, 55.40357122617867, -166.4438589981309, 89.97296861574326, -0.026764323633780923, -611.4949672029117, -728.042074098213, 679.4477246199986, 45.16745660253916, 172.58288088365842, 5.724535270044327, 0.2243042290210724, 6.953430652618408, 1.1769505739212036, 0.3050537407398224, -0.0605621412396431, 0.02018737979233265, 1.623995174274503, 8.32067253188553, -11.072450186701811, -3.5572670985810033, 0.5776786152060679, 0.34379102833129616, 0, 0, 0, 0, 0, 0, b00000000, b00000000, 
1648478493224.2078, -120.09629898868874, -162.93131127404678, 55.40357122617867, -166.4438589981309, 89.97434148376642, -0.02813036146778347, -611.4974771891357, -728.0129209554572, 679.4817045307141, 45.16732607042951, 172.58214695448086, 5.720793828862358, 0.2517700493335724, 6.944275379180908, 1.179192304611206, 0.3117828667163849, -0.0695343092083931, 0.0336456336081028, 1.0369786478788179, 8.674131842974665, -10.778646341057836, -3.557012780785471, 0.30390723752908355, 0.551200751485804, 0, 0, 0, 0, 0, 0, b00000000, b00000000, 
1648478494225.2588, -120.09356691302074, -162.9306282551298, 55.401522169427665, -166.44454201704792, 89.97296861574326, -0.026764323633780923, -611.4698553017712, -728.0435004798326, 679.4781715937479, 45.165383269820566, 172.5834892793924, 5.724529575924343, 0.2288818657398224, 6.962585926055908, 1.179192304611206, 0.3050537407398224, -0.0695343092083931, 0.01794433780014515, 1.5969488081247183, 8.351314860646237, -11.272665735066882, -3.648453221876337, 0.49152731356295587, 0.3093152888699931, 0, 0, 0, 0, 0, 0, b00000000, b00000000, 
1648478495225.597, -120.09493295085474, -162.9306282551298, 55.40083915051066, -166.4459080548819, 89.97296861574326, -0.024715266882777098, -611.4896387331574, -728.0279693067397, 679.4697476201117, 45.17036062799654, 172.58156339774266, 5.72761082805678, 0.2426147758960724, 6.884766101837158, 1.2016104459762573, 0.2691650688648224, -0.0583190992474556, 0.01794433780014515, -0.26424161192325923, 6.589388963234816, -7.930695326233432, -3.158456955361415, 0.24351009740596108, 0.36902776092460216, 0, 0, 0, 0, 0, 0, b00000000, b00000000, 
1648478496226.3193, -120.09700932836242, -162.93131127404678, 55.40015613159366, -166.44317597921392, 89.97365163466026, -0.026764323633780923, -611.5216863068317, -728.0246381274184, 679.4628736165156, 45.170363196232074, 172.5811630200952, 5.725176962779143, 0.2609253227710724, 6.912231922149658, 1.1545324325561523, 0.2781372368335724, -0.0583190992474556, 0.0358886756002903, 0.626802765078012, 8.509228449014262, -10.35565873744062, -3.7706264100021345, 0.5360548732769649, 0.6037902081221259, 0, 0, 0, 0, 0, 0, b00000000, b00000000, 
1648478497226.5288, -120.09561596977174, -162.93202161372048, 55.40428156585235, -166.44454201704792, 89.97502450268342, -0.026764323633780923, -611.4887900398192, -728.0204126532087, 679.4723310942976, 45.168191745923366, 172.58109999158424, 5.721570389635103, 0.2243042290210724, 6.948853015899658, 1.197126865386963, 0.3005676567554474, -0.0650482252240181, 0.0403747595846653, 0.8040154472639608, 7.809504080548411, -10.243400934542464, -3.428671517995266, 0.3329208256239277, 0.6281630096729959, 0, 0, 0, 0, 0, 0, b00000000, b00000000, 
1648478498227.0935, -120.10042442294743, -162.93270463263747, 55.40288820726167, -166.44454201704792, 89.97365163466026, -0.026764323633780923, -611.5609780754073, -727.9807950253121, 679.4526102307641, 45.175489818670194, 172.57971542706267, 5.725150130089222, 0.2334595024585724, 6.958008289337158, 1.1702251434326172, 0.2871094048023224, -0.0583190992474556, 0.0269165076315403, 1.263468140059756, 8.299359726854748, -11.283218379132288, -3.775794345724563, 0.6700879801983671, 0.44847794413165476, 0, 0, 0, 0, 0, 0, b00000000, b00000000, 
1648478499228.4597, -120.09769234727942, -162.93270463263747, 55.40083915051066, -166.4466183945556, 89.97365163466026, -0.026764323633780923, -611.5297634331914, -728.0161594871115, 679.433652869935, 45.171052476877925, 172.5796579389192, 5.731379373742713, 0.2380371391773224, 6.935120105743408, 1.1679832935333252, 0.2848663628101349, -0.0628051832318306, 0.0695343092083931, 0.5212500330799956, 8.495479215634205, -10.658064680993666, -3.785508792631028, 0.42774095643485466, 1.0357616145007644, 0, 0, 0, 0, 0, 0, b00000000, b00000000, 
1648478500229.0632, -120.09424993193774, -162.93131127404678, 55.40220518834467, -166.4452250359649, 89.97502450268342, -0.02539828579977837, -611.4751754217676, -728.0382009431452, 679.469102982621, 45.168035575790086, 172.5805771881299, 5.724692847842283, 0.2609253227710724, 6.953430652618408, 1.179192304611206, 0.3028106987476349, -0.0583190992474556, 0.02243042178452015, 0.9253443368732768, 8.563535367039158, -10.977177861732558, -3.5927840461467566, 0.49234444828291996, 0.4192435985546712, 0, 0, 0, 0, 0, 0, b00000000, b00000000, 
1648478501229.1577, -120.09561596977174, -162.93131127404678, 55.401522169427665, -166.4452250359649, 89.97365163466026, -0.024715266882777098, -611.4987926485294, -728.0251991923625, 679.4648873321376, 45.171319122028535, 172.5808283759468, 5.726281740642934, 0.2334595024585724, 6.921387195587158, 1.18367600440979, 0.2938385307788849, -0.0583190992474556, 0.02018737979233265, 0.9242537654013955, 7.764525472829766, -9.806857306937061, -3.3763838118893887, 0.4474900104317211, 0.36781185373008285, 0, 0, 0, 0, 0, 0, b00000000, b00000000, 
1648478502231.0125, -120.09905838511342, -162.9306282551298, 55.40288820726167, -166.4424929602969, 89.97502450268342, -0.02539828579977837, -611.5348485841408, -727.9844156325292, 679.4928846625794, 45.17557487109012, 172.57973967150107, 5.718456554745322, 0.2151489406824112, 6.861877918243408, 1.18367600440979, 0.2915954887866974, -0.0628051832318306, 0.0269165076315403, 0.7137226682103182, 7.165365553633531, -8.017602078056601, -3.0545652848385636, 0.2163735688612479, 0.44575499540058094, 0, 0, 0, 0, 0, 0, b00000000, b00000000, 
1648478503230.8914, -120.09769234727942, -162.93202161372048, 55.40083915051066, -166.44317597921392, 89.97365163466026, -0.024715266882777098, -611.5338628005852, -728.0181249451903, 679.4554210967877, 45.1744937270895, 172.5801162227823, 5.725246703725764, 0.2426147758960724, 6.967163562774658, 1.194885015487671, 0.2960815727710724, -0.0628051832318306, 0.02018737979233265, 0.8602421191529157, 7.931443066241449, -10.823118842503492, -3.564465328128014, 0.4603268530733648, 0.3713835614860336, 0, 0, 0, 0, 0, 0, b00000000, b00000000, 
1648478504232.7158, -120.09493295085474, -162.93270463263747, 55.40428156585235, -166.44454201704792, 89.97434148376642, -0.02813036146778347, -611.483546308062, -728.0333108163961, 679.4611706964339, 45.165179887140305, 172.58231770250117, 5.722865405150029, 0.2151489406824112, 6.930542469024658, 1.181434154510498, 0.2893524467945099, -0.0650482252240181, 0.02467346377670765, 1.194491528142258, 7.664816042888846, -10.119343655484213, -3.5042433477596937, 0.46845668494927606, 0.4007425097791077, 0, 0, 0, 0, 0, 0, b00000000, b00000000, 
1648478505235.3037, -120.09629898868874, -162.93270463263747, 55.401522169427665, -166.44317597921392, 89.97365163466026, -0.027447342550782197, -611.5142400671828, -728.0365173929318, 679.4484715358951, 45.16827697334427, 172.5816988296138, 5.725217299025737, 0.1922607570886612, 6.939697742462158, 1.192643165588379, 0.2960815727710724, -0.0628051832318306, 0.0314025916159153, 1.3874821247740001, 7.416279816507242, -10.084086471132135, -3.371627485608103, 0.4743854103155685, 0.4719476307954368, 0, 0, 0, 0, 0, 0, b00000000, b00000000, 
1648478506236.6204, -120.09837536619642, -162.93407067047147, 55.40288820726167, -166.4438589981309, 89.97434148376642, -0.026081304716779646, -611.5416555096634, -728.0163168227198, 679.4323956810575, 45.17328194075236, 172.57947109501464, 5.725930868611447, 0.2426147758960724, 6.953430652618408, 1.1881595849990845, 0.2736511528491974, -0.0583190992474556, 0.02018737979233265, 0.5314289979336846, 7.554052043952074, -10.452042698988427, -3.665694804541825, 0.564930516974419, 0.3800379112251945, 0, 0, 0, 0, 0, 0, b00000000, b00000000, 
1648478507238.504, -120.09769234727942, -162.93131127404678, 55.40083915051066, -166.4452250359649, 89.97502450268342, -0.026081304716779646, -611.5225586035516, -728.0096103807941, 679.4607467816679, 45.17204531932018, 172.5789526785924, 5.726643291992589, 0.2334595024585724, 6.967163562774658, 1.1545324325561523, 0.2803802788257599, -0.0628051832318306, 0.01794433780014515, 1.6821090424929126, 8.577287748910182, -12.013972256699585, -4.036548121525493, 0.8015448949473764, 0.31330733471574274, 0, 0, 0, 0, 0, 0, b00000000, b00000000, 
1648478508238.4346, -120.09769234727942, -162.9306282551298, 55.401522169427665, -166.44454201704792, 89.97296861574326, -0.02539828579977837, -611.5237842580647, -727.9986222342798, 679.478155494609, 45.17363184903512, 172.58124084742906, 5.724470056372292, 0.2746582329273224, 6.958008289337158, 1.179192304611206, 0.3095398247241974, -0.0672912672162056, 0.0358886756002903, 0.6943370038845201, 8.952971675241157, -11.16743907175823, -3.6749938821568318, 0.3193177518900906, 0.6079422714223046, 0, 0, 0, 0, 0, 0, b00000000, b00000000, 
1648478509238.6528, -120.09700932836242, -162.93131127404678, 55.40015613159366, -166.4466183945556, 89.9757143517896, -0.024715266882777098, -611.5138486604939, -728.0172362330773, 679.4522593371586, 45.172786122434495, 172.57749132206592, 5.729501543509342, 0.2426147758960724, 6.921387195587158, 1.197126865386963, 0.2803802788257599, -0.0672912672162056, 0.0291595496237278, 0.13478582555886437, 7.282483012046047, -9.259936612244557, -3.419356404487403, 0.24653204615568808, 0.5025222104832505, 0, 0, 0, 0, 0, 0, b00000000, b00000000, 
1648478510239.9485, -120.09561596977174, -162.93270463263747, 55.40288820726167, -166.4459080548819, 89.97296861574326, -0.026081304716779646, -611.5002435745898, -728.0272251782197, 679.4483718338695, 45.16933471117033, 172.58175315935347, 5.727605849270199, 0.2655029594898224, 6.907654285430908, 1.1747087240219116, 0.2960815727710724, -0.0717773512005806, 0.02467346377670765, 0.5328625303812375, 8.26400621405425, -9.704720430631971, -3.5049825349395807, 0.20748891032436162, 0.4493514508964885, 0, 0, 0, 0, 0, 0, b00000000, b00000000, 
1648478511240.6453, -120.09561596977174, -162.93202161372048, 55.40288820726167, -166.4424929602969, 89.9757143517896, -0.026081304716779646, -611.4954249430916, -728.0341142908878, 679.470131240351, 45.16915203561533, 172.58037812600023, 5.720302070751338, 0.2471924126148224, 6.939697742462158, 1.179192304611206, 0.2938385307788849, -0.0628051832318306, 0.0426178015768528, 0.6468972766388734, 8.302350289619277, -10.49850807200993, -3.6133749981989447, 0.39655220633833566, 0.680503066192477, 0, 0, 0, 0, 0, 0, b00000000, b00000000, 
1648478512241.5881, -120.09769234727942, -162.92994523621277, 55.40288820726167, -166.4438589981309, 89.97365163466026, -0.02539828579977837, -611.5154602798546, -727.9879081808527, 679.499804937268, 45.17372293413465, 172.58141888471596, 5.720097338118656, 0.2105713039636612, 6.976318836212158, 1.1859177350997925, 0.2938385307788849, -0.0605621412396431, 0.02018737979233265, 1.586560491690539, 7.899982503521269, -11.374393132912576, -3.6587753050085436, 0.6670779412331298, 0.3321200858842405, 0, 0, 0, 0, 0, 0, b00000000, b00000000, 
1648478513242.285, -120.09837536619642, -162.9306282551298, 55.40428156585235, -166.44317597921392, 89.97502450268342, -0.024032247965775824, -611.5221753508579, -727.9812065951741, 679.4992907852243, 45.17667789402686, 172.57975482426764, 5.717443757569518, 0.2151489406824112, 6.930542469024658, 1.194885015487671, 0.3050537407398224, -0.0672912672162056, 0.02018737979233265, 1.2196708262781542, 7.595447282106755, -9.807084865888283, -3.279583317170879, 0.32452201471629744, 0.3403502410038412, 0, 0, 0, 0, 0, 0, b00000000, b00000000, 
1648478514243.4202, -120.09905838511342, -162.93131127404678, 55.40357122617867, -166.4459080548819, 89.97502450268342, -0.026764323633780923, -611.5293464453813, -727.9782352783635, 679.4753743085986, 45.1732267539683, 172.57924676570056, 5.723543275153864, 0.2471924126148224, 6.953430652618408, 1.1859177350997925, 0.2938385307788849, -0.0695343092083931, 0.01794433780014515, 0.9016601659840089, 8.04432470684092, -10.687709028489182, -3.629051353950197, 0.3963480374147577, 0.33756878776533, 0, 0, 0, 0, 0, 0, b00000000, b00000000, 
1648478515243.5168, -120.09769234727942, -162.93202161372048, 55.40288820726167, -166.4459080548819, 89.97502450268342, -0.026764323633780923, -611.5176208236344, -728.002590125001, 679.4595819586373, 45.17107210052618, 172.57940395188157, 5.725652586240351, 0.2426147758960724, 6.939697742462158, 1.1904014348983765, 0.2848663628101349, -0.0628051832318306, 0.02243042178452015, 0.5635666472231912, 7.636838059177036, -10.060323526472477, -3.522655866032733, 0.41406686599366194, 0.4070924618658408, 0, 0, 0, 0, 0, 0, b00000000, b00000000, 
1648478516245.9631, -120.09700932836242, -162.93202161372048, 55.40428156585235, -166.44454201704792, 89.9757143517896, -0.026081304716779646, -611.5055879176457, -728.0060523361852, 679.4723358595417, 45.17118275349077, 172.57961408830818, 5.721261662305768, 0.2243042290210724, 6.912231922149658, 1.1747087240219116, 0.2983246147632599, -0.0717773512005806, 0.02018737979233265, 1.307451265303857, 7.938178807335838, -9.864052424884111, -3.4504480089991354, 0.337283875920019, 0.34048673064356316, 0, 0, 0, 0, 0, 0, b00000000, b00000000, 
1648478517246.0503, -120.09561596977174, -162.93202161372048, 55.40220518834467, -166.4424929602969, 89.97365163466026, -0.02813036146778347, -611.5003265288806, -728.0364545275344, 679.4659348652452, 45.16638326025776, 172.58284909779297, 5.7221548866431675, 0.1876831203699112, 6.903076648712158, 1.1993685960769653, 0.2781372368335724, -0.0628051832318306, 0.01570129580795765, 0.9592937814020269, 6.451177856307632, -8.628516415573367, -3.174691625867878, 0.40002311666928175, 0.2661133574483436, 0, 0, 0, 0, 0, 0, b00000000, b00000000, 
1648478518247.5786, -120.09905838511342, -162.93131127404678, 55.40428156585235, -166.4424929602969, 89.97296861574326, -0.027447342550782197, -611.5363494600335, -727.9807085843822, 679.4902382789127, 45.17292744361429, 172.58262107884235, 5.718225663152765, 0.2288818657398224, 6.967163562774658, 1.1769505739212036, 0.2848663628101349, -0.0650482252240181, 0.006729126907885075, 1.4641646104539718, 7.953453839199747, -11.318754687727203, -3.7803277634483337, 0.6583400137130753, 0.16332873562596772, 0, 0, 0, 0, 0, 0, b00000000, b00000000, 
1648478519248.3645, -120.09561596977174, -162.93131127404678, 55.40357122617867, -166.4459080548819, 89.97365163466026, -0.026764323633780923, -611.4889134916662, -728.0131148485222, 679.4753487914268, 45.16832929917362, 172.58199361918844, 5.724201503598476, 0.1922607570886612, 6.967163562774658, 1.179192304611206, 0.3050537407398224, -0.0650482252240181, 0.011215210892260075, 2.284175333823951, 8.006169335488416, -11.412770766548377, -3.583052810405939, 0.6712197273057111, 0.1796987572946039, 0, 0, 0, 0, 0, 0, b00000000, b00000000, 
1648478520250.031, -120.09769234727942, -162.9306282551298, 55.40288820726167, -166.4466183945556, 89.97502450268342, -0.02539828579977837, -611.5113386655232, -727.9883015630246, 679.4801466635464, 45.173181770818125, 172.57912737981178, 5.724667070725425, 0.2380371391773224, 6.985474109649658, 1.1634997129440308, 0.2893524467945099, -0.0650482252240181, 0.0269165076315403, 1.5657869222324496, 8.762492216536929, -12.339500425483946, -4.035840063417548, 0.7226260292327225, 0.43849044998294956, 0, 0, 0, 0, 0, 0, b00000000, b00000000, 
1648478521251.4011, -120.09769234727942, -162.93270463263747, 55.40357122617867, -166.4459080548819, 89.97296861574326, -0.02539828579977837, -611.5251826833444, -728.0007773552542, 679.4525458772454, 45.173536068373494, 172.58082882306869, 5.7265559975370905, 0.2288818657398224, 6.898499011993408, 1.1904014348983765, 0.2826233208179474, -0.0628051832318306, 0.0269165076315403, 0.42116921103072125, 7.198275020958533, -8.815899477397267, -3.2830906067294547, 0.2932939919920169, 0.4607011339734771, 0, 0, 0, 0, 0, 0, b00000000, b00000000, 
1648478522253.3037, -120.09769234727942, -162.93202161372048, 55.40220518834467, -166.44317597921392, 89.97434148376642, -0.027447342550782197, -611.5247847064911, -728.0130335050914, 679.4638306978931, 45.170340148555425, 172.58087584767372, 5.722854759173176, 0.2151489406824112, 6.912231922149658, 1.1881595849990845, 0.3072967827320099, -0.0672912672162056, 0.0448608435690403, 0.9827585411474845, 7.86389387005129, -9.499853750360806, -3.2645482517577844, 0.22806323772371745, 0.6769682151440485, 0, 0, 0, 0, 0, 0, b00000000, b00000000, 
1648478523255.9634, -120.09561596977174, -162.93202161372048, 55.40288820726167, -166.44317597921392, 89.97296861574326, -0.026764323633780923, -611.5002637413471, -728.0290468227681, 679.467979342513, 45.16857985346503, 172.58299994159154, 5.722478406999029, 0.2471924126148224, 6.971741199493408, 1.1702251434326172, 0.2915954887866974, -0.0628051832318306, 0.02243042178452015, 1.2735290707218119, 8.581170268968831, -11.727109779008757, -3.867476588132262, 0.6351881110352755, 0.3948388608754635, 0, 0, 0, 0, 0, 0, b00000000, b00000000, 
1648478524256.5664, -120.09561596977174, -162.93338765155448, 55.40428156585235, -166.4459080548819, 89.97365163466026, -0.026081304716779646, -611.4974133449427, -728.0259569118617, 679.4457520333241, 45.16927146654331, 172.5813247001108, 5.7262542640092455, 0.2288818657398224, 6.893921375274658, 1.1859177350997925, 0.2893524467945099, -0.0695343092083931, 0.0269165076315403, 0.6184373643501158, 7.417632818035571, -8.880016268416187, -3.2976226134139264, 0.21413996182937517, 0.4510110272055886, 0, 0, 0, 0, 0, 0, b00000000, b00000000, 
1648478525257.28, -120.09837536619642, -162.93131127404678, 55.405647603686354, -166.4424929602969, 89.97227876663709, -0.026081304716779646, -611.5264441859824, -727.9784893931052, 679.4985733684379, 45.174216161942404, 172.58347126269135, 5.716523614972855, 0.2471924126148224, 6.948853015899658, 1.194885015487671, 0.2960815727710724, -0.0650482252240181, 0.0269165076315403, 0.5871244089724574, 7.886144410636834, -10.276897465968489, -3.4888760565775643, 0.3383101739383952, 0.4697890430946141, 0, 0, 0, 0, 0, 0, b00000000, b00000000, 
1648478526257.5105, -120.09700932836242, -162.9292622172958, 55.40288820726167, -166.44317597921392, 89.97227876663709, -0.026764323633780923, -611.5062968097538, -727.9902709455267, 679.5130683074799, 45.17099821237163, 172.58389728567906, 5.7186238352976355, 0.2014160305261612, 6.944275379180908, 1.1702251434326172, 0.2915954887866974, -0.0583190992474556, 0.02243042178452015, 1.814895188035305, 7.967639476202619, -10.914068929933238, -3.6123218101448025, 0.70330090469, 0.35257570639864, 0, 0, 0, 0, 0, 0, b00000000, b00000000, 
1648478527259.05, -120.09905838511342, -162.93202161372048, 55.40220518834467, -166.4466183945556, 89.97296861574326, -0.029496399301786023, -611.5380483323572, -727.988942322463, 679.453200735825, 45.169254585935825, 172.5813315901201, 5.728522645856859, 0.2426147758960724, 6.916809558868408, 1.1747087240219116, 0.2893524467945099, -0.0628051832318306, 0.0269165076315403, 0.797463595622232, 8.006564531380263, -9.926108934137346, -3.517377989915553, 0.41097620691037595, 0.4630835680387181, 0, 0, 0, 0, 0, 0, b00000000, b00000000, 
1648478528260.6514, -120.09561596977174, -162.93270463263747, 55.40288820726167, -166.4438589981309, 89.97296861574326, -0.029496399301786023, -611.4995254866027, -728.0346594913112, 679.4547386548796, 45.16433641621415, 172.58358773450345, 5.724462115882073, 0.2471924126148224, 6.962585926055908, 1.1859177350997925, 0.3095398247241974, -0.0560760572552681, -0.004486084450036287, 1.5032277464211097, 8.27100380287075, -11.084785764645883, -3.4582687303550066, 0.5979664219810705, 0.03793013390006436, 0, 0, 0, 0, 0, 0, b00000000, b00000000, 
1648478529262.0156, -120.09769234727942, -162.93202161372048, 55.40220518834467, -166.44317597921392, 89.97296861574326, -0.026764323633780923, -611.5288456352512, -728.0107481666453, 679.4637971525974, 45.171633885457375, 172.58191268957407, 5.723453419613107, 0.2655029594898224, 6.925964832305908, 1.181434154510498, 0.2826233208179474, -0.0560760572552681, 0.0314025916159153, 0.15983395388818394, 8.000893526244715, -9.922636058088003, -3.5488074382912926, 0.4199108072394542, 0.5602644132976987, 0, 0, 0, 0, 0, 0, b00000000, b00000000, 
1648478530263.1113, -120.09700932836242, -162.93202161372048, 55.401522169427665, -166.4438589981309, 89.97434148376642, -0.024715266882777098, -611.5203053611477, -728.0207170683918, 679.4575072945674, 45.17333925479311, 172.57976868506952, 5.7249716165984195, 0.2197265923023224, 7.008362293243408, 1.181434154510498, 0.3072967827320099, -0.0628051832318306, 0.0381317175924778, 1.7583486023095936, 8.738832989684024, -12.583877001486103, -3.860907153409841, 0.6790403938858789, 0.5746303409248403, 0, 0, 0, 0, 0, 0, b00000000, b00000000, 
1648478531266.2595, -120.09837536619642, -162.93270463263747, 55.40083915051066, -166.4466183945556, 89.9757143517896, -0.026081304716779646, -611.5342295116, -728.0112408264818, 679.4336831563239, 45.172719801433054, 172.57718824178227, 5.73050197424157, 0.2288818657398224, 6.958008289337158, 1.1679832935333252, 0.3140259087085724, -0.0538330152630806, 0.01570129580795765, 1.9927514957750279, 8.783400187134434, -11.57261528690937, -3.5688700925083885, 0.7049990811979716, 0.28599057663861777, 0, 0, 0, 0, 0, 0, b00000000, b00000000, 
1648478532268.224, -120.09700932836242, -162.93270463263747, 55.401522169427665, -166.4452250359649, 89.97502450268342, -0.02813036146778347, -611.5161487345297, -728.0259092964386, 679.4421786687994, 45.167875262352666, 172.57976809307127, 5.727673290842792, 0.2288818657398224, 6.948853015899658, 1.181434154510498, 0.3050537407398224, -0.0605621412396431, 0.0381317175924778, 1.1929883390485765, 8.340864059307156, -10.790407763988064, -3.5249142743344275, 0.46944942520033783, 0.5974328461552055, 0, 0, 0, 0, 0, 0, b00000000, b00000000, 
1648478533269.393, -120.09769234727942, -162.93270463263747, 55.40357122617867, -166.4459080548819, 89.97434148376642, -0.026764323633780923, -611.5203669342153, -728.003487233314, 679.4525874496904, 45.17120827001564, 172.5800404744609, 5.725942586903702, 0.2334595024585724, 6.930542469024658, 1.1904014348983765, 0.3095398247241974, -0.0672912672162056, 0.02243042178452015, 1.0833795713374668, 7.986573524678947, -9.987017417619295, -3.323664756776783, 0.28865397893155675, 0.38794219969432114, 0, 0, 0, 0, 0, 0, b00000000, b00000000, 
1648478534271.5112, -120.09700932836242, -162.93407067047147, 55.401522169427665, -166.44454201704792, 89.97365163466026, -0.027447342550782197, -611.5278281748728, -728.0367646526064, 679.4219255186295, 45.169127087237975, 172.5805849729487, 5.72928718083952, 0.2426147758960724, 6.916809558868408, 1.179192304611206, 0.2871094048023224, -0.0560760572552681, 0.0448608435690403, 0.42106423813612726, 7.9754007005425445, -9.76220855995781, -3.477780788117615, 0.4112480398540666, 0.7179386237726564, 0, 0, 0, 0, 0, 0, b00000000, b00000000, 
1648478535272.2637, -120.09837536619642, -162.9306282551298, 55.40015613159366, -166.4424929602969, 89.97502450268342, -0.027447342550782197, -611.5327012929323, -728.0084287678761, 679.4761801655781, 45.171222945661526, 172.5799523197181, 5.722506189513621, 0.2288818657398224, 6.935120105743408, 1.1657414436340332, 0.2871094048023224, -0.0605621412396431, 0.0291595496237278, 1.2659217837003343, 8.224573930355845, -10.7484118163296, -3.695810138756787, 0.5975126911835508, 0.47338038372456065, 0, 0, 0, 0, 0, 0, b00000000, b00000000, 
1648478536272.9082, -120.09769234727942, -162.9306282551298, 55.40220518834467, -166.4466183945556, 89.97434148376642, -0.026764323633780923, -611.51367262121, -727.9920871763692, 679.4759681591859, 45.17118614667865, 172.580058106401, 5.725947851287935, 0.2563476860523224, 6.958008289337158, 1.179192304611206, 0.3095398247241974, -0.0628051832318306, 0.0269165076315403, 1.0920214518528297, 8.723519527552199, -11.16890828030296, -3.6052002587339538, 0.44104010000596794, 0.46880108907337176, 0, 0, 0, 0, 0, 0, b00000000, b00000000, 
1648478537273.6665, -120.09561596977174, -162.92994523621277, 55.401522169427665, -166.4438589981309, 89.97296861574326, -0.02539828579977837, -611.4951201436297, -728.0168681303796, 679.4914282343378, 45.17062822788707, 172.58252848228216, 5.722472193657665, 0.2014160305261612, 6.921387195587158, 1.1904014348983765, 0.2938385307788849, -0.0650482252240181, 0.02018737979233265, 1.2828157468530899, 7.296064202774921, -9.59203250742446, -3.3079341649184126, 0.41148891919141495, 0.3291361895054873, 0, 0, 0, 0, 0, 0, b00000000, b00000000, 
1648478538275.4294, -120.09561596977174, -162.9306282551298, 55.40083915051066, -166.44317597921392, 89.97434148376642, -0.024715266882777098, -611.4990861809671, -728.0296229495526, 679.4782085021322, 45.17135384167848, 172.5807776343514, 5.72291880473568, 0.2471924126148224, 6.971741199493408, 1.1724668741226196, 0.2938385307788849, -0.0605621412396431, 0.02018737979233265, 1.2876081504836883, 8.552095008567635, -11.672155840249278, -3.8136188887268614, 0.6452151760658883, 0.3667985400188102, 0, 0, 0, 0, 0, 0, b00000000, b00000000, 
1648478539276.9026, -120.09974140403042, -162.93270463263747, 55.40083915051066, -166.4466183945556, 89.97365163466026, -0.026081304716779646, -611.5565537426677, -727.993864462315, 679.4336448091964, 45.175156209948966, 172.5785393879685, 5.73134986798382, 0.2014160305261612, 6.953430652618408, 1.18367600440979, 0.3140259087085724, -0.0538330152630806, 0.0314025916159153, 1.8387187619340422, 8.20237072777327, -10.928596522946803, -3.3789767867608727, 0.6112405143069869, 0.4791776333033585, 0, 0, 0, 0, 0, 0, b00000000, b00000000, 
1648478540277.2188, -120.09700932836242, -162.93131127404678, 55.40288820726167, -166.4438589981309, 89.97502450268342, -0.024715266882777098, -611.5108309995292, -728.0080053386887, 679.4774947972045, 45.173374887584224, 172.57975767479346, 5.721581515117518, 0.2517700493335724, 6.939697742462158, 1.18367600440979, 0.2848663628101349, -0.0605621412396431, 0.0269165076315403, 0.5132705411761413, 7.92988456954266, -10.278715825191416, -3.5940386121192596, 0.44743078113050233, 0.4774701070821828, 0, 0, 0, 0, 0, 0, b00000000, b00000000, 
1648478541278.5276, -120.09700932836242, -162.93338765155448, 55.401522169427665, -166.44180994137992, 89.97434148376642, -0.024715266882777098, -611.5299615246097, -728.0373991713301, 679.4415056329543, 45.173412234500105, 172.57994352887943, 5.723940112790001, 0.2700805962085724, 6.912231922149658, 1.181434154510498, 0.2960815727710724, -0.0672912672162056, 0.0583190992474556, -0.09528484929161352, 8.407515643549948, -9.62282234671499, -3.503873164170847, 0.12341081444259427, 0.9219744528328806, 0, 0, 0, 0, 0, 0, b00000000, b00000000, 
1648478542279.1262, -120.09629898868874, -162.93131127404678, 55.401522169427665, -166.4438589981309, 89.97502450268342, -0.02539828579977837, -611.5054478580597, -728.023736008246, 679.469138603745, 45.17116342826701, 172.5798963292767, 5.723621678967578, 0.2380371391773224, 6.930542469024658, 1.18367600440979, 0.2938385307788849, -0.0672912672162056, 0.0381317175924778, 0.6924437200049927, 8.000829944277836, -10.080696329352602, -3.5237673078532104, 0.32018290322587506, 0.6084373010261339, 0, 0, 0, 0, 0, 0, b00000000, b00000000, 
1648478543279.2522, -120.09769234727942, -162.93407067047147, 55.40428156585235, -166.4438589981309, 89.97365163466026, -0.024715266882777098, -611.5316623047268, -728.0139437579364, 679.4408985379869, 45.17457287388686, 172.58032965808133, 5.724188152160855, 0.2243042290210724, 6.921387195587158, 1.1859177350997925, 0.3072967827320099, -0.0605621412396431, 0.0291595496237278, 1.1400861264119482, 7.960287222462634, -9.843136486862322, -3.2837768636544045, 0.37043743562086606, 0.47604754680685835, 0, 0, 0, 0, 0, 0, b00000000, b00000000, 
1648478544281.5452, -120.09700932836242, -162.93338765155448, 55.40220518834467, -166.4438589981309, 89.97365163466026, -0.027447342550782197, -611.5233484999515, -728.028988143184, 679.4393808540415, 45.16929074376501, 172.58119688140764, 5.726224800732963, 0.2380371391773224, 6.967163562774658, 1.1634997129440308, 0.3095398247241974, -0.0538330152630806, 0.0291595496237278, 1.7599181266489041, 9.05793066573863, -11.955059326257592, -3.7310697896383185, 0.7190438037849012, 0.47786634496165725, 0, 0, 0, 0, 0, 0, b00000000, b00000000, 
1648478545282.1143, -120.09769234727942, -162.93202161372048, 55.40015613159366, -166.4424929602969, 89.97434148376642, -0.026764323633780923, -611.5331545721075, -728.0259664209865, 679.4533845948166, 45.17126177830806, 172.58020753809274, 5.724905498923524, 0.2517700493335724, 6.944275379180908, 1.1881595849990845, 0.3005676567554474, -0.0583190992474556, 0.02243042178452015, 0.7683669126882464, 8.132384792924096, -10.394956446755087, -3.4544084109159336, 0.4292790343250904, 0.4157567295468926, 0, 0, 0, 0, 0, 0, b00000000, b00000000, 
1648478546283.2886, -120.09837536619642, -162.93270463263747, 55.40288820726167, -166.44454201704792, 89.97227876663709, -0.026764323633780923, -611.5382491370285, -728.0008048245492, 679.4525848025351, 45.172679764830704, 172.581870780327, 5.725778301774725, 0.2426147758960724, 6.916809558868408, 1.1904014348983765, 0.3005676567554474, -0.0628051832318306, 0.0628051832318306, 0.1780289246965545, 8.081304238772768, -9.50627505606135, -3.355817915969822, 0.1762978495242963, 0.9597308446506685, 0, 0, 0, 0, 0, 0, b00000000, b00000000, 
1648478547283.725, -120.09905838511342, -162.9306282551298, 55.401522169427665, -166.4438589981309, 89.97434148376642, -0.026081304716779646, -611.5380988672093, -727.9880981501017, 679.4802979003817, 45.17444196786471, 172.57982143130167, 5.722818577397675, 0.2334595024585724, 6.930542469024658, 1.181434154510498, 0.3005676567554474, -0.0628051832318306, 0.0336456336081028, 0.9852387760809481, 8.1236400477302, -10.208071058062837, -3.459262900503399, 0.39096460058025057, 0.5433672211141173, 0, 0, 0, 0, 0, 0, b00000000, b00000000, 
1648478548284.7483, -120.09769234727942, -162.93270463263747, 55.40428156585235, -166.4438589981309, 89.97434148376642, -0.02539828579977837, -611.5226461658896, -728.0039330458477, 679.4632473413457, 45.17350752850125, 172.58034966005624, 5.721841463528865, 0.2563476860523224, 6.916809558868408, 1.1657414436340332, 0.2691650688648224, -0.0628051832318306, 0.0336456336081028, 0.34885175456553813, 8.005906437188598, -10.054665117379626, -3.7656184949149605, 0.470702119187957, 0.5710602406252399, 0, 0, 0, 0, 0, 0, b00000000, b00000000, 
1648478549287.8218, -120.09905838511342, -162.93131127404678, 55.40083915051066, -166.44180994137992, 89.97296861574326, -0.024715266882777098, -611.5514701206878, -728.0002472948645, 679.4712369318082, 45.176835805403606, 172.58078750606478, 5.722400970980916, 0.2197265923023224, 6.921387195587158, 1.1702251434326172, 0.3050537407398224, -0.0560760572552681, 0.02018737979233265, 1.6413252041052637, 8.223297461857156, -10.33731353400703, -3.398962992327713, 0.5675601390115834, 0.3448552304413674, 0, 0, 0, 0, 0, 0, b00000000, b00000000, 
1648478550289.8284, -120.09493295085474, -162.93131127404678, 55.40083915051066, -166.4424929602969, 89.9757143517896, -0.027447342550782197, -611.4884003376736, -728.0479273008583, 679.4692112832562, 45.16594240868149, 172.58076491286016, 5.722286628302652, 0.2151489406824112, 6.935120105743408, 1.1679832935333252, 0.3050537407398224, -0.0583190992474556, 0.02467346377670765, 1.7972962594755137, 8.373692672084774, -10.820764052258902, -3.5164412409344723, 0.6068034041024871, 0.3953613565657409, 0, 0, 0, 0, 0, 0, b00000000, b00000000, 
1648478551290.2014, -120.09769234727942, -162.9306282551298, 55.40288820726167, -166.4452250359649, 89.97365163466026, -0.026764323633780923, -611.5152134051143, -727.9909017632383, 679.4844394458014, 45.17149033284295, 172.58131244835585, 5.723133859850414, 0.2334595024585724, 6.935120105743408, 1.194885015487671, 0.3162689507007599, -0.0583190992474556, 0.01570129580795765, 1.2026675016218693, 7.991893529662874, -10.030814869749047, -3.196230363950656, 0.37491273434320077, 0.3043274115422645, 0, 0, 0, 0, 0, 0, b00000000, b00000000, 
1648478552290.6025, -120.09629898868874, -162.93131127404678, 55.40428156585235, -166.4438589981309, 89.97296861574326, -0.024715266882777098, -611.5022708096355, -728.004920662408, 679.4859880525992, 45.172815105638655, 172.5824037309976, 5.720390770681204, 0.2288818657398224, 6.944275379180908, 1.1679832935333252, 0.3028106987476349, -0.0538330152630806, 0.0269165076315403, 1.5662682539732928, 8.53605933670814, -11.07355337881289, -3.5801072657743482, 0.6538302502377311, 0.4449548719982633, 0, 0, 0, 0, 0, 0, b00000000, b00000000, 
1648478553292.7046, -120.09700932836242, -162.9306282551298, 55.40083915051066, -166.4466183945556, 89.97434148376642, -0.02539828579977837, -611.5109013001087, -728.0062524991413, 679.4675879422958, 45.172117851597285, 172.57943962074506, 5.728031656758316, 0.2197265923023224, 6.948853015899658, 1.181434154510498, 0.2938385307788849, -0.0583190992474556, 0.02467346377670765, 1.3105464413890135, 7.933334246872446, -10.700852087018895, -3.547325294831736, 0.5855364055354182, 0.4080051049811244, 0, 0, 0, 0, 0, 0, b00000000, b00000000, 
1648478554294.482, -120.09561596977174, -162.93270463263747, 55.40428156585235, -166.4438589981309, 89.97365163466026, -0.024715266882777098, -611.4986793157896, -728.0247344244752, 679.4632264923189, 45.171561465823736, 172.58162857668327, 5.722194386619382, 0.2380371391773224, 6.939697742462158, 1.194885015487671, 0.2960815727710724, -0.0560760572552681, 0.01570129580795765, 0.8059897266289533, 7.657751149207618, -10.00391332558568, -3.346593795956472, 0.45862392006415753, 0.3159259243193438, 0, 0, 0, 0, 0, 0, b00000000, b00000000, 
1648478555295.4966, -120.10042442294743, -162.93338765155448, 55.40357122617867, -166.4452250359649, 89.9757143517896, -0.024715266882777098, -611.5583577094793, -727.9823696329013, 679.4435336526424, 45.17815152643697, 172.57683827623833, 5.725339819610812, 0.2380371391773224, 6.939697742462158, 1.1881595849990845, 0.2960815727710724, -0.0650482252240181, 0.0269165076315403, 0.8279446384418876, 7.914148633087701, -10.224313246527947, -3.4865397854258875, 0.37367434099429886, 0.45723630762986983, 0, 0, 0, 0, 0, 0, b00000000, b00000000, 
1648478556296.3032, -120.09700932836242, -162.93270463263747, 55.40220518834467, -166.4438589981309, 89.97365163466026, -0.024032247965775824, -611.5238227313, -728.021180412121, 679.4505046535133, 45.17451082072415, 172.58016309542526, 5.72527923735731, 0.2426147758960724, 6.939697742462158, 1.1702251434326172, 0.2915954887866974, -0.0650482252240181, 0.02467346377670765, 1.1156955034117697, 8.321061581450095, -10.772617144301394, -3.690496439832001, 0.49961295455949467, 0.4235868302856464, 0, 0, 0, 0, 0, 0, b00000000, b00000000, 
1648478557297.899, -120.09700932836242, -162.9306282551298, 55.40357122617867, -166.44317597921392, 89.97365163466026, -0.027447342550782197, -611.5066375323927, -728.0000651134221, 679.4949563936077, 45.169661816174454, 172.58264883968496, 5.719044004653107, 0.2105713039636612, 6.944275379180908, 1.1747087240219116, 0.2871094048023224, -0.0650482252240181, 0.02018737979233265, 1.5259559302929468, 7.823030467410388, -10.730681946515674, -3.64974150496018, 0.5938105662029263, 0.3290945424149281, 0, 0, 0, 0, 0, 0, b00000000, b00000000, 
1648478558299.9436, -120.09769234727942, -162.9292622172958, 55.401522169427665, -166.44180994137992, 89.97365163466026, -0.026081304716779646, -611.518859011915, -727.9956834190156, 679.5089396961836, 45.172797407026295, 172.5820567950376, 5.718032832288097, 0.2288818657398224, 6.893921375274658, 1.18367600440979, 0.2848663628101349, -0.0583190992474556, 0.02243042178452015, 0.6365732432652762, 7.356128123810975, -8.916826583353282, -3.270500476466122, 0.3774050140324232, 0.4003747035465079, 0, 0, 0, 0, 0, 0, b00000000, b00000000, 
1648478559300.5813, -120.09974140403042, -162.93270463263747, 55.40083915051066, -166.4452250359649, 89.97434148376642, -0.026764323633780923, -611.5562162717374, -727.9988362747144, 679.4379675209242, 45.17410882326111, 172.57854483181865, 5.7289540739963405, 0.2105713039636612, 6.930542469024658, 1.181434154510498, 0.2938385307788849, -0.0650482252240181, 0.0269165076315403, 1.3175440093670723, 7.7312627210662015, -10.156346641448664, -3.4725090781306545, 0.46240498700157945, 0.42508677372684694, 0, 0, 0, 0, 0, 0, b00000000, b00000000, 
1648478560301.0752, -120.09905838511342, -162.93338765155448, 55.40083915051066, -166.4424929602969, 89.97365163466026, -0.026081304716779646, -611.5573293835979, -728.0175343221287, 679.4352176662468, 45.174430171353, 172.5798132485426, 5.726202927813405, 0.2105713039636612, 6.884766101837158, 1.1904014348983765, 0.2893524467945099, -0.0560760572552681, 0.02018737979233265, 0.81814969622707, 7.0222934042849, -8.462208429798684, -3.078892422152558, 0.36565543068858725, 0.35506317850770897, 0, 0, 0, 0, 0, 0, b00000000, b00000000, 
1648478561302.1387, -120.09837536619642, -162.93202161372048, 55.40015613159366, -166.44317597921392, 89.97434148376642, -0.027447342550782197, -611.5400596309121, -728.0173302580797, 679.4512838121634, 45.171193514107316, 172.57996861502636, 5.725899341055515, 0.2517700493335724, 6.953430652618408, 1.1769505739212036, 0.2871094048023224, -0.0628051832318306, 0.02243042178452015, 0.8538622885644924, 8.22054549762954, -10.92549778218692, -3.731117408767451, 0.5241538999527118, 0.407491207201763, 0, 0, 0, 0, 0, 0, b00000000, b00000000, 
1648478562303.7986, -120.09629898868874, -162.93338765155448, 55.40220518834467, -166.44317597921392, 89.97296861574326, -0.024715266882777098, -611.5200054652308, -728.0357164595538, 679.4414448354721, 45.17254953253929, 172.5813414046888, 5.72556623384668, 0.2746582329273224, 6.944275379180908, 1.1769505739212036, 0.2826233208179474, -0.0560760572552681, 0.02018737979233265, 0.377243505837265, 8.254463854456349, -10.612828453703703, -3.6932433607518793, 0.5238865883311081, 0.41158656975552355, 0, 0, 0, 0, 0, 0, b00000000, b00000000, 
1648478563304.6328, -120.09905838511342, -162.9306282551298, 55.40220518834467, -166.44454201704792, 89.97434148376642, -0.02881338038478475, -611.5318618633856, -727.984163417569, 679.4824033681987, 45.170304839443055, 172.58082379512163, 5.722763165526182, 0.2243042290210724, 6.971741199493408, 1.179192304611206, 0.3095398247241974, -0.0605621412396431, 0.0269165076315403, 1.6826173177433232, 8.535346055718406, -11.58213519119047, -3.6258876922199192, 0.5987919415971984, 0.4327957710365767, 0, 0, 0, 0, 0, 0, b00000000, b00000000, 
1648478564306.6028, -120.09837536619642, -162.93131127404678, 55.40220518834467, -166.44317597921392, 89.97434148376642, -0.02813036146778347, -611.5292762163733, -728.0002553245803, 679.4754492928041, 45.170380884674444, 172.5810514115735, 5.72176523448307, 0.2334595024585724, 6.944275379180908, 1.179192304611206, 0.2893524467945099, -0.0695343092083931, 0.01794433780014515, 1.1355735954211483, 7.939794986704828, -10.599833325578238, -3.6492522323954315, 0.45553125008483886, 0.3214131473861189, 0, 0, 0, 0, 0, 0, b00000000, b00000000, 
1648478565308.5264, -120.09629898868874, -162.93338765155448, 55.401522169427665, -166.44317597921392, 89.97296861574326, -0.02539828579977837, -611.5214492629543, -728.0400032680407, 679.4372705353185, 45.171458804481055, 172.58138416645428, 5.72657129047589, 0.2014160305261612, 6.921387195587158, 1.179192304611206, 0.2983246147632599, -0.0628051832318306, 0.02018737979233265, 1.615177281344296, 7.683480625700991, -9.993095072567504, -3.372352617636944, 0.49895248663072395, 0.32423957009045523, 0, 0, 0, 0, 0, 0, b00000000, b00000000, 
1648478566308.9753, -120.09837536619642, -162.93270463263747, 55.40496458476935, -166.44454201704792, 89.9757143517896, -0.026764323633780923, -611.5232912480295, -727.9937201141241, 679.4653621487723, 45.172202137559026, 172.57927969270727, 5.721216889248573, 0.2426147758960724, 6.944275379180908, 1.181434154510498, 0.2915954887866974, -0.0560760572552681, 0.02243042178452015, 0.9072214393597486, 8.044754669227112, -10.54269368866533, -3.5498013666598536, 0.5465425236520008, 0.4064127421909851, 0, 0, 0, 0, 0, 0, b00000000, b00000000, 
1648478567310.231, -120.09700932836242, -162.93338765155448, 55.401522169427665, -166.44454201704792, 89.9757143517896, -0.024032247965775824, -611.523335109232, -728.031752905039, 679.4330876779032, 45.17395710637055, 172.57762004333054, 5.727464374123729, 0.2426147758960724, 6.958008289337158, 1.181434154510498, 0.3072967827320099, -0.0672912672162056, 0.02243042178452015, 1.2806785657745128, 8.461597261812532, -11.079150578135051, -3.598876306740187, 0.43076885079666793, 0.3893989169350738, 0, 0, 0, 0, 0, 0, b00000000, b00000000, 
1648478568311.9648, -120.09629898868874, -162.93202161372048, 55.40083915051066, -166.44317597921392, 89.97502450268342, -0.026081304716779646, -611.5113423659859, -728.0357062171767, 679.4554627151424, 45.17007853887246, 172.57991946629951, 5.724663404048892, 0.2288818657398224, 6.958008289337158, 1.1702251434326172, 0.3005676567554474, -0.0650482252240181, 0.0291595496237278, 1.5482167178777086, 8.545989390509215, -11.392758602409572, -3.727999349425784, 0.5651375360576109, 0.464198592263752, 0, 0, 0, 0, 0, 0, b00000000, b00000000, 
1648478569313.4412, -120.09974140403042, -162.93202161372048, 55.40220518834467, -166.44180994137992, 89.97434148376642, -0.026081304716779646, -611.554367350016, -727.9938550982189, 679.4680324350727, 45.17559281653976, 172.57990366760572, 5.7207933241812015, 0.2380371391773224, 6.967163562774658, 1.18367600440979, 0.2915954887866974, -0.0695343092083931, 0.01345825381577015, 1.2032573561399884, 8.043530742927919, -11.153089993300618, -3.7249966172808535, 0.5036472389407634, 0.2630940601078608, 0, 0, 0, 0, 0, 0, b00000000, b00000000, 
1648478570313.8857, -120.09700932836242, -162.92994523621277, 55.40288820726167, -166.44317597921392, 89.97159574772009, -0.026081304716779646, -611.5119967696736, -727.9946064313745, 679.5018839870457, 45.17211190148661, 172.58407958816267, 5.719948330488375, 0.2426147758960724, 6.958008289337158, 1.1724668741226196, 0.2893524467945099, -0.0605621412396431, 0.01794433780014515, 1.2221780703288727, 8.302443180001426, -11.22704825905602, -3.751477021687943, 0.6254607981811889, 0.33461396396036935, 0, 0, 0, 0, 0, 0, b00000000, b00000000, 
1648478571314.1396, -120.09493295085474, -162.92994523621277, 55.40428156585235, -166.4459080548819, 89.97434148376642, -0.024715266882777098, -611.4719515244801, -728.0046773596573, 679.5020137750183, 45.17043596247064, 172.58152351122814, 5.720867926599987, 0.2243042290210724, 6.948853015899658, 1.18367600440979, 0.2803802788257599, -0.0628051832318306, 0.02018737979233265, 1.0138016710476552, 7.608075423487308, -10.518805995115054, -3.6399089304170547, 0.5577622718937438, 0.3521508344515744, 0, 0, 0, 0, 0, 0, b00000000, b00000000, 
1648478572315.0164, -120.09493295085474, -162.9306282551298, 55.40357122617867, -166.4438589981309, 89.97434148376642, -0.02539828579977837, -611.4798392809416, -728.0201163831002, 679.4928360021094, 45.16946555947269, 172.58194155069114, 5.719862976422654, 0.2288818657398224, 6.935120105743408, 1.1859177350997925, 0.2915954887866974, -0.0650482252240181, 0.02243042178452015, 0.971987506796919, 7.733260741398168, -10.12612757203866, -3.4894347023074137, 0.4199013126796064, 0.386492777251879, 0, 0, 0, 0, 0, 0, b00000000, b00000000, 
1648478573315.7114, -120.09424993193774, -162.93270463263747, 55.40496458476935, -166.4459080548819, 89.97434148376642, -0.02539828579977837, -611.473650956475, -728.0314985609068, 679.4611026129659, 45.16823486531052, 172.58142469899897, 5.723966041545555, 0.2105713039636612, 6.930542469024658, 1.1724668741226196, 0.2983246147632599, -0.0650482252240181, 0.02467346377670765, 1.627367687323391, 8.041780339964472, -10.484418957764486, -3.5254669590983987, 0.5159259818967721, 0.3887173511452508, 0, 0, 0, 0, 0, 0, b00000000, b00000000, 
1648478574316.32, -120.09837536619642, -162.92994523621277, 55.40220518834467, -166.4424929602969, 89.97502450268342, -0.02813036146778347, -611.522049548908, -727.9915806622636, 679.4998987115064, 45.17040829079941, 172.58102671237637, 5.718412839677088, 0.2334595024585724, 6.912231922149658, 1.18367600440979, 0.2871094048023224, -0.0560760572552681, 0.02243042178452015, 0.717923132393081, 7.577564944789242, -9.479919902782031, -3.35608336935043, 0.4508413372855235, 0.4038999829492039, 0, 0, 0, 0, 0, 0, b00000000, b00000000, 
1648478575316.7698, -120.09629898868874, -162.92994523621277, 55.40357122617867, -166.4438589981309, 89.97296861574326, -0.027447342550782197, -611.4949379193265, -727.9992644287651, 679.5039983968752, 45.16871903938239, 172.58360114877726, 5.719353887084226, 0.2609253227710724, 6.948853015899658, 1.1881595849990845, 0.3005676567554474, -0.0583190992474556, 0.0269165076315403, 0.594954195499459, 8.280389919895498, -10.53054210017504, -3.5020480545425925, 0.40954963154649654, 0.48683063735594234, 0, 0, 0, 0, 0, 0, b00000000, b00000000, 
1648478576317.2083, -120.09493295085474, -162.9347536893885, 55.40288820726167, -166.4424929602969, 89.97365163466026, -0.024032247965775824, -611.5071769707969, -728.060075733112, 679.4254121832089, 45.17142279491809, 172.58101918779522, 5.725315383400388, 0.2105713039636612, 6.948853015899658, 1.1724668741226196, 0.2848663628101349, -0.0672912672162056, 0.01345825381577015, 1.6558184945529248, 7.821302011013221, -10.92151005875724, -3.7151500674841107, 0.6254284790328677, 0.2334024770350325, 0, 0, 0, 0, 0, 0, b00000000, b00000000, 
1648478577317.895, -120.09561596977174, -162.9306282551298, 55.40428156585235, -166.4466183945556, 89.97227876663709, -0.026764323633780923, -611.4855735719553, -727.9997101562934, 679.4886429135489, 45.16863772262206, 172.5834963116828, 5.723769815354307, 0.2151489406824112, 6.912231922149658, 1.1769505739212036, 0.2871094048023224, -0.0605621412396431, 0.01794433780014515, 1.2214484394525829, 7.555502313123121, -9.701306861863548, -3.4145550972753522, 0.5059753396362996, 0.3143297917220468, 0, 0, 0, 0, 0, 0, b00000000, b00000000, 
1648478578319.7913, -120.09561596977174, -162.9306282551298, 55.40220518834467, -166.4452250359649, 89.97502450268342, -0.024715266882777098, -611.4899879118212, -728.0175120170256, 679.4802587146443, 45.171165717136134, 172.57995741985252, 5.723658820481652, 0.1968383938074112, 6.907654285430908, 1.1881595849990845, 0.2983246147632599, -0.0740203931927681, 0.02243042178452015, 1.3778670009843297, 7.318116736991617, -9.292884537766298, -3.2730143048906046, 0.27110147234142745, 0.34607611129840843, 0, 0, 0, 0, 0, 0, b00000000, b00000000, 
1648478579320.869, -120.09424993193774, -162.93202161372048, 55.401522169427665, -166.44454201704792, 89.97502450268342, -0.02813036146778347, -611.4788049373394, -728.0514447951523, 679.4554515226953, 45.163848407458595, 172.58134567798388, 5.7256903122789025, 0.2105713039636612, 6.912231922149658, 1.179192304611206, 0.2893524467945099, -0.0672912672162056, 0.02018737979233265, 1.2608124626074466, 7.515677583564917, -9.647329209895279, -3.417998157775059, 0.41642512943688786, 0.3338967146643554, 0, 0, 0, 0, 0, 0, b00000000, b00000000, 
1648478580321.6055, -120.09769234727942, -162.93202161372048, 55.40357122617867, -166.44317597921392, 89.97296861574326, -0.02539828579977837, -611.52595767093, -728.0021743456377, 679.4721453804635, 45.17381533874152, 172.58182711772088, 5.721443292258682, 0.2426147758960724, 6.980896472930908, 1.194885015487671, 0.2938385307788849, -0.0672912672162056, 0.02243042178452015, 0.8846184999673442, 8.001114921260998, -11.214649745749162, -3.6915192732531463, 0.4605891490994792, 0.3961946734057528, 0, 0, 0, 0, 0, 0, b00000000, b00000000, 
1648478581322.1646, -120.09629898868874, -162.9306282551298, 55.401522169427665, -166.44317597921392, 89.97502450268342, -0.027447342550782197, -611.5009020335739, -728.0210946290497, 679.4824356881766, 45.168168148643566, 172.58104788698193, 5.721534811139433, 0.2609253227710724, 6.935120105743408, 1.179192304611206, 0.2960815727710724, -0.0672912672162056, 0.0314025916159153, 0.5875594972690333, 8.355714064482468, -10.378335745515445, -3.6004195755212076, 0.32013423347697273, 0.5383113132381914, 0, 0, 0, 0, 0, 0, b00000000, b00000000, 
1648478582323.2915, -120.09905838511342, -162.9347536893885, 55.40288820726167, -166.4438589981309, 89.97502450268342, -0.024715266882777098, -611.5534989260326, -728.0147881449344, 679.4212280158449, 45.17619453748317, 172.57783588470082, 5.726674372140581, 0.3021240532398224, 6.907654285430908, 1.181434154510498, 0.3140259087085724, -0.0672912672162056, 0.0269165076315403, 0.08141076691854854, 8.799152839416855, -9.624733847374715, -3.3524145383153545, 0.0629318816431504, 0.5241943994846346, 0, 0, 0, 0, 0, 0, b00000000, b00000000, 
1648478583324.009, -120.09837536619642, -162.93338765155448, 55.40288820726167, -166.44180994137992, 89.97434148376642, -0.027447342550782197, -611.5399022216918, -728.0167925626499, 679.4499026571418, 45.171435582321564, 172.58076905212582, 5.7218120818505085, 0.2655029594898224, 6.935120105743408, 1.1769505739212036, 0.2915954887866974, -0.0650482252240181, 0.02018737979233265, 0.6290609889869163, 8.284279616822468, -10.413625563471262, -3.6241894275374347, 0.3913497243879824, 0.3920486508155123, 0, 0, 0, 0, 0, 0, b00000000, b00000000, 
1648478584325.8076, -120.09493295085474, -162.93131127404678, 55.40220518834467, -166.44317597921392, 89.97434148376642, -0.027447342550782197, -611.4862906376623, -728.0365711260303, 679.4754412207383, 45.16625784979878, 172.5822643216643, 5.721854274787802, 0.2471924126148224, 6.925964832305908, 1.1769505739212036, 0.2915954887866974, -0.0695343092083931, 0.02018737979233265, 0.8634870135591504, 8.050657378896688, -10.143529483316481, -3.572207825793143, 0.3558003994135073, 0.3688336269031005, 0, 0, 0, 0, 0, 0, b00000000, b00000000, 
1648478585326.7498, -120.09561596977174, -162.93338765155448, 55.401522169427665, -166.4466183945556, 89.97502450268342, -0.02813036146778347, -611.4996653179919, -728.0428531519717, 679.4267127280119, 45.16562119593215, 172.57974813257513, 5.730810250170591, 0.1876831203699112, 6.967163562774658, 1.181434154510498, 0.3028106987476349, -0.0650482252240181, 0.02467346377670765, 2.09606456173828, 7.958643554994621, -11.322780465393137, -3.5927969761063077, 0.6367390542517145, 0.360299881628314, 0, 0, 0, 0, 0, 0, b00000000, b00000000, 
1648478586327.1343, -120.09769234727942, -162.93131127404678, 55.40288820726167, -166.4459080548819, 89.97365163466026, -0.024715266882777098, -611.5197592819633, -727.9935430069899, 679.4711426290423, 45.174485584276525, 172.58016083136278, 5.725220702512815, 0.2426147758960724, 6.939697742462158, 1.1747087240219116, 0.2983246147632599, -0.0717773512005806, 0.0269165076315403, 1.1087815429890742, 8.353625285112667, -10.68114620336921, -3.6497226342515487, 0.3712149547127035, 0.44853051977150266, 0, 0, 0, 0, 0, 0, b00000000, b00000000, 
1648478587328.0747, -120.09629898868874, -162.9306282551298, 55.40288820726167, -166.44317597921392, 89.97434148376642, -0.02813036146778347, -611.4973945468649, -728.0128684085377, 679.4907952580978, 45.16737644841316, 172.58234730051302, 5.719770988329238, 0.2380371391773224, 6.935120105743408, 1.1881595849990845, 0.3028106987476349, -0.0717773512005806, 0.02243042178452015, 0.9790168348167423, 7.9826934635182285, -10.142504926609552, -3.4504081780186784, 0.27700756019666334, 0.3886610670003155, 0, 0, 0, 0, 0, 0, b00000000, b00000000, 
1648478588329.3489, -120.09769234727942, -162.9306282551298, 55.40288820726167, -166.4438589981309, 89.97296861574326, -0.02539828579977837, -611.5204053806941, -727.9926679819987, 679.4886285671879, 45.17380252227157, 172.5818496943316, 5.721407109241739, 0.2380371391773224, 6.903076648712158, 1.1567742824554443, 0.2893524467945099, -0.0672912672162056, 0.006729126907885075, 1.4524243877086684, 8.189251632699866, -10.101479724780784, -3.595458459403829, 0.49914091332167454, 0.17054183987078492, 0, 0, 0, 0, 0, 0, b00000000, b00000000, 
1648478589331.1782, -120.09700932836242, -162.93270463263747, 55.40220518834467, -166.4459080548819, 89.97296861574326, -0.026081304716779646, -611.520146741606, -728.01621633222, 679.4441896882605, 45.17136546972697, 172.58095581941774, 5.7285955659338335, 0.2609253227710724, 6.916809558868408, 1.1769505739212036, 0.2803802788257599, -0.0628051832318306, 0.02467346377670765, 0.3298160587766425, 7.914531122487511, -9.778401390113931, -3.576483767719498, 0.37890710752205914, 0.4563241282524326, 0, 0, 0, 0, 0, 0, b00000000, b00000000, 
1648478590332.9282, -120.09700932836242, -162.93202161372048, 55.40083915051066, -166.4424929602969, 89.97365163466026, -0.024032247965775824, -611.5269576840625, -728.026760998118, 679.4575219171179, 45.17456199469121, 172.58035511637, 5.724252828939931, 0.2243042290210724, 6.939697742462158, 1.192643165588379, 0.2803802788257599, -0.0740203931927681, 0.02467346377670765, 0.7068929025634099, 7.335075686474523, -9.954322210431615, -3.578010827361226, 0.32889545693207434, 0.40903803505038316, 0, 0, 0, 0, 0, 0, b00000000, b00000000, 
1648478591335.165, -120.09629898868874, -162.93338765155448, 55.40288820726167, -166.44180994137992, 89.97365163466026, -0.026764323633780923, -611.5159349028962, -728.0375945625525, 679.4498817735325, 45.16948950430661, 172.58204794013972, 5.722165033787102, 0.2151489406824112, 6.893921375274658, 1.18367600440979, 0.2893524467945099, -0.0695343092083931, 0.02018737979233265, 0.9719156312926196, 7.304072355566477, -8.954550267925441, -3.287892840814127, 0.28347428586106205, 0.34242875283866603, 0, 0, 0, 0, 0, 0, b00000000, b00000000, 
1648478592336.192, -120.09700932836242, -162.92994523621277, 55.401522169427665, -166.44454201704792, 89.97296861574326, -0.027447342550782197, -611.5095411452525, -728.0015001424081, 679.4893434552072, 45.16955593829954, 172.58248502077313, 5.723421313949578, 0.2288818657398224, 6.930542469024658, 1.1724668741226196, 0.2848663628101349, -0.0628051832318306, 0.01345825381577015, 1.245189284013455, 7.853346437612066, -10.373855751944337, -3.605842445073483, 0.5608990525548737, 0.2612828096011277, 0, 0, 0, 0, 0, 0, b00000000, b00000000, 
1648478593336.8406, -120.09837536619642, -162.9306282551298, 55.40357122617867, -166.4452250359649, 89.97502450268342, -0.02539828579977837, -611.5198963777958, -727.9807612697111, 679.4886307575713, 45.174378691112366, 172.57944581969912, 5.7215449145226085, 0.2380371391773224, 6.958008289337158, 1.1904014348983765, 0.2826233208179474, -0.0628051832318306, 0.02243042178452015, 0.713260293588539, 7.683792549436575, -10.588838415266626, -3.6382003597705923, 0.4986213456852461, 0.3995539188377063, 0, 0, 0, 0, 0, 0, b00000000, b00000000, 
1648478594337.0286, -120.09837536619642, -162.9292622172958, 55.401522169427665, -166.4459080548819, 89.97227876663709, -0.026081304716779646, -611.5247308860048, -727.9759096758431, 679.4962605003225, 45.1737358789864, 172.58186778005214, 5.7247421604666835, 0.2288818657398224, 6.980896472930908, 1.1859177350997925, 0.2848663628101349, -0.0740203931927681, 0.02018737979233265, 1.1858336723354037, 7.913300162325698, -11.437438311549167, -3.8543278570298134, 0.5122571034512888, 0.34130660564911347, 0, 0, 0, 0, 0, 0, b00000000, b00000000, 
1648478595338.5723, -120.09837536619642, -162.93202161372048, 55.40357122617867, -166.4459080548819, 89.97434148376642, -0.026764323633780923, -611.5257452404479, -727.9905121201806, 679.4637512906661, 45.17228110862712, 172.57995918357244, 5.724908574636095, 0.2151489406824112, 6.948853015899658, 1.179192304611206, 0.2736511528491974, -0.0605621412396431, 0.01794433780014515, 1.1706085668400206, 7.4916352229963366, -10.611602197325082, -3.6955532748453312, 0.6606627224366745, 0.3125991187963489, 0, 0, 0, 0, 0, 0, b00000000, b00000000, 
1648478596339.517, -120.09424993193774, -162.93270463263747, 55.40015613159366, -166.4452250359649, 89.97296861574326, -0.027447342550782197, -611.4911887202137, -728.0598731895049, 679.4337677681388, 45.165050922541, 172.5822044420739, 5.730661638999405, 0.2197265923023224, 6.958008289337158, 1.1679832935333252, 0.3005676567554474, -0.0717773512005806, 0.0560760572552681, 1.4092385091686033, 8.716438602971774, -11.468767988465512, -3.8248262451302955, 0.454639070696068, 0.814786125341743, 0, 0, 0, 0, 0, 0, b00000000, b00000000, 
1648478597341.336, -120.09561596977174, -162.93202161372048, 55.40220518834467, -166.4466183945556, 89.97434148376642, -0.02539828579977837, -611.4955315241688, -728.0249969284888, 679.4531778612729, 45.17004251581823, 172.5800169679495, 5.728101497434564, 0.2059936672449112, 6.930542469024658, 1.179192304611206, 0.3072967827320099, -0.0605621412396431, 0.02018737979233265, 1.7546500234338498, 7.974227532571516, -10.337599165901532, -3.3604764180266087, 0.5208730936911815, 0.3276231947310476, 0, 0, 0, 0, 0, 0, b00000000, b00000000, 
1648478598342.5762, -120.09493295085474, -162.93202161372048, 55.40083915051066, -166.4466183945556, 89.97227876663709, -0.024032247965775824, -611.4977269477658, -728.0363664219176, 679.4447593133455, 45.171364215659594, 172.58132976080446, 5.731062576962766, 0.2243042290210724, 6.935120105743408, 1.1904014348983765, 0.3050537407398224, -0.0605621412396431, 0.01794433780014515, 1.2286329470630772, 7.81606974176056, -10.088206582245268, -3.316807256715509, 0.42769935420304883, 0.3230978806498167, 0, 0, 0, 0, 0, 0, b00000000, b00000000, 
1648478599344.509, -120.09493295085474, -162.93270463263747, 55.40428156585235, -166.44454201704792, 89.97502450268342, -0.026764323633780923, -611.4834111546288, -728.0333875732257, 679.4611672600031, 45.16711891694377, 172.5811812769442, 5.722604412572943, 0.2059936672449112, 6.958008289337158, 1.1769505739212036, 0.2781372368335724, -0.0650482252240181, 0.01345825381577015, 1.5639392363520583, 7.592363799839413, -10.994717961968561, -3.7489649890716903, 0.6833774953851919, 0.23285230398021678, 0, 0, 0, 0, 0, 0, b00000000, b00000000, 
1648478600346.0703, -120.09905838511342, -162.93270463263747, 55.401522169427665, -166.44454201704792, 89.97159574772009, -0.024715266882777098, -611.5552344406884, -727.9990396050235, 679.4441836563112, 45.17682116214149, 172.5810632055951, 5.728137853941425, 0.2426147758960724, 6.903076648712158, 1.1634997129440308, 0.3005676567554474, -0.0605621412396431, 0.02467346377670765, 1.1872826110883365, 8.413508132499514, -9.972133138782477, -3.453581003651031, 0.43665456314375684, 0.4282937380163834, 0, 0, 0, 0, 0, 0, b00000000, b00000000, 
1648478601347.3545, -120.09769234727942, -162.93202161372048, 55.401522169427665, -166.4438589981309, 89.97227876663709, -0.02539828579977837, -611.5331965532837, -728.0110558104213, 679.4574771857102, 45.1737184948404, 172.58165840199348, 5.725819436907498, 0.2197265923023224, 6.962585926055908, 1.1881595849990845, 0.2871094048023224, -0.0560760572552681, 0.02018737979233265, 1.1821074958662714, 7.688186332970779, -10.836221806171059, -3.5853442166014653, 0.6460594181501693, 0.35176457063470234, 0, 0, 0, 0, 0, 0, b00000000, b00000000, 
1648478602347.7983, -120.09769234727942, -162.93407067047147, 55.40083915051066, -166.44454201704792, 89.97296861574326, -0.026764323633780923, -611.5411053098078, -728.0319864263377, 679.4177223876474, 45.171256901864865, 172.5804802029487, 5.730597482369671, 0.2426147758960724, 6.944275379180908, 1.1881595849990845, 0.2983246147632599, -0.0650482252240181, 0.01570129580795765, 0.9666298320078779, 7.95363101648322, -10.377772959429654, -3.4862393748445277, 0.4036144262168834, 0.30754426649992395, 0, 0, 0, 0, 0, 0, b00000000, b00000000, 
1648478603349.3936, -120.09837536619642, -162.93131127404678, 55.40288820726167, -166.44454201704792, 89.97365163466026, -0.02813036146778347, -611.5267010664969, -727.991916852084, 679.4754007136095, 45.17045317185309, 172.5815081881638, 5.723085569844296, 0.2517700493335724, 6.967163562774658, 1.1904014348983765, 0.3229980766773224, -0.0650482252240181, 0.0314025916159153, 1.146003307133459, 8.75885927332446, -11.18527989740926, -3.4792848142230413, 0.33810538976285875, 0.5239200393544335, 0, 0, 0, 0, 0, 0, b00000000, b00000000, 
1648478604350.7961, -120.09769234727942, -162.9306282551298, 55.401522169427665, -166.4424929602969, 89.97434148376642, -0.026764323633780923, -611.5220247746219, -728.0066437260458, 679.4845238524368, 45.17147621367319, 172.5810447295825, 5.720786622492835, 0.2380371391773224, 6.889343738555908, 1.1747087240219116, 0.2893524467945099, -0.0605621412396431, 0.02018737979233265, 0.7770934458609495, 7.715838894326832, -9.10760153890206, -3.3238503401788, 0.3662799223620483, 0.37267789883859626, 0, 0, 0, 0, 0, 0, b00000000, b00000000, 
1648478605351.5735, -120.09837536619642, -162.92994523621277, 55.40288820726167, -166.44454201704792, 89.97227876663709, -0.026081304716779646, -611.5256710345534, -727.9774114975397, 679.4976786139806, 45.17391436769815, 172.58246537053896, 5.721675137625173, 0.1785278469324112, 6.985474109649658, 1.194885015487671, 0.2893524467945099, -0.0605621412396431, 0.0314025916159153, 1.7249208662086635, 7.431838260957123, -11.323351951081019, -3.6289252993298873, 0.7045053319818998, 0.45405782069149353, 0, 0, 0, 0, 0, 0, b00000000, b00000000, 
1648478606353.3254, -120.09769234727942, -162.9306282551298, 55.40428156585235, -166.4459080548819, 89.97159574772009, -0.026764323633780923, -611.5146599360799, -727.9784652518654, 679.4908235840304, 45.17193728746556, 172.5834595514651, 5.722951265912878, 0.1739502102136612, 6.893921375274658, 1.1724668741226196, 0.2893524467945099, -0.0538330152630806, 0.01794433780014515, 1.888658552935742, 7.214939038570449, -9.324389378912791, -3.23420638875192, 0.6441843344022703, 0.27483187277884713, 0, 0, 0, 0, 0, 0, b00000000, b00000000, 
1648478607354.4048, -120.09769234727942, -162.9306282551298, 55.401522169427665, -166.4466183945556, 89.97502450268342, -0.024715266882777098, -611.5164910280721, -727.9956016563856, 679.4717746139034, 45.174102617475356, 172.57846738888736, 5.7267213802760475, 0.2471924126148224, 6.930542469024658, 1.1993685960769653, 0.2915954887866974, -0.0672912672162056, 0.02018737979233265, 0.37845594071437283, 7.493908112409123, -9.548892071680626, -3.369951098462104, 0.24785531178910158, 0.38175126637673423, 0, 0, 0, 0, 0, 0, b00000000, b00000000, 
1648478608355.7776, -120.09837536619642, -162.9306282551298, 55.40288820726167, -166.4438589981309, 89.97227876663709, -0.02539828579977837, -611.5307449490784, -727.984442982057, 679.4886158228181, 45.17495625620348, 172.5822055667168, 5.721685782614716, 0.2243042290210724, 6.898499011993408, 1.2060940265655518, 0.3005676567554474, -0.0605621412396431, 0.02018737979233265, 0.5296765560382446, 7.059130605621271, -8.44876650209489, -2.9839427045259637, 0.19573239305035936, 0.36935757168433736, 0, 0, 0, 0, 0, 0, b00000000, b00000000, 
1648478609356.8096, -120.09493295085474, -162.9306282551298, 55.40083915051066, -166.4424929602969, 89.97365163466026, -0.024032247965775824, -611.493842170692, -728.0373236488259, 679.4802965920919, 45.171552566569304, 172.58166236750648, 5.722218283820382, 0.2105713039636612, 6.916809558868408, 1.18367600440979, 0.3005676567554474, -0.0471038855612278, 0.01794433780014515, 1.3892001992439795, 7.647714997904608, -9.726683899242724, -3.199042737817836, 0.6018226938168335, 0.32129653541392433, 0, 0, 0, 0, 0, 0, b00000000, b00000000, 
1648478610357.1448, -120.09700932836242, -162.93202161372048, 55.40357122617867, -166.4424929602969, 89.97227876663709, -0.027447342550782197, -611.5176946558472, -728.01157328079, 679.474265730298, 45.1698776867614, 172.58370589153725, 5.7206838814643675, 0.2471924126148224, 6.935120105743408, 1.2128194570541382, 0.2893524467945099, -0.0560760572552681, 0.0269165076315403, -0.03665109125886351, 7.1792253185788395, -9.228074884510681, -3.2237436743604824, 0.28566912723835985, 0.49152286849234245, 0, 0, 0, 0, 0, 0, b00000000, b00000000, 
1648478611357.3042, -120.09905838511342, -162.92994523621277, 55.40220518834467, -166.44317597921392, 89.97434148376642, -0.02881338038478475, -611.5305990464852, -727.9820189415756, 679.4977850553555, 45.170469246123666, 172.5814273281999, 5.719697218775349, 0.2334595024585724, 6.971741199493408, 1.1769505739212036, 0.2781372368335724, -0.0628051832318306, 0.01570129580795765, 1.1880756777293777, 7.95773132534399, -11.401241486996941, -3.8589816129713754, 0.6810109373026768, 0.2941924071763439, 0, 0, 0, 0, 0, 0, b00000000, b00000000, 
1648478612358.7683, -120.09629898868874, -162.92789617946178, 55.40357122617867, -166.4452250359649, 89.97365163466026, -0.026081304716779646, -611.4828645835578, -727.9787424766741, 679.533267381342, 45.17069206579426, 172.5826958678495, 5.718081721927109, 0.2380371391773224, 6.935120105743408, 1.1679832935333252, 0.2915954887866974, -0.0605621412396431, 0.0269165076315403, 1.175326962806226, 8.322025677715622, -10.710226901884496, -3.6543346674021513, 0.5527869716996714, 0.45316472289268483, 0, 0, 0, 0, 0, 0, b00000000, b00000000, 
1648478613360.0073, -120.09769234727942, -162.93270463263747, 55.40220518834467, -166.4452250359649, 89.97296861574326, -0.02813036146778347, -611.527579641871, -728.0119705829334, 679.4463226467913, 45.169343824320094, 172.58160869228587, 5.727513261797733, 0.1968383938074112, 6.916809558868408, 1.197126865386963, 0.2983246147632599, -0.0560760572552681, 0.0291595496237278, 1.1270683579698475, 7.2027114851279315, -9.272443692610636, -3.1401488508763906, 0.4237366344939575, 0.4583697672967672, 0, 0, 0, 0, 0, 0, b00000000, b00000000, 
1648478614360.3276, -120.09561596977174, -162.93338765155448, 55.40357122617867, -166.4438589981309, 89.97502450268342, -0.02881338038478475, -611.4964305187608, -728.0388443261502, 679.447787048846, 45.16498879761013, 172.58141149656078, 5.723601908517855, 0.2700805962085724, 6.971741199493408, 1.194885015487671, 0.3140259087085724, -0.0605621412396431, 0.0314025916159153, 0.6230280219097298, 8.65881797194169, -11.100534325573472, -3.519608149777694, 0.3508043026618868, 0.552403482256612, 0, 0, 0, 0, 0, 0, b00000000, b00000000, 
1648478615360.6438, -120.09905838511342, -162.9306282551298, 55.40220518834467, -166.4438589981309, 89.97227876663709, -0.02813036146778347, -611.5386027938757, -727.9827134339355, 679.4844659238809, 45.17178646228625, 172.58270391069001, 5.722631961282191, 0.2563476860523224, 6.921387195587158, 1.18367600440979, 0.2960815727710724, -0.0538330152630806, 0.0471038855612278, 0.2559332067864859, 8.213264242240813, -9.82326600061519, -3.412957225896961, 0.3569006286221571, 0.7656457893153716, 0, 0, 0, 0, 0, 0, b00000000, b00000000, 
1648478616360.724, -120.09700932836242, -162.9347536893885, 55.40428156585235, -166.4438589981309, 89.97502450268342, -0.027447342550782197, -611.5199580750568, -728.0304776110637, 679.4297922244106, 45.169104050410155, 172.5801196149962, 5.724579278993464, 0.2471924126148224, 6.948853015899658, 1.18367600440979, 0.2938385307788849, -0.0583190992474556, 0.0269165076315403, 0.7977818204721245, 8.138399218146509, -10.62367282365121, -3.5689870878393064, 0.493129160990633, 0.47060120254158383, 0, 0, 0, 0, 0, 0, b00000000, b00000000, 
1648478617361.4272, -120.09629898868874, -162.93270463263747, 55.40357122617867, -166.4438589981309, 89.97434148376642, -0.02813036146778347, -611.5042091784641, -728.0245192029541, 679.458930229771, 45.16722488462155, 172.581721243214, 5.722873145203353, 0.2655029594898224, 6.958008289337158, 1.1904014348983765, 0.2803802788257599, -0.0628051832318306, 0.0269165076315403, 0.18429734118928637, 7.919105223465885, -10.567402306520512, -3.699927581341227, 0.4209238778551186, 0.49224126136212076, 0, 0, 0, 0, 0, 0, b00000000, b00000000, 
1648478618362.4365, -120.09561596977174, -162.93270463263747, 55.40015613159366, -166.44454201704792, 89.97296861574326, -0.02539828579977837, -611.5118301594063, -728.0457911381495, 679.4358523735025, 45.17025710342148, 172.5810765365974, 5.729653034095212, 0.2975464165210724, 6.962585926055908, 1.1769505739212036, 0.2848663628101349, -0.0672912672162056, 0.0358886756002903, -0.014767612254855789, 8.752012280406062, -11.175636064272116, -3.9163805838627743, 0.35793952182649313, 0.6377127468400218, 0, 0, 0, 0, 0, 0, b00000000, b00000000, 
1648478619363.0027, -120.09561596977174, -162.93131127404678, 55.401522169427665, -166.4424929602969, 89.97296861574326, -0.026764323633780923, -611.5022478272213, -728.032629416644, 679.4733344168866, 45.16857560645474, 172.58300291189298, 5.722434583326966, 0.2746582329273224, 6.980896472930908, 1.18367600440979, 0.2983246147632599, -0.0560760572552681, 0.0291595496237278, 0.6160007225115959, 8.72906131949224, -11.612279758362167, -3.7575491277046487, 0.5450494267389362, 0.527835526976261, 0, 0, 0, 0, 0, 0, b00000000, b00000000, 
1648478620364.0605, -120.09769234727942, -162.93131127404678, 55.40357122617867, -166.4438589981309, 89.97365163466026, -0.024032247965775824, -611.5213715626643, -727.9945677099157, 679.4816433412452, 45.175748513883846, 172.58071021092755, 5.721145575557041, 0.2426147758960724, 6.944275379180908, 1.18367600440979, 0.3028106987476349, -0.0650482252240181, 0.02243042178452015, 1.0606069187933769, 8.210957831653786, -10.560562978482867, -3.51165379774222, 0.40263365021481673, 0.39636951988805, 0, 0, 0, 0, 0, 0, b00000000, b00000000, 
1648478621365.9233, -120.09700932836242, -162.9306282551298, 55.40083915051066, -166.4473014134726, 89.97296861574326, -0.026764323633780923, -611.5116789479172, -728.0034700722402, 679.4654698281352, 45.17025183203824, 172.58102449431897, 5.729609433333492, 0.2334595024585724, 6.935120105743408, 1.179192304611206, 0.3028106987476349, -0.0650482252240181, 0.0269165076315403, 1.1924244664947206, 8.212404964781374, -10.43551608777768, -3.4955743311180423, 0.4104348703244114, 0.4465863320730421, 0, 0, 0, 0, 0, 0, b00000000, b00000000, 
1648478622366.989, -120.09629898868874, -162.93270463263747, 55.40083915051066, -166.4452250359649, 89.97365163466026, -0.026081304716779646, -611.5148920523276, -728.0342186584264, 679.4379466478246, 45.17011631936496, 172.58040385883933, 5.729336605798191, 0.2655029594898224, 6.935120105743408, 1.1747087240219116, 0.2960815727710724, -0.0650482252240181, 0.0269165076315403, 0.6729046684159441, 8.483554400654834, -10.523402037389165, -3.6282516447139743, 0.3754340542843617, 0.48177029652996817, 0, 0, 0, 0, 0, 0, b00000000, b00000000, 
1648478623369.6213, -120.09974140403042, -162.93131127404678, 55.401522169427665, -166.4438589981309, 89.97296861574326, -0.024715266882777098, -611.5548931240218, -727.9837831919558, 679.4690924361684, 45.17774342217597, 172.58011100557783, 5.724436513330924, 0.2288818657398224, 6.953430652618408, 1.1993685960769653, 0.2983246147632599, -0.0560760572552681, 0.0314025916159153, 0.7759947897629951, 7.717320922299316, -10.287460165089133, -3.383678586461092, 0.453016699132105, 0.5200399488569376, 0, 0, 0, 0, 0, 0, b00000000, b00000000, 
1648478624370.1172, -120.09769234727942, -162.93131127404678, 55.40428156585235, -166.44454201704792, 89.97502450268342, -0.026081304716779646, -611.5124954656643, -727.9919146942892, 679.4839333182589, 45.17238804479588, 172.58018700104768, 5.720480261910783, 0.3067016899585724, 6.921387195587158, 1.181434154510498, 0.2893524467945099, -0.0650482252240181, 0.02467346377670765, -0.30727188865346455, 8.424156767089752, -9.83529619549699, -3.5818356318084605, 0.19821469655147791, 0.504786246036077, 0, 0, 0, 0, 0, 0, b00000000, b00000000, 
1648478625371.5154, -120.09356691302074, -162.93202161372048, 55.401522169427665, -166.4452250359649, 89.9757143517896, -0.027447342550782197, -611.4682006988672, -728.0574739109073, 679.4533474776746, 45.16367146610128, 172.58054388602312, 5.726449778005339, 0.2655029594898224, 6.944275379180908, 1.1904014348983765, 0.3050537407398224, -0.0672912672162056, 0.0269165076315403, 0.530549710690625, 8.318269915896563, -10.356874679870412, -3.487301844734781, 0.25500675873152917, 0.48393492374649233, 0, 0, 0, 0, 0, 0, b00000000, b00000000, 
1648478626372.1836, -120.09769234727942, -162.93131127404678, 55.40428156585235, -166.44454201704792, 89.97502450268342, -0.02539828579977837, -611.5132502888989, -727.9914901607693, 679.4839252383922, 45.173422128434076, 172.57993848038583, 5.720495007270324, 0.2426147758960724, 6.930542469024658, 1.1904014348983765, 0.3005676567554474, -0.0628051832318306, 0.0291595496237278, 0.6923247618137653, 7.937019544016978, -9.913973090585168, -3.3785377751455536, 0.31976925004549017, 0.49689548412939144, 0, 0, 0, 0, 0, 0, b00000000, b00000000, 
1648478627373.9187, -120.09769234727942, -162.93202161372048, 55.40083915051066, -166.4466183945556, 89.97434148376642, -0.02539828579977837, -611.5263118666982, -728.0105604561377, 679.4448135685111, 45.17303985167829, 172.57872383911877, 5.730096196479724, 0.2517700493335724, 6.935120105743408, 1.1993685960769653, 0.3117828667163849, -0.0628051832318306, 0.02467346377670765, 0.6251043599520758, 8.012440538179272, -9.846969844676934, -3.2521564083500363, 0.23533215575577143, 0.4466605030432572, 0, 0, 0, 0, 0, 0, b00000000, b00000000, 
1648478628375.1082, -120.09629898868874, -162.92994523621277, 55.40083915051066, -166.44454201704792, 89.9757143517896, -0.029496399301786023, -611.493837372541, -728.0179387856272, 679.4852367276367, 45.1648136499944, 172.58075557029758, 5.723244339383762, 0.2426147758960724, 6.912231922149658, 1.1679832935333252, 0.3005676567554474, -0.0672912672162056, 0.02243042178452015, 1.1783582335009397, 8.34410164581518, -10.099548175260669, -3.5026916504146173, 0.3718742277973208, 0.3918102027106959, 0, 0, 0, 0, 0, 0, b00000000, b00000000, 
1648478629376.253, -120.09769234727942, -162.93202161372048, 55.40083915051066, -166.4438589981309, 89.97502450268342, -0.02881338038478475, -611.5250089270137, -728.0207622846417, 679.4533861901631, 45.167972179706005, 172.58012441570554, 5.725597625092449, 0.2929687798023224, 6.958008289337158, 1.1747087240219116, 0.2893524467945099, -0.0628051832318306, 0.01570129580795765, 0.40899253982403416, 8.68160074128415, -11.147622850817598, -3.812514312159999, 0.46165959288914155, 0.35895537846589093, 0, 0, 0, 0, 0, 0, b00000000, b00000000, 
1648478630378.2256, -120.09905838511342, -162.93270463263747, 55.40357122617867, -166.4438589981309, 89.97502450268342, -0.02881338038478475, -611.5368709004282, -727.9964183187005, 679.4589510405508, 45.17019549433493, 172.58015879745255, 5.722508301511133, 0.2655029594898224, 6.921387195587158, 1.1904014348983765, 0.2893524467945099, -0.0650482252240181, 0.011215210892260075, 0.3088470009115366, 7.718326048986672, -9.547113209204467, -3.413509263448862, 0.2826461037323406, 0.2790495176097897, 0, 0, 0, 0, 0, 0, b00000000, b00000000, 
1648478631379.7751, -120.09700932836242, -162.93131127404678, 55.40083915051066, -166.4438589981309, 89.97296861574326, -0.027447342550782197, -611.5193588422324, -728.0185039725021, 679.4649424186958, 45.16945747855701, 172.58205930738518, 5.725456299283592, 0.2517700493335724, 6.935120105743408, 1.1881595849990845, 0.3185119926929474, -0.0650482252240181, 0.02467346377670765, 1.0004164942748963, 8.443784958393364, -10.26685013442308, -3.3300984984177626, 0.267249062309479, 0.4371411115585272, 0, 0, 0, 0, 0, 0, b00000000, b00000000, 
1648478632381.6758, -120.09561596977174, -162.93202161372048, 55.405647603686354, -166.44317597921392, 89.97502450268342, -0.027447342550782197, -611.4856750449487, -728.0166530392034, 679.4849211088591, 45.167385615712405, 172.58215467153263, 5.71746935468155, 0.2197265923023224, 6.925964832305908, 1.1747087240219116, 0.2871094048023224, -0.0628051832318306, 0.02467346377670765, 1.2050577530268463, 7.804650778244942, -10.183459077912584, -3.548933079086825, 0.5155400848997193, 0.40590077043048656, 0, 0, 0, 0, 0, 0, b00000000, b00000000, 
1648478633382.3071, -120.09700932836242, -162.9306282551298, 55.40220518834467, -166.4459080548819, 89.97227876663709, -0.02539828579977837, -611.5125308246928, -727.9975735410053, 679.4781070524339, 45.172680884137264, 172.58198763808346, 5.725805111935877, 0.2014160305261612, 6.944275379180908, 1.1724668741226196, 0.3140259087085724, -0.0695343092083931, 0.02467346377670765, 2.1377917178928194, 8.377254465460364, -11.021955573205377, -3.5192732421054598, 0.4982311153305787, 0.3680289318404184, 0, 0, 0, 0, 0, 0, b00000000, b00000000, 
1648478634383.5762, -120.09700932836242, -162.92994523621277, 55.40357122617867, -166.44454201704792, 89.97502450268342, -0.026764323633780923, -611.4987486289236, -727.992274759236, 679.5019195220548, 45.17037104524645, 172.58092887683614, 5.719502290895457, 0.2151489406824112, 6.953430652618408, 1.1545324325561523, 0.2893524467945099, -0.0605621412396431, 0.0269165076315403, 1.9218727385258965, 8.558595214616476, -11.679275055098016, -3.8727031490225965, 0.7744484284898834, 0.4179249930922984, 0, 0, 0, 0, 0, 0, b00000000, b00000000, 
1648478635385.1018, -120.09700932836242, -162.93202161372048, 55.40220518834467, -166.4438589981309, 89.9757143517896, -0.02813036146778347, -611.5110263680149, -728.0208381123949, 679.4617554727329, 45.167965813097155, 172.57993154689572, 5.723294175752549, 0.2243042290210724, 6.990051746368408, 1.179192304611206, 0.2938385307788849, -0.0583190992474556, 0.02467346377670765, 1.5524487533056806, 8.33534184939137, -12.001316237198543, -3.8174904288182803, 0.7384815635287363, 0.40501687328551406, 0, 0, 0, 0, 0, 0, b00000000, b00000000, 
1648478636386.0618, -120.09629898868874, -162.93338765155448, 55.401522169427665, -166.4452250359649, 89.97296861574326, -0.02539828579977837, -611.5183929369168, -728.0346912497748, 679.4309441180152, 45.17128656259938, 172.58079190994408, 5.7296413444043806, 0.2426147758960724, 6.976318836212158, 1.1679832935333252, 0.2915954887866974, -0.0650482252240181, 0.0314025916159153, 1.3153465680477392, 8.697434181248163, -11.937777526500197, -3.938814185475627, 0.6290696721810851, 0.508332440825454, 0, 0, 0, 0, 0, 0, b00000000, b00000000, 
1648478637386.2605, -120.09700932836242, -162.93407067047147, 55.401522169427665, -166.4452250359649, 89.97296861574326, -0.027447342550782197, -611.5284541871667, -728.034068185346, 679.4198040879809, 45.16919879926623, 172.5810270013647, 5.730601047201939, 0.2471924126148224, 6.944275379180908, 1.1859177350997925, 0.2826233208179474, -0.0605621412396431, 0.0314025916159153, 0.46819387406763635, 7.850603495125377, -10.32460670205872, -3.615164558141775, 0.45459677186117786, 0.5346234626237721, 0, 0, 0, 0, 0, 0, b00000000, b00000000, 
1648478638388.1155, -120.09905838511342, -162.93338765155448, 55.401522169427665, -166.4438589981309, 89.97365163466026, -0.02813036146778347, -611.550828426474, -728.0114045802803, 679.4352065921039, 45.17126970853475, 172.58036963284343, 5.727185596081527, 0.2471924126148224, 6.903076648712158, 1.1881595849990845, 0.2983246147632599, -0.0605621412396431, 0.0269165076315403, 0.4842182057517175, 7.775736828154428, -9.149373960924649, -3.2419832416127106, 0.2600739435813429, 0.47735905644173915, 0, 0, 0, 0, 0, 0, b00000000, b00000000, 
1648478639390.1157, -120.09700932836242, -162.93131127404678, 55.40220518834467, -166.4438589981309, 89.9757143517896, -0.02539828579977837, -611.5106136587681, -728.0132273056383, 679.4733336027185, 45.17215371914419, 172.57915459819435, 5.722293166683359, 0.2517700493335724, 6.944275379180908, 1.1702251434326172, 0.3207550346851349, -0.0650482252240181, 0.0269165076315403, 1.4789525613194932, 9.045041982722363, -11.14271765048477, -3.5452661635651768, 0.4078069737538856, 0.45636701333727614, 0, 0, 0, 0, 0, 0, b00000000, b00000000, 
1648478640392.7495, -120.09837536619642, -162.93131127404678, 55.40428156585235, -166.44317597921392, 89.97296861574326, -0.026764323633780923, -611.5274073131017, -727.9858036537953, 679.48812120174, 45.17288088589099, 172.58246513910157, 5.719278469932949, 0.2563476860523224, 6.944275379180908, 1.1634997129440308, 0.2848663628101349, -0.0672912672162056, 0.0291595496237278, 0.9099658822187513, 8.550732091032325, -11.073005481958146, -3.866970333477784, 0.5064649185485628, 0.49579738276617585, 0, 0, 0, 0, 0, 0, b00000000, b00000000, 
