vnguyen43/Compensation-Electrical-Current-Drift-Human-Robot-Collision/data/data_2.csv
Time [sec], q1 (deg), q2 (deg), q3 (deg), q4 (deg), q5 (deg), q6 (deg), Px (mm), Py (mm), Pz (mm), Rx (deg), Ry (deg), Rz (deg), c1 (A), c2 (A), c3 (A), c4 (A), c5 (A), c6 (A), Fx R (N), Fy R (N), Fz R (N), Tx R (Nm), Ty R (Nm), Tz R (Nm), Fx A (N), Fy A (N), Fz A (N), Tx A (Nm), Ty A (Nm), Tz A (Nm), Din, Dout
1648482981957.612, -120.09769234727942, -162.93270463263747, 55.40083915051066, -166.4452250359649, 89.97021604950774, -0.027447342550782197, -611.5393605218142, -728.0155395637829, 679.4378992511455, 45.1707850513912, 172.5835257484587, 5.7307384202595655, 0.2243042290210724, 6.962585926055908, 1.2621393203735352, 0.2332763969898224, -0.0852356031537056, -0.02467346377670765, -0.9155431892888349, 4.353751990957348, -7.989529885026102, -3.3362950933729727, 0.08924834733885537, -0.2329011562912317, 0, 0, 0, 0, 0, 0, b00000000, b00000000, 
1648482982958.7302, -120.09905838511342, -162.9306282551298, 55.39807975408598, -166.4438589981309, 89.97021604950774, -0.026081304716779646, -611.5591155631998, -728.0019717072169, 679.4591430408656, 45.17493666695757, 172.58264683124006, 5.729713058561893, 0.2380371391773224, 6.948853015899658, 1.2621393203735352, 0.2646789848804474, -0.0964508131146431, -0.02243042178452015, -0.689674994967705, 5.027827600273976, -7.831968076624535, -3.1456528713774157, -0.21043748979410098, -0.20309977667073512, 0, 0, 0, 0, 0, 0, b00000000, b00000000, 
1648482983959.6646, -120.09837536619642, -162.93338765155448, 55.401522169427665, -166.4466183945556, 89.9709058986139, -0.02813036146778347, -611.5446457742952, -728.0078195586228, 679.4266363146425, 45.17053358364175, 172.5824325798027, 5.732502631757833, 0.2426147758960724, 6.944275379180908, 1.2576557397842407, 0.2332763969898224, -0.0897216871380806, -0.02467346377670765, -1.2136715450173365, 4.501893472726561, -7.5878035337195255, -3.326026661715084, -0.04431660994523913, -0.21601937557034556, 0, 0, 0, 0, 0, 0, b00000000, b00000000, 
1648482984960.022, -120.09837536619642, -162.93131127404678, 55.40015613159366, -166.4486674513066, 89.9709058986139, -0.026081304716779646, -611.5382189664253, -727.991675685778, 679.4458603213924, 45.17350118550508, 172.58131777763717, 5.734557837516231, 0.2517700493335724, 6.944275379180908, 1.2643811702728271, 0.2243042290210724, -0.0897216871380806, -0.02243042178452015, -1.6962811834527949, 4.24150546302298, -7.29550287127262, -3.336698743569434, -0.09497019972738172, -0.16935385511896023, 0, 0, 0, 0, 0, 0, b00000000, b00000000, 
1648482985960.844, -120.09700932836242, -162.93338765155448, 55.39947311267666, -166.4479844323896, 89.9709058986139, -0.026081304716779646, -611.5341109712141, -728.0291707381356, 679.4098480113877, 45.17130455679873, 172.58125492859597, 5.737682303531962, 0.2014160305261612, 6.958008289337158, 1.2531720399856567, 0.2332763969898224, -0.0807495191693306, -0.01570129580795765, -0.4974103352254595, 4.41649725024802, -8.148568039475458, -3.3499775650323853, 0.21612451111152664, -0.13549201092567154, 0, 0, 0, 0, 0, 0, b00000000, b00000000, 
1648482986961.3281, -120.09769234727942, -162.93270463263747, 55.40083915051066, -166.4479844323896, 89.97227876663709, -0.029496399301786023, -611.528012414118, -728.0124551708018, 679.4294422170841, 45.16706074757069, 172.58154215552946, 5.73395104457328, 0.2334595024585724, 6.944275379180908, 1.2576557397842407, 0.2153320610523224, -0.0919647291302681, -0.02243042178452015, -1.4074263670577705, 4.070775925891311, -7.4449826048628065, -3.4471904626372023, -0.0033552862602942504, -0.19328863083602624, 0, 0, 0, 0, 0, 0, b00000000, b00000000, 
1648482987962.329, -120.09561596977174, -162.93407067047147, 55.40288820726167, -166.4459080548819, 89.9709058986139, -0.024715266882777098, -611.5133201856462, -728.0349507166998, 679.4259896989927, 45.17169366388003, 172.5827700405258, 5.730551173786062, 0.2609253227710724, 6.948853015899658, 1.2576557397842407, 0.2467346489429474, -0.0919647291302681, -0.004486084450036287, -1.4933706424016493, 5.119720840679813, -7.8312899605482045, -3.3406574202519153, -0.19233258062998845, 0.07454384578445847, 0, 0, 0, 0, 0, 0, b00000000, b00000000, 
1648482988963.7617, -120.09769234727942, -162.92994523621277, 55.39876277300298, -166.4486674513066, 89.97227876663709, -0.026764323633780923, -611.5233648094845, -727.997759406693, 679.4596898688854, 45.17116805215293, 172.58056860972496, 5.7340156576629875, 0.2563476860523224, 6.967163562774658, 1.2397211790084839, 0.2444916069507599, -0.0829925611615181, -0.01794433780014515, -0.7719872161743567, 5.5444462447340035, -8.943870935903849, -3.5491429474288747, 0.1482386061725517, -0.11820401217661752, 0, 0, 0, 0, 0, 0, b00000000, b00000000, 
1648482989965.326, -120.09629898868874, -162.93407067047147, 55.40083915051066, -166.4466183945556, 89.96953303059074, -0.026764323633780923, -611.5285767041953, -728.036818515956, 679.4112485588096, 45.16964435532646, 172.58368812088676, 5.735199897207527, 0.2380371391773224, 6.953430652618408, 1.2711066007614136, 0.2512207329273224, -0.0919647291302681, -0.02018737979233265, -1.1329162758858988, 4.56929747938536, -7.5672803187768265, -3.149507120982448, -0.1743707403208074, -0.16093758802467692, 0, 0, 0, 0, 0, 0, b00000000, b00000000, 
1648482990965.3281, -120.09974140403042, -162.93131127404678, 55.39947311267666, -166.4459080548819, 89.97227876663709, -0.027447342550782197, -611.5570750551051, -727.990820943273, 679.4502387028466, 45.1733952868254, 172.5805413075966, 5.730800371367178, 0.2700805962085724, 6.935120105743408, 1.2733484506607056, 0.2287903130054474, -0.0942077711224556, -0.02018737979233265, -2.193732359670489, 4.209661784572407, -6.764337964007145, -3.226013336943658, -0.3031741966382002, -0.11737872965277169, 0, 0, 0, 0, 0, 0, b00000000, b00000000, 
1648482991967.0103, -120.09974140403042, -162.92994523621277, 55.40015613159366, -166.4466183945556, 89.9709058986139, -0.027447342550782197, -611.5505220283145, -727.9718861680856, 679.4745302510303, 45.17375108725638, 172.5822445318639, 5.7293903607149215, 0.2151489406824112, 6.962585926055908, 1.2531720399856567, 0.2512207329273224, -0.0897216871380806, -0.02018737979233265, -0.30639041547555973, 4.902787053967587, -8.428099701939207, -3.328583783306712, 0.06266641522779084, -0.1951911730448313, 0, 0, 0, 0, 0, 0, b00000000, b00000000, 
1648482992967.6353, -120.09905838511342, -162.93131127404678, 55.40015613159366, -166.4473014134726, 89.97159574772009, -0.026764323633780923, -611.5465190146731, -727.9892865909887, 679.4500984537009, 45.17347478078718, 172.58102528375463, 5.732188234818977, 0.2563476860523224, 6.990051746368408, 1.2666230201721191, 0.2400055229663849, -0.0897216871380806, -0.02243042178452015, -1.2544401511009353, 4.877587983697704, -8.712770793919344, -3.488906409425652, 0.002616657392778207, -0.1746764561380134, 0, 0, 0, 0, 0, 0, b00000000, b00000000, 
1648482993967.8413, -120.09629898868874, -162.93338765155448, 55.40083915051066, -166.4466183945556, 89.9709058986139, -0.02539828579977837, -611.5234805566377, -728.0321453669847, 679.4224219557219, 45.17150272798414, 172.58211459540826, 5.733626107997294, 0.2700805962085724, 6.962585926055908, 1.2621393203735352, 0.2198181450366974, -0.0897216871380806, -0.01794433780014515, -1.9518542182068657, 4.541580330653383, -7.8762610784125355, -3.5289126155804524, -0.061320364474005996, -0.0905485740900055, 0, 0, 0, 0, 0, 0, b00000000, b00000000, 
1648482994968.6333, -120.10179046078143, -162.93407067047147, 55.40015613159366, -166.4466183945556, 89.97159574772009, -0.02813036146778347, -611.5940741176265, -727.985710825829, 679.4071202068345, 45.17535629875143, 172.5797161869607, 5.735194256611999, 0.2334595024585724, 6.930542469024658, 1.2643811702728271, 0.2557068169116974, -0.0942077711224556, -0.01794433780014515, -1.0005503337253177, 4.64445761276887, -7.1411787803596924, -3.0618179982028044, -0.24370712645010018, -0.13839696735944435, 0, 0, 0, 0, 0, 0, b00000000, b00000000, 
1648482995968.634, -120.09561596977174, -162.93338765155448, 55.40220518834467, -166.4493504702236, 89.97159574772009, -0.027447342550782197, -611.5024035998827, -728.0268362009322, 679.4223884712067, 45.16713034354583, 172.5821258263837, 5.735357027232366, 0.2471924126148224, 6.944275379180908, 1.2621393203735352, 0.2467346489429474, -0.0852356031537056, -0.006729126907885075, -1.3872198744507918, 4.829542643911485, -7.549873814470501, -3.205088138276169, -0.12297657579310495, 0.0378273650017759, 0, 0, 0, 0, 0, 0, b00000000, b00000000, 
1648482996968.6353, -120.09837536619642, -162.92994523621277, 55.40288820726167, -166.4486674513066, 89.97227876663709, -0.026081304716779646, -611.5195175209243, -727.9667173148592, 679.484940909435, 45.17356754432597, 172.5812729936534, 5.727856203051396, 0.2517700493335724, 6.935120105743408, 1.2486884593963623, 0.2624359428882599, -0.0919647291302681, -0.01345825381577015, -0.8450534154686695, 5.42598326654244, -7.841505412256846, -3.2155784406561594, -0.1760025986082735, -0.06480970284137366, 0, 0, 0, 0, 0, 0, b00000000, b00000000, 
1648482997969.6367, -120.09700932836242, -162.9306282551298, 55.40015613159366, -166.4466183945556, 89.96884318148457, -0.02539828579977837, -611.526340912021, -728.0026623878974, 679.4633045133318, 45.173100818031934, 172.5843816338106, 5.731390066513408, 0.2426147758960724, 6.944275379180908, 1.2598974704742432, 0.2287903130054474, -0.0807495191693306, -0.02243042178452015, -1.3814676246087254, 4.370449380916551, -7.478445145503172, -3.2814066657167418, 0.04536850845324651, -0.17433357303999877, 0, 0, 0, 0, 0, 0, b00000000, b00000000, 
1648482998971.0881, -120.09837536619642, -162.93270463263747, 55.401522169427665, -166.4459080548819, 89.96953303059074, -0.02539828579977837, -611.5487308157382, -728.0004172129055, 679.4399361908515, 45.17503899175668, 172.58313807772925, 5.7310619529509985, 0.2746582329273224, 6.935120105743408, 1.2531720399856567, 0.3005676567554474, -0.0942077711224556, -0.02018737979233265, -0.5567979885041221, 6.239104483347595, -7.998686584331274, -2.960475003550281, -0.373604799794515, -0.14067086942991183, 0, 0, 0, 0, 0, 0, b00000000, b00000000, 
1648482999973.0464, -120.09700932836242, -162.93202161372048, 55.40357122617867, -166.4466183945556, 89.97227876663709, -0.02813036146778347, -611.5107866148678, -728.0013035786822, 679.4615359253955, 45.168496794382705, 172.58276201305216, 5.726850227230777, 0.2563476860523224, 6.953430652618408, 1.2666230201721191, 0.2512207329273224, -0.0897216871380806, -0.01570129580795765, -1.3791633597200368, 4.885527774987454, -7.711325061660348, -3.212521641069805, -0.17977533604631865, -0.07918174299169603, 0, 0, 0, 0, 0, 0, b00000000, b00000000, 
1648483000974.6626, -120.10042442294743, -162.93338765155448, 55.40083915051066, -166.4459080548819, 89.97159574772009, -0.026081304716779646, -611.5745427148179, -727.9913135110919, 679.4246357417128, 45.17657822730703, 172.58017075814922, 5.732164670111878, 0.2563476860523224, 6.939697742462158, 1.2845574617385864, 0.2489776909351349, -0.0874786451458931, -0.01794433780014515, -1.8887151898180212, 4.2515399276329555, -6.6988342438539865, -2.9564378063792964, -0.3120647560062693, -0.09566556046731953, 0, 0, 0, 0, 0, 0, b00000000, b00000000, 
1648483001974.6692, -120.09629898868874, -162.93131127404678, 55.401522169427665, -166.4473014134726, 89.96953303059074, -0.027447342550782197, -611.5112733589309, -728.0086424929606, 679.4584327271278, 45.16881008631522, 172.584788160597, 5.731070858029989, 0.2746582329273224, 6.935120105743408, 1.2666230201721191, 0.2579498589038849, -0.0874786451458931, -0.006729126907885075, -1.7839147570259888, 5.119261518476346, -7.2177918074655, -3.0889935814179097, -0.31214329728910367, 0.06765502482427307, 0, 0, 0, 0, 0, 0, b00000000, b00000000, 
1648483002974.6707, -120.09905838511342, -162.93131127404678, 55.40015613159366, -166.4452250359649, 89.97227876663709, -0.024032247965775824, -611.5509908661284, -727.993897023919, 679.4564895387865, 45.177656619181455, 172.57999204354866, 5.72884567304075, 0.2517700493335724, 6.953430652618408, 1.2531720399856567, 0.2467346489429474, -0.0964508131146431, -0.02467346377670765, -0.9558043464184451, 5.0410436098114415, -8.114630040356621, -3.390801307710097, -0.11508233590115072, -0.2194001873673353, 0, 0, 0, 0, 0, 0, b00000000, b00000000, 
1648483003975.6697, -120.09837536619642, -162.93270463263747, 55.39876277300298, -166.4452250359649, 89.97296861574326, -0.026764323633780923, -611.5488493095062, -728.0232964853478, 679.4252276019039, 45.172149766354515, 172.57978462090225, 5.732667656351884, 0.2426147758960724, 6.948853015899658, 1.2643811702728271, 0.2355194389820099, -0.0919647291302681, -0.01570129580795765, -1.4102578115457451, 4.4684571746508945, -7.523758409029814, -3.3033868846233876, -0.12817501941767157, -0.09331021560863237, 0, 0, 0, 0, 0, 0, b00000000, b00000000, 
1648483004975.7407, -120.09769234727942, -162.93270463263747, 55.39947311267666, -166.4459080548819, 89.9709058986139, -0.027447342550782197, -611.5410776709924, -728.0224280682411, 679.4274385397331, 45.17048386094412, 172.58227086385727, 5.733507881428014, 0.2334595024585724, 6.939697742462158, 1.2666230201721191, 0.2601929008960724, -0.0874786451458931, -0.01570129580795765, -0.9515482897820062, 4.761488434794539, -7.376918568049927, -3.0267999219031134, -0.16971711910703258, -0.10271180164993421, 0, 0, 0, 0, 0, 0, b00000000, b00000000, 
1648483005975.77, -120.10110744186443, -162.93270463263747, 55.39876277300298, -166.44454201704792, 89.97021604950774, -0.026081304716779646, -611.5919656765899, -727.9917495622141, 679.4272774926803, 45.177854600883, 172.5811504860939, 5.732771047403937, 0.2655029594898224, 6.935120105743408, 1.2531720399856567, 0.2444916069507599, -0.0829925611615181, -0.01570129580795765, -1.4561022571994364, 5.05455851867006, -7.548698591407891, -3.2488004199368965, -0.08775989141080368, -0.06479412268382997, 0, 0, 0, 0, 0, 0, b00000000, b00000000, 
1648483006976.7292, -120.09769234727942, -162.93131127404678, 55.401522169427665, -166.4452250359649, 89.97021604950774, -0.026764323633780923, -611.5311846084694, -727.9996551560786, 679.4648480481915, 45.171977122809295, 172.58390881033043, 5.7276540137486265, 0.2563476860523224, 6.948853015899658, 1.2486884593963623, 0.2243042290210724, -0.0829925611615181, -0.01794433780014515, -1.4452313171498548, 4.764250764291288, -7.942964236159703, -3.486436889252023, 0.07607446050053268, -0.10515158526249005, 0, 0, 0, 0, 0, 0, b00000000, b00000000, 
1648483007977.0066, -120.09493295085474, -162.92994523621277, 55.40288820726167, -166.4479844323896, 89.97227876663709, -0.024032247965775824, -611.4790623372157, -728.0039541655115, 679.487025626428, 45.171570162913746, 172.58218655555746, 5.726951282506972, 0.2563476860523224, 6.958008289337158, 1.2643811702728271, 0.2915954887866974, -0.0785064771771431, -0.02467346377670765, -0.49518486535864314, 5.735093953167626, -8.2445984587753, -2.913417751494985, -0.10832054621106585, -0.20338098650441636, 0, 0, 0, 0, 0, 0, b00000000, b00000000, 
1648483008977.0413, -120.09700932836242, -162.93131127404678, 55.39947311267666, -166.44454201704792, 89.97021604950774, -0.026764323633780923, -611.5301209312885, -728.0203025199805, 679.4544101653728, 45.170841330695616, 172.58377897304297, 5.729704753359942, 0.2471924126148224, 6.935120105743408, 1.2374794483184814, 0.2422485649585724, -0.0829925611615181, -0.02243042178452015, -0.7630570219160329, 5.208199406582126, -8.044398599203491, -3.3760628388823832, 0.08879330399094867, -0.1848910494729523, 0, 0, 0, 0, 0, 0, b00000000, b00000000, 
1648483009977.8284, -120.09769234727942, -162.93131127404678, 55.39947311267666, -166.4466183945556, 89.97021604950774, -0.026764323633780923, -611.5357022874558, -728.007629558388, 679.4479995425771, 45.171689934971184, 172.58288873237316, 5.732801030241178, 0.2471924126148224, 6.953430652618408, 1.2598974704742432, 0.2601929008960724, -0.0852356031537056, -0.01570129580795765, -0.9293604329419298, 5.163821829777588, -8.003932915764338, -3.177715875317212, -0.08574249470952802, -0.09093997139795351, 0, 0, 0, 0, 0, 0, b00000000, b00000000, 
1648483010979.1968, -120.09769234727942, -162.93407067047147, 55.40428156585235, -166.4452250359649, 89.97296861574326, -0.024032247965775824, -611.5320243702815, -728.0090522421875, 679.4366601233991, 45.17562132021252, 172.58032580578248, 5.726540090553002, 0.2563476860523224, 6.958008289337158, 1.2666230201721191, 0.2377624809741974, -0.0852356031537056, -0.01794433780014515, -1.5601142409429674, 4.630956858868409, -7.739057936794806, -3.294797530375793, -0.07116228202173397, -0.10301168681354012, 0, 0, 0, 0, 0, 0, b00000000, b00000000, 
1648483011979.2273, -120.09837536619642, -162.93131127404678, 55.401522169427665, -166.44454201704792, 89.97021604950774, -0.027447342550782197, -611.5401269790656, -727.99456019667, 679.4669649128454, 45.172023699755826, 172.58406472557058, 5.726601229350083, 0.2563476860523224, 6.944275379180908, 1.2397211790084839, 0.2826233208179474, -0.0919647291302681, -0.01794433780014515, -0.2455268125758574, 6.148031174443597, -8.56837624170656, -3.22335058245916, -0.1364755725737027, -0.1322574503990635, 0, 0, 0, 0, 0, 0, b00000000, b00000000, 
1648483012979.2292, -120.09769234727942, -162.93131127404678, 55.40015613159366, -166.4466183945556, 89.97296861574326, -0.026764323633780923, -611.5268749782601, -728.0074983209568, 679.4522325702751, 45.17122620808778, 172.5805174407869, 5.730610388628316, 0.2197265923023224, 6.921387195587158, 1.2598974704742432, 0.2512207329273224, -0.0897216871380806, -0.02243042178452015, -0.7665918327908519, 4.448926580953345, -6.979758411809335, -3.0246693604922785, -0.1378465876168821, -0.21050649563570556, 0, 0, 0, 0, 0, 0, b00000000, b00000000, 
1648483013979.9736, -120.09905838511342, -162.93202161372048, 55.401522169427665, -166.4466183945556, 89.97296861574326, -0.02813036146778347, -611.541756807124, -727.9919554595257, 679.449002510802, 45.17126613616288, 172.580628857112, 5.729571899110747, 0.2792358696460724, 6.962585926055908, 1.2576557397842407, 0.2332763969898224, -0.0852356031537056, -0.01570129580795765, -1.7930560662671067, 5.03288630060176, -8.129448920065377, -3.4736181770588357, -0.04806742196193053, -0.05107821011011762, 0, 0, 0, 0, 0, 0, b00000000, b00000000, 
1648483014981.5283, -120.09769234727942, -162.93543670830547, 55.40083915051066, -166.4479844323896, 89.97227876663709, -0.029496399301786023, -611.541211435181, -728.0351939038791, 679.3847855168071, 45.166862170262576, 172.58070707370774, 5.738028029083822, 0.2517700493335724, 6.944275379180908, 1.2554138898849487, 0.2557068169116974, -0.0762634351849556, -0.01794433780014515, -1.016262736977068, 5.151463391723897, -7.839585183325693, -3.142610635136453, 0.016118943085432734, -0.10786793087724372, 0, 0, 0, 0, 0, 0, b00000000, b00000000, 
1648483015982.2783, -120.09837536619642, -162.9306282551298, 55.40220518834467, -166.4459080548819, 89.96953303059074, -0.026764323633780923, -611.5349899822113, -727.9801211080469, 679.4780725487122, 45.17317840907796, 172.58447530514007, 5.726914111191602, 0.2517700493335724, 6.958008289337158, 1.2688647508621216, 0.2198181450366974, -0.0897216871380806, -0.02018737979233265, -1.8181434824770195, 4.148993072055677, -7.522668461463647, -3.4073561736441906, -0.06911927246690133, -0.13724838356718938, 0, 0, 0, 0, 0, 0, b00000000, b00000000, 
1648483016983.854, -120.09493295085474, -162.92994523621277, 55.40015613159366, -166.4486674513066, 89.97021604950774, -0.02539828579977837, -611.4902956530842, -728.0156863340844, 679.4681672466874, 45.16960792024246, 172.58359435070278, 5.732901667293797, 0.2380371391773224, 6.944275379180908, 1.2464466094970703, 0.2579498589038849, -0.0897216871380806, -0.01794433780014515, -0.5422727369979944, 5.305392914183906, -8.15296292210142, -3.278549986088358, -0.04298651114807381, -0.14101899281622945, 0, 0, 0, 0, 0, 0, b00000000, b00000000, 
1648483017983.9397, -120.09769234727942, -162.93131127404678, 55.40015613159366, -166.4466183945556, 89.97296861574326, -0.02881338038478475, -611.52461045948, -728.0087718358594, 679.4522567253907, 45.16812391478769, 172.58126283485467, 5.730566153729878, 0.2197265923023224, 6.935120105743408, 1.2711066007614136, 0.2758941948413849, -0.0897216871380806, -0.01345825381577015, -0.6199464926281295, 4.819918675503741, -7.222470926438294, -2.853209313578259, -0.25397821107357327, -0.09040389193121304, 0, 0, 0, 0, 0, 0, b00000000, b00000000, 
1648483018984.9395, -120.09837536619642, -162.93202161372048, 55.40083915051066, -166.4438589981309, 89.97227876663709, -0.027447342550782197, -611.5418093830026, -728.00890153671, 679.4533190334531, 45.17158278928125, 172.5819081435385, 5.7267803026064055, 0.2517700493335724, 6.953430652618408, 1.2576557397842407, 0.2557068169116974, -0.0874786451458931, -0.01794433780014515, -0.9974685510060437, 5.156214495894281, -8.040294900592023, -3.245084526171331, -0.08906966523100555, -0.11866840636707626, 0, 0, 0, 0, 0, 0, b00000000, b00000000, 
1648483019986.7422, -120.09769234727942, -162.93202161372048, 55.401522169427665, -166.4438589981309, 89.96953303059074, -0.02813036146778347, -611.5367894248884, -728.0090322518932, 679.4574586781706, 45.17010129312619, 172.58522304929988, 5.726928459009657, 0.2609253227710724, 6.944275379180908, 1.2486884593963623, 0.2534637749195099, -0.0897216871380806, -0.01345825381577015, -1.0891178495270226, 5.394602638130461, -8.040965625900293, -3.326748879421026, -0.11748829061537144, -0.05157405677819693, 0, 0, 0, 0, 0, 0, b00000000, b00000000, 
1648483020987.0854, -120.09905838511342, -162.93338765155448, 55.40083915051066, -166.4459080548819, 89.97159574772009, -0.026764323633780923, -611.5564310554275, -728.0063189175455, 679.4246437715898, 45.17349768363144, 172.58099932409223, 5.7321794052132855, 0.2426147758960724, 6.944275379180908, 1.2442048788070679, 0.2467346489429474, -0.0829925611615181, -0.01794433780014515, -0.7647591793233823, 5.180275493797183, -8.13465231365548, -3.337326625222233, 0.06465781385503637, -0.12791029194282486, 0, 0, 0, 0, 0, 0, b00000000, b00000000, 
1648483021989.3308, -120.09974140403042, -162.93202161372048, 55.40015613159366, -166.4452250359649, 89.96953303059074, -0.02539828579977837, -611.56820388524, -727.9896464183381, 679.4448444970913, 45.1770792343849, 172.58255262193381, 5.731029474724672, 0.2059936672449112, 6.948853015899658, 1.2621393203735352, 0.2153320610523224, -0.0897216871380806, -0.008972168900072575, -1.220966390444351, 3.8366993926668145, -7.439266157852984, -3.4008243685542072, 0.04198160377939816, -0.03589798358333708, 0, 0, 0, 0, 0, 0, b00000000, b00000000, 
1648483022989.892, -120.09769234727942, -162.93202161372048, 55.40357122617867, -166.4452250359649, 89.96953303059074, -0.026081304716779646, -611.5304200592338, -727.9926306000491, 679.4657633511781, 45.17325875632486, 172.58469997814746, 5.725959899653547, 0.2517700493335724, 6.944275379180908, 1.2486884593963623, 0.2534637749195099, -0.0785064771771431, -0.02467346377670765, -0.8148087743070961, 5.2332364864669545, -8.040739628722573, -3.2241107673733813, 0.06095285471405448, -0.20461704300618017, 0, 0, 0, 0, 0, 0, b00000000, b00000000, 
1648483023990.8179, -120.09837536619642, -162.9306282551298, 55.401522169427665, -166.4466183945556, 89.97021604950774, -0.026081304716779646, -611.5352392314111, -727.9826432274332, 679.4717018667358, 45.17396694736907, 172.58317625998674, 5.7287223846316575, 0.2243042290210724, 6.925964832305908, 1.2554138898849487, 0.2332763969898224, -0.0964508131146431, -0.02018737979233265, -1.0407038255735546, 4.292201626871469, -7.1180823956855, -3.263477386170187, -0.1352314759139072, -0.1794746631796878, 0, 0, 0, 0, 0, 0, b00000000, b00000000, 
1648483024992.5427, -120.09700932836242, -162.93407067047147, 55.39947311267666, -166.4493504702236, 89.97021604950774, -0.026764323633780923, -611.5362792404683, -728.0308031464841, 679.3944619907254, 45.17023624589851, 172.58154550049568, 5.741026958760442, 0.2609253227710724, 6.925964832305908, 1.2531720399856567, 0.2736511528491974, -0.0919647291302681, -0.02243042178452015, -0.8402725763577836, 5.4864471281688685, -7.5107960576762665, -3.043686688054817, -0.2680094414143983, -0.17655388432829494, 0, 0, 0, 0, 0, 0, b00000000, b00000000, 
1648483025992.7847, -120.09974140403042, -162.93407067047147, 55.401522169427665, -166.4473014134726, 89.96816016256757, -0.026764323633780923, -611.5724054829432, -727.9925820559332, 679.4132970509821, 45.17506020802025, 172.58352000895374, 5.735713319354941, 0.2014160305261612, 6.944275379180908, 1.2688647508621216, 0.2310333549976349, -0.0897216871380806, -0.02243042178452015, -0.8876735236293841, 3.8054105821148485, -7.209397625264984, -3.1777140043508334, -0.012461335036953652, -0.2249561202898091, 0, 0, 0, 0, 0, 0, b00000000, b00000000, 
1648483026993.3838, -120.10110744186443, -162.93131127404678, 55.401522169427665, -166.4486674513066, 89.97159574772009, -0.027447342550782197, -611.5653630049799, -727.9565747172427, 679.4542532353703, 45.17550879511931, 172.58042032306506, 5.7321364246736, 0.2517700493335724, 6.971741199493408, 1.2531720399856567, 0.2512207329273224, -0.0874786451458931, -0.0291595496237278, -0.7136863112933833, 5.2358131424385075, -8.695741583451428, -3.405402352419717, 0.050884621378734576, -0.27650052521508384, 0, 0, 0, 0, 0, 0, b00000000, b00000000, 
1648483027994.1875, -120.09974140403042, -162.93407067047147, 55.401522169427665, -166.44454201704792, 89.9709058986139, -0.02539828579977837, -611.5714194861005, -728.0026083841012, 679.4218506486334, 45.176841444713475, 172.58125011426114, 5.730440385389154, 0.2792358696460724, 6.948853015899658, 1.2621393203735352, 0.2557068169116974, -0.0852356031537056, -0.01794433780014515, -1.564288766606243, 5.253210912628794, -7.753921007031013, -3.2005104075902904, -0.18191916123345916, -0.0827087750694202, 0, 0, 0, 0, 0, 0, b00000000, b00000000, 
1648483028996.2822, -120.09905838511342, -162.93202161372048, 55.40015613159366, -166.4452250359649, 89.97296861574326, -0.02539828579977837, -611.5512521573772, -728.0015936826742, 679.4449077474947, 45.175406362442224, 172.57962613942072, 5.729582808835997, 0.2563476860523224, 6.948853015899658, 1.2576557397842407, 0.2287903130054474, -0.0829925611615181, -0.01794433780014515, -1.5715952483905336, 4.619109226726687, -7.686620672701129, -3.3713090005749757, 0.004314861828586661, -0.10182152251838081, 0, 0, 0, 0, 0, 0, b00000000, b00000000, 
1648483029997.9167, -120.09974140403042, -162.93270463263747, 55.40083915051066, -166.4466183945556, 89.9709058986139, -0.027447342550782197, -611.5616561730136, -727.9909916803756, 679.433610121354, 45.17360714203168, 172.58160701677303, 5.732488414614661, 0.2426147758960724, 6.967163562774658, 1.2464466094970703, 0.2601929008960724, -0.0852356031537056, -0.01794433780014515, -0.4334830466430604, 5.561245983050293, -8.852267717305532, -3.3770160493068913, 0.07212378714330095, -0.13607404302887255, 0, 0, 0, 0, 0, 0, b00000000, b00000000, 
1648483030998.9622, -120.09905838511342, -162.93338765155448, 55.40015613159366, -166.4466183945556, 89.97159574772009, -0.027447342550782197, -611.5568152645537, -728.0087638919445, 679.418276413551, 45.1723471806032, 172.58083663656012, 5.734248709075399, 0.2517700493335724, 6.935120105743408, 1.2419630289077759, 0.2467346489429474, -0.0897216871380806, -0.011215210892260075, -0.9943251410045768, 5.302114404433831, -7.934480207770474, -3.371856984343855, -0.07027643481865328, -0.03165351673515804, 0, 0, 0, 0, 0, 0, b00000000, b00000000, 
1648483031999.5132, -120.09769234727942, -162.93270463263747, 55.401522169427665, -166.4466183945556, 89.9709058986139, -0.02813036146778347, -611.5326672960514, -728.0094247449841, 679.4378003687517, 45.16955999992249, 172.5829313265118, 5.7314980940810525, 0.2700805962085724, 6.976318836212158, 1.2576557397842407, 0.2489776909351349, -0.0852356031537056, -0.011215210892260075, -1.3450555947565621, 5.402037738229507, -8.666412782398712, -3.447018832862446, -0.029147537209177274, -0.00610850236130886, 0, 0, 0, 0, 0, 0, b00000000, b00000000, 
1648483033000.8965, -120.09837536619642, -162.93131127404678, 55.40288820726167, -166.4466183945556, 89.97227876663709, -0.026081304716779646, -611.5291744755357, -727.9833998890482, 679.4689401316905, 45.17364054831786, 172.58144786389354, 5.726824699519116, 0.2288818657398224, 6.953430652618408, 1.2711066007614136, 0.2310333549976349, -0.0897216871380806, -0.02018737979233265, -1.3425667455423587, 4.07723108177223, -7.406021671960496, -3.2533231614286624, -0.07165518241423127, -0.1639017386146081, 0, 0, 0, 0, 0, 0, b00000000, b00000000, 
1648483034002.2805, -120.09700932836242, -162.9306282551298, 55.39876277300298, -166.4466183945556, 89.9709058986139, -0.026764323633780923, -611.5243490208229, -728.0141860286278, 679.454826701023, 45.1705270092723, 172.58252760238852, 5.732563615495479, 0.2243042290210724, 6.925964832305908, 1.2486884593963623, 0.2601929008960724, -0.0829925611615181, -0.02018737979233265, -0.4331110637830547, 5.0194991362460195, -7.55321165166168, -3.069304017817766, -0.014509844401645891, -0.17706459339247602, 0, 0, 0, 0, 0, 0, b00000000, b00000000, 
1648483035002.7085, -120.09905838511342, -162.93270463263747, 55.39876277300298, -166.4452250359649, 89.96953303059074, -0.026081304716779646, -611.5665561682737, -728.0109248035719, 679.4251562448512, 45.17485658941292, 172.5824626361541, 5.7341291162516566, 0.2014160305261612, 6.939697742462158, 1.2688647508621216, 0.3072967827320099, -0.0874786451458931, -0.02243042178452015, 0.4072620601017258, 5.320155714489001, -7.686165712940293, -2.6421401390278376, -0.20953683134496648, -0.24132188475674127, 0, 0, 0, 0, 0, 0, b00000000, b00000000, 
1648483036004.2793, -120.09905838511342, -162.93407067047147, 55.40083915051066, -166.44454201704792, 89.97227876663709, -0.02813036146778347, -611.5586143673582, -728.0173199192111, 679.4177257030373, 45.1713655805594, 172.58104299524166, 5.730831962736378, 0.2517700493335724, 6.893921375274658, 1.2486884593963623, 0.2489776909351349, -0.0852356031537056, -0.02018737979233265, -1.2629188618710534, 4.804648525741919, -6.504169191237008, -3.0071959020634287, -0.1967230977190495, -0.14032413286876594, 0, 0, 0, 0, 0, 0, b00000000, b00000000, 
1648483037005.78, -120.09974140403042, -162.93270463263747, 55.40428156585235, -166.4459080548819, 89.97159574772009, -0.027447342550782197, -611.5499723500786, -727.9743030287846, 679.4568939443216, 45.1738220158532, 172.58220362764217, 5.725990992323281, 0.2746582329273224, 6.944275379180908, 1.2845574617385864, 0.2400055229663849, -0.0829925611615181, -0.01345825381577015, -2.3667161395680063, 4.301795070053032, -6.7607639109211, -3.0474756346586536, -0.2818815453512723, -0.007865277266593973, 0, 0, 0, 0, 0, 0, b00000000, b00000000, 
1648483038006.7397, -120.09905838511342, -162.93270463263747, 55.401522169427665, -166.4459080548819, 89.97021604950774, -0.026081304716779646, -611.5550095902947, -727.9944772935227, 679.4399567281264, 45.174898971130425, 172.58245707130274, 5.730741985177308, 0.2471924126148224, 6.944275379180908, 1.2509303092956543, 0.2714081108570099, -0.0874786451458931, -0.01345825381577015, -0.6138854448392524, 5.576282718720429, -8.113640153144397, -3.15505691176844, -0.12033785859916965, -0.06827402129057714, 0, 0, 0, 0, 0, 0, b00000000, b00000000, 
1648483039008.2158, -120.09769234727942, -162.93338765155448, 55.40220518834467, -166.4473014134726, 89.9709058986139, -0.02539828579977837, -611.5357690208225, -728.0077787823788, 679.4286777312424, 45.1736460008705, 172.58173704152662, 5.732579839725693, 0.2288818657398224, 6.994629383087158, 1.2576557397842407, 0.2669220268726349, -0.0852356031537056, -0.011215210892260075, -0.26659526463008665, 5.528264556306819, -9.361534625989792, -3.379019002131484, 0.09592857723758058, -0.05979885696578317, 0, 0, 0, 0, 0, 0, b00000000, b00000000, 
1648483040008.9417, -120.09700932836242, -162.93407067047147, 55.40083915051066, -166.4466183945556, 89.97227876663709, -0.02813036146778347, -611.5294807538424, -728.0338074195454, 679.411315231102, 45.168121309440146, 172.58131271885003, 5.733987124441383, 0.2426147758960724, 6.962585926055908, 1.2509303092956543, 0.2444916069507599, -0.0897216871380806, -0.01570129580795765, -0.8618510987531725, 5.106087536454256, -8.443625296932005, -3.4408679002393434, 0.011961613718894946, -0.10271080310540769, 0, 0, 0, 0, 0, 0, b00000000, b00000000, 
1648483041009.6907, -120.10110744186443, -162.93202161372048, 55.39947311267666, -166.4452250359649, 89.97021604950774, -0.030179418218787297, -611.5808307395998, -727.9828249888684, 679.440730769737, 45.17170111739927, 172.582866733918, 5.7316262232286155, 0.2563476860523224, 6.994629383087158, 1.2643811702728271, 0.2310333549976349, -0.0874786451458931, -0.008972168900072575, -1.5030137164204669, 4.886766975985913, -8.850788701298189, -3.604726315822576, 0.045770761010346134, 0.012053778653894884, 0, 0, 0, 0, 0, 0, b00000000, b00000000, 
1648483042010.8257, -120.09905838511342, -162.93270463263747, 55.40288820726167, -166.4479844323896, 89.9709058986139, -0.026081304716779646, -611.5458533638717, -727.9823052871138, 679.4419230675835, 45.174707231022225, 172.58162251770074, 5.731519950941283, 0.2655029594898224, 6.925964832305908, 1.2621393203735352, 0.2534637749195099, -0.0807495191693306, -0.02018737979233265, -1.5096519788396068, 4.9007468773322405, -7.054888025699262, -3.0289039594768976, -0.16806069325929746, -0.12012057354932792, 0, 0, 0, 0, 0, 0, b00000000, b00000000, 
1648483043012.4517, -120.10042442294743, -162.93202161372048, 55.40015613159366, -166.4473014134726, 89.96953303059074, -0.026764323633780923, -611.57227496278, -727.977822202579, 679.4384499478823, 45.17585956114395, 172.58215929440368, 5.734096309702232, 0.2426147758960724, 6.953430652618408, 1.2598974704742432, 0.2422485649585724, -0.0852356031537056, -0.01794433780014515, -1.1405745139195433, 4.74211482571134, -7.860014482097654, -3.2836598023712944, -0.01922451399975931, -0.12223169701301564, 0, 0, 0, 0, 0, 0, b00000000, b00000000, 
1648483044013.309, -120.09769234727942, -162.93270463263747, 55.39947311267666, -166.4459080548819, 89.97227876663709, -0.027447342550782197, -611.5377715712141, -728.0242888846692, 679.427463900457, 45.17022434299614, 172.5809855276024, 5.732923880761283, 0.2609253227710724, 6.935120105743408, 1.2554138898849487, 0.2310333549976349, -0.0942077711224556, -0.02018737979233265, -1.6004602237755643, 4.645227779671774, -7.368323585872247, -3.3703972983875703, -0.165986035447304, -0.13755350484238413, 0, 0, 0, 0, 0, 0, b00000000, b00000000, 
1648483045014.8735, -120.09769234727942, -162.93131127404678, 55.40220518834467, -166.44454201704792, 89.97227876663709, -0.026764323633780923, -611.5250372513635, -728.0003592893872, 679.4711770778148, 45.171701130713494, 172.58238077214705, 5.724733494904205, 0.2243042290210724, 6.935120105743408, 1.2576557397842407, 0.2579498589038849, -0.0874786451458931, -0.02018737979233265, -0.6141623766643209, 4.8031725790948085, -7.515701348200303, -3.079624128528675, -0.084453989307301, -0.17755081242659904, 0, 0, 0, 0, 0, 0, b00000000, b00000000, 
1648483046016.1702, -120.09769234727942, -162.93270463263747, 55.40220518834467, -166.4452250359649, 89.96953303059074, -0.02539828579977837, -611.5388724519036, -728.0056158502649, 679.4462271965215, 45.174129876439714, 172.58383129424215, 5.729033503274769, 0.2471924126148224, 6.971741199493408, 1.2576557397842407, 0.2310333549976349, -0.0852356031537056, -0.02018737979233265, -1.211744678226781, 4.732543184720937, -8.387986812452636, -3.4882107667706643, 0.0867326322245612, -0.1490918126097459, 0, 0, 0, 0, 0, 0, b00000000, b00000000, 
1648483047018.1033, -120.09769234727942, -162.93270463263747, 55.40083915051066, -166.4459080548819, 89.97227876663709, -0.026081304716779646, -611.5348839691007, -728.0157156874316, 679.4358124817469, 45.172405842469814, 172.58090014992777, 5.730913812250944, 0.2471924126148224, 6.935120105743408, 1.2554138898849487, 0.2579498589038849, -0.0986938551068306, -0.0269165076315403, -0.8257723891142361, 5.0172093602008125, -7.586262367860265, -3.192502786286296, -0.23354905988084104, -0.25600904555468534, 0, 0, 0, 0, 0, 0, b00000000, b00000000, 
1648483048018.2925, -120.09974140403042, -162.92994523621277, 55.40357122617867, -166.4479844323896, 89.97159574772009, -0.024032247965775824, -611.539602553559, -727.9478460983444, 679.4911948572149, 45.178959551097414, 172.58099003161107, 5.72611830599912, 0.2380371391773224, 6.939697742462158, 1.2621393203735352, 0.2444916069507599, -0.0897216871380806, -0.01794433780014515, -1.1642475904312777, 4.584914372510191, -7.396305462823192, -3.1883454122259294, -0.12792734418404156, -0.12863009438556638, 0, 0, 0, 0, 0, 0, b00000000, b00000000, 
1648483049018.8284, -120.09974140403042, -162.93202161372048, 55.401522169427665, -166.4466183945556, 89.96953303059074, -0.024715266882777098, -611.5624824941373, -727.97788556205, 679.4488990639879, 45.17810948613648, 172.58231286910032, 5.731092251541126, 0.2471924126148224, 6.935120105743408, 1.2598974704742432, 0.2624359428882599, -0.0942077711224556, -0.01794433780014515, -0.969082616955109, 5.0564152247287, -7.47633698270734, -3.107758567493839, -0.2509351246358872, -0.12759830456754245, 0, 0, 0, 0, 0, 0, b00000000, b00000000, 
1648483050019.3264, -120.09837536619642, -162.9306282551298, 55.39947311267666, -166.44454201704792, 89.97227876663709, -0.026081304716779646, -611.5399654562439, -728.0024084864203, 679.4656042112167, 45.173581525840184, 172.5812279754427, 5.7277933684061555, 0.2655029594898224, 6.939697742462158, 1.2733484506607056, 0.2400055229663849, -0.0874786451458931, -0.0269165076315403, -1.8193606436802532, 4.382278871057239, -6.990839993882921, -3.1199356374297813, -0.21203779056051192, -0.21171433257411576, 0, 0, 0, 0, 0, 0, b00000000, b00000000, 
1648483051019.7502, -120.09905838511342, -162.93131127404678, 55.39807975408598, -166.44454201704792, 89.97021604950774, -0.027447342550782197, -611.5598871996651, -728.0067351917463, 679.4458861209143, 45.17276133749239, 172.58273763158192, 5.731726244011971, 0.2563476860523224, 6.944275379180908, 1.2419630289077759, 0.2669220268726349, -0.0874786451458931, -0.011215210892260075, -0.6594341390400305, 5.820859273809076, -8.36931229574496, -3.2873131757243943, -0.0783462122823838, -0.030890863894891485, 0, 0, 0, 0, 0, 0, b00000000, b00000000, 
1648483052021.5647, -120.09769234727942, -162.9306282551298, 55.39947311267666, -166.4459080548819, 89.9709058986139, -0.026764323633780923, -611.5318005732227, -728.0047209496859, 679.4613693236928, 45.17166891013092, 172.58265693942874, 5.73042402925524, 0.2380371391773224, 6.962585926055908, 1.2598974704742432, 0.2512207329273224, -0.0964508131146431, -0.02243042178452015, -0.7851573145150506, 4.914192598647588, -8.206201311187256, -3.335121055585911, -0.10943842693833722, -0.20321505340248924, 0, 0, 0, 0, 0, 0, b00000000, b00000000, 
1648483053022.2112, -120.10042442294743, -162.9306282551298, 55.40357122617867, -166.4473014134726, 89.97021604950774, -0.02539828579977837, -611.554412564253, -727.946990753498, 679.4821308613783, 45.17818333395964, 172.58247750171176, 5.726656935117552, 0.2471924126148224, 6.916809558868408, 1.2509303092956543, 0.2310333549976349, -0.0829925611615181, -0.01794433780014515, -1.4397112865224846, 4.524239585947348, -6.969748947245394, -3.219794725778104, -0.04978498533739046, -0.11053068548783235, 0, 0, 0, 0, 0, 0, b00000000, b00000000, 
1648483054024.2808, -120.10110744186443, -162.93131127404678, 55.40288820726167, -166.4479844323896, 89.97296861574326, -0.024032247965775824, -611.5624520670062, -727.9503593023242, 679.4647111056303, 45.18059039502312, 172.5785014465624, 5.728563225373787, 0.2059936672449112, 6.944275379180908, 1.2531720399856567, 0.2422485649585724, -0.0897216871380806, -0.02243042178452015, -0.4064955806700292, 4.487464351172853, -7.810848172307529, -3.2621138387816675, 0.050138587065504586, -0.23087892470232718, 0, 0, 0, 0, 0, 0, b00000000, b00000000, 
1648483055024.7654, -120.09769234727942, -162.93338765155448, 55.40220518834467, -166.44317597921392, 89.97159574772009, -0.02813036146778347, -611.5372421127381, -728.0211066705054, 679.4414596615859, 45.16972604810036, 172.5832776184599, 5.726046459924349, 0.2426147758960724, 6.935120105743408, 1.2643811702728271, 0.2534637749195099, -0.0874786451458931, -0.02467346377670765, -1.0773395466182418, 4.667771876712968, -7.257680242539363, -3.0627497114239723, -0.15214163250207974, -0.21384833052557978, 0, 0, 0, 0, 0, 0, b00000000, b00000000, 
1648483056026.7058, -120.09974140403042, -162.93202161372048, 55.40357122617867, -166.4452250359649, 89.97021604950774, -0.024715266882777098, -611.5563195346692, -727.9708368140136, 679.4657598750817, 45.178267537052434, 172.5826934156407, 5.725654676755746, 0.2380371391773224, 6.976318836212158, 1.2688647508621216, 0.2467346489429474, -0.1009368970990181, -0.02243042178452015, -0.9759725029595787, 4.685887149556135, -8.287035617202973, -3.386845352320932, -0.15657037513021135, -0.2038349146478861, 0, 0, 0, 0, 0, 0, b00000000, b00000000, 
1648483057028.4878, -120.09837536619642, -162.93270463263747, 55.401522169427665, -166.4452250359649, 89.96953303059074, -0.026764323633780923, -611.5482400186254, -728.0030369380814, 679.4420609685285, 45.17302821888624, 172.58383249768835, 5.730009170936753, 0.2151489406824112, 6.939697742462158, 1.2598974704742432, 0.2579498589038849, -0.0897216871380806, -0.01794433780014515, -0.5175886521545228, 4.710858054074497, -7.580382559879147, -3.0897313435402305, -0.08987949291844323, -0.15881370134993147, 0, 0, 0, 0, 0, 0, b00000000, b00000000, 
1648483058029.6306, -120.09769234727942, -162.9306282551298, 55.40220518834467, -166.4473014134726, 89.96953303059074, -0.026764323633780923, -611.5242333926585, -727.9837990657899, 679.4737705095683, 45.17203796261766, 172.5843625615304, 5.729016479177926, 0.1922607570886612, 6.921387195587158, 1.2554138898849487, 0.2175751030445099, -0.0964508131146431, -0.01345825381577015, -0.9233637434431079, 3.6996121547539427, -6.859637715770712, -3.304018254341526, -0.04545460797238105, -0.11847909859877881, 0, 0, 0, 0, 0, 0, b00000000, b00000000, 
1648483059031.5083, -120.09629898868874, -162.9306282551298, 55.40288820726167, -166.4459080548819, 89.96953303059074, -0.02539828579977837, -611.5079188301121, -727.9975710004417, 679.4822385393849, 45.17219261956575, 172.58506566048172, 5.72596841186401, 0.2517700493335724, 6.930542469024658, 1.2598974704742432, 0.2579498589038849, -0.0807495191693306, -0.01570129580795765, -1.1922556121372216, 4.992834002568021, -7.302594626252747, -3.036247048788313, -0.12559193916135533, -0.0769584132663271, 0, 0, 0, 0, 0, 0, b00000000, b00000000, 
1648483060032.9043, -120.09769234727942, -162.93131127404678, 55.40083915051066, -166.4466183945556, 89.96953303059074, -0.026081304716779646, -611.5337046048745, -727.9985549714403, 679.4563433918534, 45.172966524294004, 172.58369127501552, 5.731066704736408, 0.2426147758960724, 6.948853015899658, 1.2576557397842407, 0.2220611870288849, -0.0829925611615181, -0.02018737979233265, -1.4440471156843444, 4.342186294836203, -7.634094587101528, -3.3913487692835473, 0.06414063691052971, -0.14603311531636054, 0, 0, 0, 0, 0, 0, b00000000, b00000000, 
1648483061033.4172, -120.09561596977174, -162.93202161372048, 55.401522169427665, -166.4466183945556, 89.97296861574326, -0.024715266882777098, -611.501791092199, -728.0265740024731, 679.4489622598732, 45.17127955513107, 172.58084809867935, 5.729719915271992, 0.2471924126148224, 6.930542469024658, 1.2890410423278809, 0.2422485649585724, -0.0829925611615181, -0.02018737979233265, -1.9992365131694376, 3.831723342052625, -6.226360818259703, -2.85819338273027, -0.27809004289768297, -0.1267798704113348, 0, 0, 0, 0, 0, 0, b00000000, b00000000, 
1648483062033.906, -120.09905838511342, -162.9306282551298, 55.401522169427665, -166.4466183945556, 89.97227876663709, -0.02539828579977837, -611.5397049202282, -727.977724523482, 679.4717318307042, 45.17563421685877, 172.58070653707233, 5.727844996574225, 0.2609253227710724, 6.930542469024658, 1.2621393203735352, 0.2332763969898224, -0.0874786451458931, -0.01570129580795765, -1.8091168143269205, 4.514096227684938, -7.030415637757922, -3.2300489826810828, -0.17186954390602155, -0.06591384901511044, 0, 0, 0, 0, 0, 0, b00000000, b00000000, 
1648483063035.8123, -120.09700932836242, -162.93543670830547, 55.40015613159366, -166.4452250359649, 89.9709058986139, -0.029496399301786023, -611.5421534833445, -728.0516393193301, 679.3890963872002, 45.16627378866479, 172.5828744652333, 5.735512348893072, 0.2517700493335724, 6.967163562774658, 1.2531720399856567, 0.3005676567554474, -0.0874786451458931, -0.02018737979233265, 0.0018243713162717778, 6.269337557053146, -8.956219713033045, -3.073878268554164, -0.12361741433412235, -0.16543917886170245, 0, 0, 0, 0, 0, 0, b00000000, b00000000, 
1648483064036.8462, -120.09974140403042, -162.93270463263747, 55.401522169427665, -166.44454201704792, 89.9709058986139, -0.02813036146778347, -611.5617999870284, -727.9929368947809, 679.4442110626868, 45.172804338939194, 172.58266156301207, 5.728342950432743, 0.2426147758960724, 6.921387195587158, 1.2531720399856567, 0.2265472710132599, -0.0852356031537056, -0.02243042178452015, -1.4076623244681516, 4.333427718374163, -6.997482678013167, -3.254067128574392, -0.03636079902044905, -0.17776351450265257, 0, 0, 0, 0, 0, 0, b00000000, b00000000, 
1648483065037.8853, -120.09974140403042, -162.93407067047147, 55.40083915051066, -166.4438589981309, 89.97227876663709, -0.026764323633780923, -611.5698215176608, -728.0109511033446, 679.4198183773253, 45.17451443322852, 172.58045346413388, 5.7298233649201755, 0.2746582329273224, 6.958008289337158, 1.2509303092956543, 0.2736511528491974, -0.0874786451458931, -0.01570129580795765, -0.8913468983501939, 5.95422481420069, -8.537499846943625, -3.2568053418519503, -0.14122727364269438, -0.07120195545454108, 0, 0, 0, 0, 0, 0, b00000000, b00000000, 
1648483066038.8943, -120.09974140403042, -162.9347536893885, 55.40288820726167, -166.44454201704792, 89.97021604950774, -0.026081304716779646, -611.5712283371861, -728.0000584169924, 679.4190464551245, 45.1760014703602, 172.58234730104732, 5.729698813867068, 0.2792358696460724, 6.948853015899658, 1.2554138898849487, 0.2355194389820099, -0.0919647291302681, -0.01794433780014515, -1.7545553352969625, 5.018954420180999, -7.811228850338196, -3.438052629438311, -0.1569223365041006, -0.08746422581049404, 0, 0, 0, 0, 0, 0, b00000000, b00000000, 
1648483067040.447, -120.09769234727942, -162.93407067047147, 55.39876277300298, -166.4466183945556, 89.9709058986139, -0.026764323633780923, -611.5496589391742, -728.0355478598382, 679.3985591911313, 45.17129997526448, 172.58118550393198, 5.737685976533583, 0.2197265923023224, 6.916809558868408, 1.2442048788070679, 0.2601929008960724, -0.0942077711224556, -0.01570129580795765, -0.36118265542924044, 5.059109044296307, -7.427695826970421, -3.129778840857961, -0.1420385462319339, -0.13237904411876783, 0, 0, 0, 0, 0, 0, b00000000, b00000000, 
1648483068041.4895, -120.09629898868874, -162.93270463263747, 55.40015613159366, -166.4452250359649, 89.97021604950774, -0.026764323633780923, -611.5246093641518, -728.033848871701, 679.4337089117016, 45.16967508672806, 172.58366312440518, 5.731802956917267, 0.2288818657398224, 6.935120105743408, 1.2621393203735352, 0.2646789848804474, -0.0919647291302681, -0.02243042178452015, -0.6380693237343786, 4.845683799108764, -7.423175828994109, -3.0236936007059865, -0.18746249601114834, -0.2068228422371864, 0, 0, 0, 0, 0, 0, b00000000, b00000000, 
1648483069043.4548, -120.09769234727942, -162.93131127404678, 55.401522169427665, -166.4466183945556, 89.9709058986139, -0.026081304716779646, -611.5281997900215, -727.9965535693564, 679.4605507371947, 45.17276361197286, 172.58261170096458, 5.729462951495714, 0.2151489406824112, 6.921387195587158, 1.2621393203735352, 0.2467346489429474, -0.0919647291302681, -0.01570129580795765, -0.9069481705443979, 4.305676793145921, -6.871560705664175, -3.0512722422729652, -0.1723252418081379, -0.1232388433373837, 0, 0, 0, 0, 0, 0, b00000000, b00000000, 
1648483070045.3894, -120.09905838511342, -162.93270463263747, 55.401522169427665, -166.4473014134726, 89.96953303059074, -0.02813036146778347, -611.5523113809834, -727.9912128813307, 679.4356663478947, 45.17180856129177, 172.58343916942974, 5.733076018194512, 0.2380371391773224, 6.930542469024658, 1.2598974704742432, 0.2489776909351349, -0.0785064771771431, -0.01794433780014515, -1.1049440153408536, 4.671407768867502, -7.23183919251749, -3.05685773728961, -0.03474865988706338, -0.11879858092422063, 0, 0, 0, 0, 0, 0, b00000000, b00000000, 
1648483071047.0178, -120.09629898868874, -162.93131127404678, 55.40015613159366, -166.4452250359649, 89.96953303059074, -0.027447342550782197, -611.5187676863526, -728.0217499124338, 679.4564791072262, 45.168871390642046, 172.58497684046543, 5.729999433446914, 0.2151489406824112, 6.948853015899658, 1.2509303092956543, 0.2377624809741974, -0.0897216871380806, -0.02018737979233265, -0.5770024902640095, 4.588342021928335, -7.983490302147423, -3.356709602460548, 0.06367584457518424, -0.19060914231098083, 0, 0, 0, 0, 0, 0, b00000000, b00000000, 
1648483072048.9814, -120.09769234727942, -162.93202161372048, 55.39947311267666, -166.4459080548819, 89.96953303059074, -0.024715266882777098, -611.5441031807965, -728.0131842082639, 679.4385454368494, 45.17492950234344, 172.58277104137963, 5.733131481701759, 0.2471924126148224, 6.948853015899658, 1.2576557397842407, 0.2287903130054474, -0.0897216871380806, -0.01570129580795765, -1.4485567659303702, 4.551030308668689, -7.6882938109324535, -3.404079549449687, -0.05237877338673826, -0.08765869401488297, 0, 0, 0, 0, 0, 0, b00000000, b00000000, 
1648483073049.0166, -120.09974140403042, -162.93270463263747, 55.401522169427665, -166.4452250359649, 89.97159574772009, -0.026081304716779646, -611.5613843258208, -727.9908277598535, 679.4420909077031, 45.17571875866473, 172.58107276122806, 5.729117019302006, 0.2700805962085724, 6.907654285430908, 1.2688647508621216, 0.2332763969898224, -0.0852356031537056, -0.01794433780014515, -2.2268470621413825, 4.236371583230916, -6.127267646265099, -3.0262829981397026, -0.29270263960996207, -0.07691869302129478, 0, 0, 0, 0, 0, 0, b00000000, b00000000, 
1648483074050.485, -120.09974140403042, -162.93338765155448, 55.401522169427665, -166.44454201704792, 89.96953303059074, -0.027447342550782197, -611.5691609961083, -727.9963363245645, 679.4330136446134, 45.17404838190662, 172.5834896661569, 5.729960959998881, 0.2426147758960724, 6.935120105743408, 1.2554138898849487, 0.2444916069507599, -0.0829925611615181, -0.02243042178452015, -1.061539838782286, 4.739683793572433, -7.477872853643738, -3.1827957658497747, -0.024858738863477496, -0.18124904529292213, 0, 0, 0, 0, 0, 0, b00000000, b00000000, 
1648483075051.0938, -120.09905838511342, -162.93338765155448, 55.39947311267666, -166.44317597921392, 89.96953303059074, -0.026081304716779646, -611.5706262052992, -728.0179051842027, 679.4246679137188, 45.175038247785, 172.58306027760906, 5.731017756092158, 0.2288818657398224, 6.921387195587158, 1.2531720399856567, 0.2489776909351349, -0.0942077711224556, -0.011215210892260075, -0.9334511173461576, 4.743909605485535, -7.18068391282245, -3.1642796498720505, -0.1911422994938564, -0.053808905064348975, 0, 0, 0, 0, 0, 0, b00000000, b00000000, 
1648483076052.0945, -120.09769234727942, -162.93131127404678, 55.40083915051066, -166.44454201704792, 89.97021604950774, -0.026764323633780923, -611.5344021476288, -728.0052880365289, 679.4627747104902, 45.17197790218888, 172.58390048294333, 5.727650449024096, 0.2426147758960724, 6.939697742462158, 1.2554138898849487, 0.2467346489429474, -0.0874786451458931, -0.01794433780014515, -1.0457783611221931, 4.849987213267148, -7.6330366188167424, -3.230945293695731, -0.0762733380373842, -0.12542439191083948, 0, 0, 0, 0, 0, 0, b00000000, b00000000, 
1648483077052.1287, -120.09769234727942, -162.93131127404678, 55.40083915051066, -166.4459080548819, 89.9709058986139, -0.024715266882777098, -611.5329677279699, -728.0014082072898, 679.4585457154028, 45.17483490063026, 172.58211428460763, 5.72944789718384, 0.2517700493335724, 6.971741199493408, 1.2666230201721191, 0.2512207329273224, -0.0829925611615181, -0.01345825381577015, -1.2255534873053913, 4.9966646096286045, -8.257679342699038, -3.2753683214392035, -0.033234530716617125, -0.0502453308292691, 0, 0, 0, 0, 0, 0, b00000000, b00000000, 
1648483078052.4973, -120.09561596977174, -162.9306282551298, 55.40083915051066, -166.4466183945556, 89.9709058986139, -0.024715266882777098, -611.5022254368753, -728.0160425505226, 679.4675164518096, 45.17171417184516, 172.5829993201444, 5.7295376624377425, 0.2426147758960724, 6.912231922149658, 1.2464466094970703, 0.2467346489429474, -0.0852356031537056, -0.01345825381577015, -1.0757256043571868, 4.918284347188477, -7.106818105843792, -3.1492800928419262, -0.10431793616820215, -0.06200327881945218, 0, 0, 0, 0, 0, 0, b00000000, b00000000, 
1648483079054.269, -120.09905838511342, -162.93338765155448, 55.39876277300298, -166.4473014134726, 89.97021604950774, -0.029496399301786023, -611.5613395719907, -728.0142747898093, 679.4076342744104, 45.16933257192645, 172.5822563535497, 5.737895121826378, 0.2517700493335724, 6.948853015899658, 1.2666230201721191, 0.2579498589038849, -0.0897216871380806, -0.008972168900072575, -1.3034731808491546, 4.996756296804841, -7.630042912616747, -3.1470465738099764, -0.22113558883598622, 0.006694923964161631, 0, 0, 0, 0, 0, 0, b00000000, b00000000, 
1648483080056.2683, -120.09837536619642, -162.93202161372048, 55.40220518834467, -166.4479844323896, 89.97227876663709, -0.02539828579977837, -611.5335225258349, -727.9892088636118, 679.4489221473767, 45.1744515186644, 172.58038167618201, 5.730965952529708, 0.2517700493335724, 6.953430652618408, 1.2621393203735352, 0.2444916069507599, -0.0919647291302681, -0.02243042178452015, -1.2333133628369262, 4.776485700096637, -7.803854037876808, -3.295052160284567, -0.12576834897814373, -0.17925518812149865, 0, 0, 0, 0, 0, 0, b00000000, b00000000, 
1648483081056.2698, -120.09700932836242, -162.9306282551298, 55.401522169427665, -166.4459080548819, 89.96953303059074, -0.024715266882777098, -611.5220966315876, -727.997289817227, 679.4738665178185, 45.174177588188385, 172.58410408908108, 5.728007442390299, 0.2380371391773224, 6.953430652618408, 1.2419630289077759, 0.2467346489429474, -0.0897216871380806, -0.01570129580795765, -0.6049378275727771, 5.2792816327798375, -8.481934314582583, -3.4519872551677926, 0.04426240902863372, -0.11120786150512475, 0, 0, 0, 0, 0, 0, b00000000, b00000000, 
1648483082056.3152, -120.09974140403042, -162.93202161372048, 55.39739673516898, -166.44454201704792, 89.97227876663709, -0.027447342550782197, -611.569229291475, -728.0120150452675, 679.43013087058, 45.173286292021224, 172.58009353065285, 5.732913824132645, 0.2517700493335724, 6.967163562774658, 1.2688647508621216, 0.2579498589038849, -0.0964508131146431, -0.02018737979233265, -1.0880728824855077, 4.988550756241501, -8.102776029521022, -3.255951723342717, -0.2123108641026516, -0.15510085991804343, 0, 0, 0, 0, 0, 0, b00000000, b00000000, 
1648483083057.349, -120.09905838511342, -162.93407067047147, 55.39876277300298, -166.4452250359649, 89.97296861574326, -0.024715266882777098, -611.5663922871657, -728.0261019047605, 679.4028747380012, 45.176175971039015, 172.57833165736602, 5.734735667098008, 0.2197265923023224, 6.958008289337158, 1.2598974704742432, 0.2557068169116974, -0.0919647291302681, -0.01570129580795765, -0.537156638424447, 4.856818012376298, -8.107961033039395, -3.236381247550295, -0.05990563348811777, -0.12789854370845738, 0, 0, 0, 0, 0, 0, b00000000, b00000000, 
1648483084058.0403, -120.09700932836242, -162.93131127404678, 55.40288820726167, -166.44454201704792, 89.97227876663709, -0.026764323633780923, -611.5141600157538, -728.0037867952187, 679.4753591641862, 45.17073452566234, 172.58287649528302, 5.723728428635421, 0.2151489406824112, 6.967163562774658, 1.2554138898849487, 0.2489776909351349, -0.0807495191693306, -0.01794433780014515, -0.40608561885015826, 4.8501846887225675, -8.472765305337932, -3.2962711465662355, 0.16279473853257156, -0.15494827981849085, 0, 0, 0, 0, 0, 0, b00000000, b00000000, 
1648483085059.2078, -120.10042442294743, -162.9347536893885, 55.401522169427665, -166.44454201704792, 89.97227876663709, -0.02539828579977837, -611.5800919780587, -728.0028634249065, 679.4107116621152, 45.17755541506006, 172.57946601633688, 5.730860929568009, 0.2471924126148224, 6.921387195587158, 1.275590181350708, 0.2534637749195099, -0.0874786451458931, -0.02243042178452015, -1.5212378275406864, 4.329578769247636, -6.482258038510525, -2.8849174278876974, -0.2947738208369596, -0.17003319002707235, 0, 0, 0, 0, 0, 0, b00000000, b00000000, 
1648483086060.6685, -120.10318381937212, -162.93202161372048, 55.40357122617867, -166.44454201704792, 89.96953303059074, -0.026081304716779646, -611.6012101092033, -727.9357860334792, 679.4678722542768, 45.181543116092506, 172.5825655777146, 5.724818324886602, 0.2700805962085724, 6.971741199493408, 1.2531720399856567, 0.2669220268726349, -0.0919647291302681, -0.02018737979233265, -0.8385504544271918, 5.7836295826272845, -8.820283736889701, -3.3733315723705872, -0.11305255621979418, -0.14115846331304965, 0, 0, 0, 0, 0, 0, b00000000, b00000000, 
1648483087062.1296, -120.09769234727942, -162.93270463263747, 55.40428156585235, -166.4459080548819, 89.96953303059074, -0.02813036146778347, -611.528150105283, -727.9938019489199, 679.456863947011, 45.1701082327342, 172.58525331051342, 5.7268978497302205, 0.2059936672449112, 6.948853015899658, 1.2688647508621216, 0.2422485649585724, -0.0897216871380806, -0.02243042178452015, -0.7363161096785023, 4.107423226495011, -7.4353991655991445, -3.138434820909865, -0.038056558516460615, -0.22331373935337503, 0, 0, 0, 0, 0, 0, b00000000, b00000000, 
1648483088064.1094, -120.09905838511342, -162.93270463263747, 55.40083915051066, -166.4459080548819, 89.97021604950774, -0.024715266882777098, -611.5587179806064, -727.997490281681, 679.435758459796, 45.17691051131279, 172.58175430176522, 5.731791212591457, 0.2151489406824112, 6.921387195587158, 1.2823156118392944, 0.2377624809741974, -0.1009368970990181, -0.02018737979233265, -1.4570557317561201, 3.55703023884091, -6.141678667956534, -2.9642450129702795, -0.36899008094476754, -0.18047099534714794, 0, 0, 0, 0, 0, 0, b00000000, b00000000, 
1648483089064.943, -120.09905838511342, -162.93270463263747, 55.401522169427665, -166.44317597921392, 89.97227876663709, -0.02539828579977837, -611.5548725099716, -728.003931162216, 679.4484219660669, 45.175772752230856, 172.58106709764178, 5.725785901885561, 0.2563476860523224, 6.958008289337158, 1.2598974704742432, 0.2467346489429474, -0.0942077711224556, -0.02243042178452015, -1.1834218839606663, 4.955518530880335, -8.031026070073835, -3.3495777506386664, -0.13668575708622321, -0.17866011230712267, 0, 0, 0, 0, 0, 0, b00000000, b00000000, 
1648483090065.0198, -120.09837536619642, -162.93407067047147, 55.401522169427665, -166.4459080548819, 89.97365163466026, -0.027447342550782197, -611.543148009498, -728.0186431046816, 679.4177080287939, 45.171058702059604, 172.5796100674679, 5.731304345355756, 0.2288818657398224, 6.948853015899658, 1.2554138898849487, 0.2444916069507599, -0.0897216871380806, -0.02243042178452015, -0.7499756409665573, 4.714399117398429, -7.889312936704502, -3.285850116274675, -0.013570740982452902, -0.2055590744696089, 0, 0, 0, 0, 0, 0, b00000000, b00000000, 
1648483091066.015, -120.09769234727942, -162.93407067047147, 55.401522169427665, -166.4452250359649, 89.97159574772009, -0.026764323633780923, -611.5411939189343, -728.0244928135276, 679.4197706514309, 45.17151567568029, 172.58177386857415, 5.7311850186412086, 0.2426147758960724, 6.953430652618408, 1.2554138898849487, 0.2444916069507599, -0.0942077711224556, -0.01794433780014515, -0.9895147648874024, 4.903321872720932, -8.02458292464144, -3.3682275249585034, -0.09439490402701711, -0.13371630275970875, 0, 0, 0, 0, 0, 0, b00000000, b00000000, 
1648483092067.0151, -120.09769234727942, -162.93202161372048, 55.40083915051066, -166.44454201704792, 89.97227876663709, -0.026764323633780923, -611.5328668265144, -728.0139964917018, 679.4512021627116, 45.17153623064524, 172.58175222339497, 5.727833115031794, 0.2334595024585724, 6.962585926055908, 1.2419630289077759, 0.2601929008960724, -0.0942077711224556, -0.02018737979233265, -0.1780158459507804, 5.544456376668776, -8.863604006762147, -3.4322743916633143, 0.016318971894268758, -0.1870907362651549, 0, 0, 0, 0, 0, 0, b00000000, b00000000, 
1648483093068.0186, -120.09769234727942, -162.93131127404678, 55.401522169427665, -166.4473014134726, 89.96884318148457, -0.027447342550782197, -611.5306386757198, -727.9928360893533, 679.4584200648696, 45.17102793464106, 172.58484241860168, 5.731334294444625, 0.2426147758960724, 6.953430652618408, 1.2643811702728271, 0.2287903130054474, -0.0897216871380806, -0.008972168900072575, -1.58675076388539, 4.414607159230747, -7.606283668486065, -3.3714327249266973, -0.08752756956034952, 0.0021201245437203198, 0, 0, 0, 0, 0, 0, b00000000, b00000000, 
1648483094069.6128, -120.09769234727942, -162.93338765155448, 55.39876277300298, -166.4452250359649, 89.97296861574326, -0.027447342550782197, -611.5427155479196, -728.0366959907522, 679.4140713363414, 45.170042817211446, 172.58011435820757, 5.7336869102776, 0.2243042290210724, 6.944275379180908, 1.2621393203735352, 0.2355194389820099, -0.0897216871380806, -0.01345825381577015, -1.130421508892374, 4.3456450631859775, -7.462609099780621, -3.2615563938792946, -0.06403116635567778, -0.0813856104968787, 0, 0, 0, 0, 0, 0, b00000000, b00000000, 
1648483095071.1423, -120.10042442294743, -162.93270463263747, 55.39876277300298, -166.4459080548819, 89.9709058986139, -0.029496399301786023, -611.5758140439658, -727.9985566678647, 679.4231128966842, 45.17141552122328, 172.58164212507253, 5.734465315551536, 0.2334595024585724, 6.953430652618408, 1.2621393203735352, 0.2377624809741974, -0.0829925611615181, -0.01570129580795765, -1.156054536112369, 4.526425581718684, -7.7519832530905814, -3.268002475785311, 0.0200793878770986, -0.09744762316525482, 0, 0, 0, 0, 0, 0, b00000000, b00000000, 
1648483096072.5479, -120.09769234727942, -162.93270463263747, 55.40288820726167, -166.4452250359649, 89.9709058986139, -0.026081304716779646, -611.5326127860483, -728.0040389356085, 679.450442591574, 45.17289281949564, 172.5830002018265, 5.727415050343197, 0.2563476860523224, 6.921387195587158, 1.2509303092956543, 0.2512207329273224, -0.0852356031537056, -0.02018737979233265, -1.172694362146196, 5.033260411326831, -7.267317138287675, -3.139046556491259, -0.1297246658391853, -0.13903827717648082, 0, 0, 0, 0, 0, 0, b00000000, b00000000, 
1648483097074.1978, -120.09769234727942, -162.93202161372048, 55.39876277300298, -166.4473014134726, 89.97159574772009, -0.02539828579977837, -611.5385890147114, -728.0168087579337, 679.4299400010892, 45.173329310402906, 172.58047150142647, 5.735387558219891, 0.2288818657398224, 6.912231922149658, 1.2486884593963623, 0.2467346489429474, -0.0785064771771431, -0.01794433780014515, -0.8600323987801126, 4.704737540314115, -7.0347838284110455, -3.058279992137112, 0.0030967412991679405, -0.13136720071811075, 0, 0, 0, 0, 0, 0, b00000000, b00000000, 
1648483098074.716, -120.09837536619642, -162.93338765155448, 55.39947311267666, -166.4466183945556, 89.97159574772009, -0.027447342550782197, -611.5503353092721, -728.0199161325977, 679.4140940281213, 45.17126729457236, 172.5809208601242, 5.7352832167373675, 0.2334595024585724, 6.948853015899658, 1.2643811702728271, 0.2624359428882599, -0.0897216871380806, -0.01345825381577015, -0.8287360598515471, 4.948878934255672, -7.741205173337228, -3.1054389844795036, -0.15839934690076915, -0.07748113829519918, 0, 0, 0, 0, 0, 0, b00000000, b00000000, 
1648483099075.5227, -120.09837536619642, -162.93131127404678, 55.40083915051066, -166.4466183945556, 89.97227876663709, -0.024032247965775824, -611.538035261824, -727.9937129225216, 679.4563698203355, 45.17657289119948, 172.5800850853188, 5.729928256815579, 0.2517700493335724, 6.939697742462158, 1.2867993116378784, 0.2489776909351349, -0.0897216871380806, -0.006729126907885075, -2.0081759069496887, 4.231813236112199, -6.6271052930027885, -2.9616926436491684, -0.371218055981166, 0.05177905382044709, 0, 0, 0, 0, 0, 0, b00000000, b00000000, 
1648483100076.11, -120.10179046078143, -162.93202161372048, 55.40220518834467, -166.4466183945556, 89.97021604950774, -0.026081304716779646, -611.5831632859479, -727.9539269340869, 679.453109719087, 45.17903848915308, 172.58150605966188, 5.729708338422957, 0.2609253227710724, 6.921387195587158, 1.2711066007614136, 0.2243042290210724, -0.0942077711224556, -0.01570129580795765, -2.220995716477774, 4.027028172172122, -6.393191442063918, -3.1904772803921966, -0.31482519910860524, -0.0638144842735201, 0, 0, 0, 0, 0, 0, b00000000, b00000000, 
1648483101076.7832, -120.09769234727942, -162.93338765155448, 55.40357122617867, -166.4452250359649, 89.9709058986139, -0.02539828579977837, -611.5344688580965, -728.0054372251171, 679.4434527457718, 45.173933937659015, 172.5827487525806, 5.727429257169694, 0.2471924126148224, 6.967163562774658, 1.2666230201721191, 0.2512207329273224, -0.0829925611615181, -0.01794433780014515, -1.1257806063178253, 4.8890857214640535, -8.121257528063948, -3.2341244591856126, -0.02560348591791057, -0.1159640239505049, 0, 0, 0, 0, 0, 0, b00000000, b00000000, 
1648483102078.2773, -120.09905838511342, -162.93131127404678, 55.39876277300298, -166.4473014134726, 89.97159574772009, -0.02813036146778347, -611.5494947587911, -727.9980141802806, 679.4415827709756, 45.17129098613371, 172.58110239989466, 5.734239092302413, 0.2197265923023224, 6.953430652618408, 1.2621393203735352, 0.2444916069507599, -0.0874786451458931, -0.02243042178452015, -0.7324869027769945, 4.488734282479032, -7.807769868419181, -3.2210828817123605, 0.006750137657246982, -0.21089707392593632, 0, 0, 0, 0, 0, 0, b00000000, b00000000, 
1648483103078.3076, -120.09974140403042, -162.93270463263747, 55.401522169427665, -166.4438589981309, 89.97296861574326, -0.024715266882777098, -611.5616256564185, -727.9953807694951, 679.4463178084533, 45.177642174966685, 172.5796852651657, 5.726515829601768, 0.2197265923023224, 6.939697742462158, 1.2598974704742432, 0.2512207329273224, -0.0785064771771431, -0.02243042178452015, -0.6617701140541388, 4.586040814855159, -7.524829291936978, -3.0621379986541863, 0.052466899043812174, -0.20281710489494753, 0, 0, 0, 0, 0, 0, b00000000, b00000000, 
1648483104078.323, -120.09837536619642, -162.93270463263747, 55.39876277300298, -166.4459080548819, 89.97227876663709, -0.02813036146778347, -611.5479820054743, -728.0214397168288, 679.4231222342576, 45.170154547235335, 172.58072994300434, 5.733954951336646, 0.2517700493335724, 6.944275379180908, 1.2509303092956543, 0.2489776909351349, -0.0919647291302681, -0.02018737979233265, -0.9853963892393861, 5.1126258440539, -7.932792087464852, -3.3236637333735395, -0.10255678448819738, -0.1540694172224329, 0, 0, 0, 0, 0, 0, b00000000, b00000000, 
1648483105078.704, -120.10042442294743, -162.93338765155448, 55.401522169427665, -166.4452250359649, 89.97021604950774, -0.02881338038478475, -611.5736659997634, -727.9890501026784, 679.4309334450932, 45.1728167990576, 172.5828596972781, 5.730649591165221, 0.2426147758960724, 6.967163562774658, 1.2554138898849487, 0.2557068169116974, -0.0919647291302681, -0.02018737979233265, -0.680676794578551, 5.215780018925224, -8.523944881296531, -3.3582854556710546, -0.043479927625649305, -0.16733163947635252, 0, 0, 0, 0, 0, 0, b00000000, b00000000, 
1648483106079.2937, -120.09769234727942, -162.93270463263747, 55.40288820726167, -166.4466183945556, 89.96953303059074, -0.029496399301786023, -611.5300663075255, -728.000688536308, 679.4461553764661, 45.16786463842004, 172.58512514033728, 5.730013101375133, 0.2288818657398224, 6.953430652618408, 1.2688647508621216, 0.2287903130054474, -0.0897216871380806, -0.01794433780014515, -1.3587621945865145, 4.107224977232455, -7.461147716631382, -3.2932373657088223, -0.05692915959278202, -0.13374242431169986, 0, 0, 0, 0, 0, 0, b00000000, b00000000, 
1648483107081.1624, -120.09769234727942, -162.93131127404678, 55.40220518834467, -166.4459080548819, 89.96953303059074, -0.02539828579977837, -611.5311215438219, -727.9922474301175, 679.4668927640903, 45.17417373193584, 172.58405962019924, 5.727977518035405, 0.2700805962085724, 6.935120105743408, 1.2621393203735352, 0.2557068169116974, -0.0874786451458931, -0.02018737979233265, -1.477413198205376, 5.052803252155742, -7.345801578115111, -3.1168190326543597, -0.22682406871165117, -0.12335240476794102, 0, 0, 0, 0, 0, 0, b00000000, b00000000, 
1648483108081.4038, -120.09837536619642, -162.93270463263747, 55.39739673516898, -166.44317597921392, 89.9709058986139, -0.027447342550782197, -611.5605157550935, -728.0339612223698, 679.4231585292665, 45.17156461093395, 172.58214509575075, 5.732499905041534, 0.2471924126148224, 6.930542469024658, 1.2666230201721191, 0.2601929008960724, -0.0919647291302681, -0.02243042178452015, -1.1358638692083265, 4.768554539117393, -7.102292817265551, -3.0092320977948956, -0.2692045123496072, -0.18217572089166345, 0, 0, 0, 0, 0, 0, b00000000, b00000000, 
1648483109081.809, -120.09769234727942, -162.93202161372048, 55.40015613159366, -166.4466183945556, 89.9709058986139, -0.027447342550782197, -611.5345195063906, -728.0110394724055, 679.4405919234538, 45.17053043657776, 172.58248003185037, 5.732533113769093, 0.2517700493335724, 6.953430652618408, 1.2598974704742432, 0.2153320610523224, -0.0897216871380806, -0.01345825381577015, -1.8053353210549101, 4.309899302115176, -7.642964685979825, -3.5072096772278774, -0.032625955460902134, -0.04811889037107889, 0, 0, 0, 0, 0, 0, b00000000, b00000000, 
1648483110082.0579, -120.09769234727942, -162.93131127404678, 55.401522169427665, -166.4466183945556, 89.9709058986139, -0.026764323633780923, -611.527444959179, -727.9969780905043, 679.4605587561376, 45.171729503935964, 172.58286018473646, 5.729448228886949, 0.2426147758960724, 6.948853015899658, 1.2419630289077759, 0.2422485649585724, -0.0874786451458931, -0.01794433780014515, -0.7580539838061721, 5.180397684957194, -8.308531826156983, -3.4428801451655615, 0.05878383568714022, -0.13287423021626002, 0, 0, 0, 0, 0, 0, b00000000, b00000000, 
1648483111083.1904, -120.10042442294743, -162.9306282551298, 55.40015613159366, -166.4466183945556, 89.9709058986139, -0.02539828579977837, -611.5647649137701, -727.9690073584056, 679.4633423502725, 45.17782696837859, 172.5810002596318, 5.730439078527955, 0.2471924126148224, 6.935120105743408, 1.2688647508621216, 0.2736511528491974, -0.0986938551068306, -0.02467346377670765, -0.8885550343393557, 4.997583549385749, -7.274135946623985, -2.965464343605906, -0.37157866360781944, -0.22219633150133844, 0, 0, 0, 0, 0, 0, b00000000, b00000000, 
1648483112083.3606, -120.09629898868874, -162.93338765155448, 55.40083915051066, -166.44454201704792, 89.97021604950774, -0.026764323633780923, -611.5267293669551, -728.0374424340355, 679.4288358411785, 45.16973954080589, 172.58385761188202, 5.730779088201714, 0.2517700493335724, 6.925964832305908, 1.2486884593963623, 0.2444916069507599, -0.0942077711224556, -0.02018737979233265, -1.1271269202779846, 4.945818807377939, -7.423937327276339, -3.2806623245614257, -0.167022513824853, -0.15298413323330973, 0, 0, 0, 0, 0, 0, b00000000, b00000000, 
1648483113083.3794, -120.09769234727942, -162.93338765155448, 55.401522169427665, -166.4479844323896, 89.97227876663709, -0.026764323633780923, -611.5321330306267, -728.0125799907971, 679.4224282224304, 45.17120416584456, 172.58054540783954, 5.7340095110950715, 0.2243042290210724, 6.976318836212158, 1.2598974704742432, 0.2489776909351349, -0.0874786451458931, -0.01794433780014515, -0.5865224096604873, 4.880209114009958, -8.598680282158725, -3.3622106249461976, 0.06846728681663271, -0.15052115185055792, 0, 0, 0, 0, 0, 0, b00000000, b00000000, 
1648483114084.5, -120.09769234727942, -162.9306282551298, 55.40083915051066, -166.4473014134726, 89.97021604950774, -0.026081304716779646, -611.5277408642564, -727.9920248265764, 679.4654110191665, 45.172829593970036, 172.58306308273322, 5.730780251149557, 0.2288818657398224, 6.939697742462158, 1.2576557397842407, 0.2646789848804474, -0.0852356031537056, -0.01794433780014515, -0.5708909071495815, 5.03155853923385, -7.705818345002941, -3.0592555737954137, -0.07921915304625704, -0.14207214621983594, 0, 0, 0, 0, 0, 0, b00000000, b00000000, 
1648483115084.5022, -120.09700932836242, -162.9347536893885, 55.40083915051066, -166.4466183945556, 89.96953303059074, -0.02813036146778347, -611.5393926780959, -728.0357705753104, 679.4001002943758, 45.16859061934042, 172.5836746440806, 5.736174416534048, 0.2243042290210724, 6.939697742462158, 1.2666230201721191, 0.2377624809741974, -0.0897216871380806, -0.011215210892260075, -1.2518350915232257, 4.25566810833933, -7.197898563058423, -3.180872535049617, -0.1229112699823148, -0.04803211775221833, 0, 0, 0, 0, 0, 0, b00000000, b00000000, 
1648483116086.4976, -120.09769234727942, -162.93131127404678, 55.40357122617867, -166.44454201704792, 89.97159574772009, -0.027447342550782197, -611.5215296211891, -727.9921332543387, 679.4795366110427, 45.170909484038056, 172.58368021848608, 5.722969699138292, 0.2609253227710724, 6.930542469024658, 1.2823156118392944, 0.2444916069507599, -0.0852356031537056, -0.01345825381577015, -2.1064174728537264, 4.226685915008315, -6.462460546608279, -2.9535270371584637, -0.3182339305327648, -0.025294880404743647, 0, 0, 0, 0, 0, 0, b00000000, b00000000, 
1648483117087.11, -120.09769234727942, -162.92994523621277, 55.40288820726167, -166.4438589981309, 89.97227876663709, -0.026081304716779646, -611.518011554028, -727.9864718945163, 679.4997875911685, 45.172948536511285, 172.58295275083594, 5.7206664945222805, 0.2380371391773224, 6.948853015899658, 1.27783203125, 0.2579498589038849, -0.0852356031537056, -0.01570129580795765, -1.2638246167719864, 4.529017828470796, -7.265568633908194, -2.980138608069624, -0.1923890207220744, -0.09037513265570146, 0, 0, 0, 0, 0, 0, b00000000, b00000000, 
1648483118088.1108, -120.09974140403042, -162.93407067047147, 55.40015613159366, -166.4452250359649, 89.96953303059074, -0.026081304716779646, -611.5773493260045, -728.0071253195695, 679.4113598628569, 45.17589610992851, 172.58217491820898, 5.734072582173608, 0.2288818657398224, 6.944275379180908, 1.2397211790084839, 0.2467346489429474, -0.1009368970990181, -0.02018737979233265, -0.3976853985792226, 5.153519470985324, -8.283476597711713, -3.468963894880674, -0.061230507373531244, -0.1933202186282885, 0, 0, 0, 0, 0, 0, b00000000, b00000000, 
1648483119088.1453, -120.09905838511342, -162.93270463263747, 55.40220518834467, -166.4473014134726, 89.97021604950774, -0.026764323633780923, -611.54997746939, -727.9874275554964, 679.4398450482793, 45.17380433383827, 172.5825085401149, 5.731795114660606, 0.2609253227710724, 6.939697742462158, 1.2397211790084839, 0.2467346489429474, -0.0919647291302681, -0.01794433780014515, -0.970842975886286, 5.4276303033569, -8.142639942073833, -3.4357871840532983, -0.06840480691520678, -0.11743099566008064, 0, 0, 0, 0, 0, 0, b00000000, b00000000, 
1648483120088.9143, -120.09905838511342, -162.93407067047147, 55.40083915051066, -166.4452250359649, 89.97227876663709, -0.027447342550782197, -611.5583502993227, -728.0151247072176, 679.415608928591, 45.17234224585981, 172.58059705699523, 5.7318700375235565, 0.2700805962085724, 6.912231922149658, 1.2711066007614136, 0.2243042290210724, -0.0874786451458931, -0.02467346377670765, -2.3167779184525714, 3.9793246208380157, -6.118238861369169, -3.0923034996156886, -0.27285560825139477, -0.16860563339711826, 0, 0, 0, 0, 0, 0, b00000000, b00000000, 
1648483121089.881, -120.09700932836242, -162.9347536893885, 55.39807975408598, -166.44317597921392, 89.97296861574326, -0.027447342550782197, -611.5458910718869, -728.0645297858673, 679.393885721491, 45.169035959454945, 172.58037348422042, 5.733689941892444, 0.2151489406824112, 6.971741199493408, 1.2486884593963623, 0.2400055229663849, -0.0829925611615181, -0.011215210892260075, -0.4608748469301952, 4.928072563578745, -8.756952199322576, -3.471612726389563, 0.20517121290983237, -0.06724760806889675, 0, 0, 0, 0, 0, 0, b00000000, b00000000, 
1648483122089.9177, -120.10179046078143, -162.93202161372048, 55.39947311267666, -166.4473014134726, 89.9709058986139, -0.024715266882777098, -611.5907884439708, -727.9676901700219, 679.4342688843868, 45.18069205961937, 172.5793425405534, 5.734546768277346, 0.2655029594898224, 6.962585926055908, 1.2576557397842407, 0.2601929008960724, -0.0897216871380806, -0.02018737979233265, -1.0460422364563773, 5.421572395597801, -8.347696891558105, -3.2996116719530577, -0.12157509962750526, -0.13888324578154937, 0, 0, 0, 0, 0, 0, b00000000, b00000000, 
1648483123090.9167, -120.09974140403042, -162.93338765155448, 55.401522169427665, -166.4452250359649, 89.97159574772009, -0.024032247965775824, -611.5669488750241, -727.9952389273898, 679.4309027187733, 45.178771397497435, 172.58011850346722, 5.730180479994053, 0.2746582329273224, 6.939697742462158, 1.2643811702728271, 0.2310333549976349, -0.0942077711224556, -0.01570129580795765, -2.0497487903786333, 4.598922881308516, -7.210761574510714, -3.3386559268700617, -0.25706582992330607, -0.05677987055602038, 0, 0, 0, 0, 0, 0, b00000000, b00000000, 
1648483124091.9175, -120.09769234727942, -162.9306282551298, 55.40220518834467, -166.4452250359649, 89.97021604950774, -0.02881338038478475, -611.5234211655888, -727.9913809862406, 679.4802180062406, 45.168981086223575, 172.5850687179156, 5.725570800997357, 0.2334595024585724, 6.939697742462158, 1.2397211790084839, 0.2332763969898224, -0.0852356031537056, -0.02243042178452015, -0.7226568462936029, 4.875641926529261, -8.037337068137465, -3.4339300564934168, 0.12541733305504282, -0.19964887993143304, 0, 0, 0, 0, 0, 0, b00000000, b00000000, 
1648483125094.9053, -120.09700932836242, -162.93407067047147, 55.401522169427665, -166.4438589981309, 89.9709058986139, -0.024032247965775824, -611.5392333773124, -728.0326911659571, 679.4239433945451, 45.17487416699739, 172.58211067664942, 5.729505371336889, 0.2197265923023224, 6.976318836212158, 1.2711066007614136, 0.2243042290210724, -0.0897216871380806, -0.01794433780014515, -1.1972445078908167, 4.042289223302511, -8.035435245812902, -3.4222064490330606, 0.047247237476274795, -0.14557767334596172, 0, 0, 0, 0, 0, 0, b00000000, b00000000, 
1648483126096.3767, -120.09700932836242, -162.93407067047147, 55.40083915051066, -166.4466183945556, 89.9709058986139, -0.027447342550782197, -611.533541720464, -728.0315221463843, 679.4112818285568, 45.169414909355076, 172.58234961256196, 5.734585864693075, 0.2243042290210724, 6.930542469024658, 1.2666230201721191, 0.2601929008960724, -0.0852356031537056, -0.02018737979233265, -0.8111641100022202, 4.579733524765869, -7.104592295618534, -2.9380686375932266, -0.142178344638877, -0.17070782940447157, 0, 0, 0, 0, 0, 0, b00000000, b00000000, 
1648483127096.81, -120.09700932836242, -162.93338765155448, 55.39876277300298, -166.4479844323896, 89.97227876663709, -0.026764323633780923, -611.5323364382712, -728.0354724355072, 679.4055316853415, 45.16995206071682, 172.58000399326164, 5.738144117366325, 0.2517700493335724, 6.944275379180908, 1.2598974704742432, 0.2624359428882599, -0.0942077711224556, -0.011215210892260075, -1.0677434115706843, 5.213945907895387, -7.749115137685067, -3.1797517920882243, -0.24830635709070253, -0.03222353068766, 0, 0, 0, 0, 0, 0, b00000000, b00000000, 
1648483128098.606, -120.10042442294743, -162.93202161372048, 55.40357122617867, -166.4452250359649, 89.97021604950774, -0.02813036146778347, -611.5612235247531, -727.9656692258267, 679.4657999167308, 45.17412024395124, 172.58364600012413, 5.72556641818045, 0.2517700493335724, 6.944275379180908, 1.2733484506607056, 0.2512207329273224, -0.0919647291302681, -0.01345825381577015, -1.5449497045328366, 4.615755984482792, -7.219880441532643, -3.1055309203396213, -0.2768276176734233, -0.05058740994596203, 0, 0, 0, 0, 0, 0, b00000000, b00000000, 
1648483129099.0493, -120.09561596977174, -162.93131127404678, 55.39876277300298, -166.4459080548819, 89.97227876663709, -0.026081304716779646, -611.5084525176147, -728.0380203291104, 679.4458730262407, 45.16922428102474, 172.58158203127567, 5.731979444780944, 0.2334595024585724, 6.948853015899658, 1.2442048788070679, 0.2310333549976349, -0.0942077711224556, -0.01794433780014515, -0.8523784539034513, 4.809530733293486, -8.146914773051078, -3.5231141298765203, 0.023511138075782444, -0.14567344853016875, 0, 0, 0, 0, 0, 0, b00000000, b00000000, 
1648483130099.9575, -120.09974140403042, -162.93338765155448, 55.39876277300298, -166.4466183945556, 89.9709058986139, -0.026081304716779646, -611.5731500028421, -728.007567591129, 679.4097155180505, 45.175453398820736, 172.5802756648826, 5.736637244378359, 0.2197265923023224, 6.953430652618408, 1.2509303092956543, 0.2624359428882599, -0.0874786451458931, -0.02243042178452015, -0.16389154548882562, 5.148477863168771, -8.317459861592916, -3.2122146796560824, 0.03333859390736982, -0.22124415723907428, 0, 0, 0, 0, 0, 0, b00000000, b00000000, 
1648483131100.3022, -120.09974140403042, -162.93407067047147, 55.401522169427665, -166.44454201704792, 89.9709058986139, -0.026081304716779646, -611.5706646756946, -728.0030329415881, 679.4218586674214, 45.175807343377826, 172.58149861897394, 5.730425660215175, 0.2471924126148224, 6.939697742462158, 1.2598974704742432, 0.2467346489429474, -0.0897216871380806, -0.02018737979233265, -1.1890126638046676, 4.7563896336835425, -7.486060615697304, -3.204624768106061, -0.1363628606795722, -0.15090967116550896, 0, 0, 0, 0, 0, 0, b00000000, b00000000, 
1648483132101.868, -120.09974140403042, -162.93270463263747, 55.401522169427665, -166.4459080548819, 89.96953303059074, -0.02539828579977837, -611.5660875244307, -727.9858365480529, 679.4399361908515, 45.17708546611799, 172.58255799781986, 5.731032527683415, 0.2288818657398224, 6.980896472930908, 1.2621393203735352, 0.2444916069507599, -0.0829925611615181, -0.01570129580795765, -0.792123267475842, 4.822488958174578, -8.62531047367433, -3.3790921231460946, 0.11373765368305577, -0.10868857639150191, 0, 0, 0, 0, 0, 0, b00000000, b00000000, 
1648483133103.4011, -120.10042442294743, -162.93407067047147, 55.401522169427665, -166.4459080548819, 89.97227876663709, -0.02881338038478475, -611.5709799568353, -727.9957602444443, 679.4176986616966, 45.17231971824286, 172.58052229592118, 5.7318146361683215, 0.2380371391773224, 6.967163562774658, 1.2643811702728271, 0.2310333549976349, -0.0897216871380806, -0.02243042178452015, -1.2163263377693647, 4.42178159289172, -8.033425735744956, -3.407842201134997, 0.005886122803969725, -0.19028461438255417, 0, 0, 0, 0, 0, 0, b00000000, b00000000, 
1648483134104.19, -120.09974140403042, -162.93270463263747, 55.40288820726167, -166.4466183945556, 89.97159574772009, -0.026081304716779646, -611.5549081020253, -727.9794914272842, 679.4461533140557, 45.175714902948975, 172.58108151816563, 5.729165083020303, 0.2517700493335724, 6.935120105743408, 1.27783203125, 0.2310333549976349, -0.0897216871380806, -0.01794433780014515, -2.002159742866264, 3.9890002660819723, -6.6380600272425365, -3.117909496909575, -0.24855414169500656, -0.10105121037776618, 0, 0, 0, 0, 0, 0, b00000000, b00000000, 
1648483135104.379, -120.09769234727942, -162.93131127404678, 55.401522169427665, -166.44454201704792, 89.97159574772009, -0.026764323633780923, -611.5288808495858, -728.0032958299093, 679.466982321462, 45.17177365410203, 172.58281450027258, 5.726043801369357, 0.2609253227710724, 6.939697742462158, 1.2733484506607056, 0.2377624809741974, -0.0919647291302681, -0.01570129580795765, -1.9240479125637175, 4.3755667254374115, -6.974091982153148, -3.175249898817462, -0.27486247172507844, -0.0669610215954867, 0, 0, 0, 0, 0, 0, b00000000, b00000000, 
1648483136105.0457, -120.09769234727942, -162.93338765155448, 55.401522169427665, -166.44454201704792, 89.97021604950774, -0.026764323633780923, -611.5422354355126, -728.0187085410709, 679.4330181953228, 45.17188362140083, 172.5834717637065, 5.729729271916009, 0.2517700493335724, 6.912231922149658, 1.2486884593963623, 0.2646789848804474, -0.0874786451458931, -0.01794433780014515, -0.8994274717116562, 5.272946836397692, -7.17652778512157, -3.030790091862573, -0.20334443926616894, -0.11864541084330985, 0, 0, 0, 0, 0, 0, b00000000, b00000000, 
1648483137106.9827, -120.09769234727942, -162.93131127404678, 55.40220518834467, -166.4459080548819, 89.96953303059074, -0.024715266882777098, -611.5318763654576, -727.9918228921803, 679.4668847673829, 45.17520784604489, 172.58381111676513, 5.727992224354851, 0.2517700493335724, 6.898499011993408, 1.2531720399856567, 0.2332763969898224, -0.0919647291302681, -0.01794433780014515, -1.6311883351337495, 4.415636275034331, -6.368787668978078, -3.138828141297623, -0.24821127217685585, -0.11028102669484882, 0, 0, 0, 0, 0, 0, b00000000, b00000000, 
1648483138108.4724, -120.09769234727942, -162.92994523621277, 55.39876277300298, -166.4466183945556, 89.97159574772009, -0.026081304716779646, -611.5288210641478, -728.0017213192502, 679.465995344081, 45.172503576710746, 172.58155197493554, 5.731250907875164, 0.2517700493335724, 6.958008289337158, 1.2621393203735352, 0.2400055229663849, -0.0919647291302681, -0.02018737979233265, -1.3104498423734645, 4.7354969606257145, -7.904676766035606, -3.355000402404216, -0.10325810454016265, -0.14817251845373353, 0, 0, 0, 0, 0, 0, b00000000, b00000000, 
1648483139108.9575, -120.09700932836242, -162.93131127404678, 55.40083915051066, -166.4466183945556, 89.97227876663709, -0.027447342550782197, -611.5169042154749, -728.0104155300971, 679.4564100156048, 45.16935594512309, 172.58190755283596, 5.729884047629798, 0.2471924126148224, 6.967163562774658, 1.27783203125, 0.2534637749195099, -0.0964508131146431, -0.02018737979233265, -1.2997384655808337, 4.619351424460673, -7.7746814628022625, -3.192349818780449, -0.24845883211396347, -0.15434824337220376, 0, 0, 0, 0, 0, 0, b00000000, b00000000, 
1648483140109.6443, -120.09837536619642, -162.93338765155448, 55.40083915051066, -166.4459080548819, 89.96953303059074, -0.026764323633780923, -611.5527198459656, -728.0108132809683, 679.4246058012104, 45.17286442094275, 172.5832205451544, 5.733071592753281, 0.2655029594898224, 6.939697742462158, 1.2576557397842407, 0.2691650688648224, -0.0874786451458931, -0.02243042178452015, -1.0104235961556438, 5.420236685241805, -7.737068193151536, -3.089005412733283, -0.19826701386588397, -0.16579214144065263, 0, 0, 0, 0, 0, 0, b00000000, b00000000, 
1648483141111.281, -120.09769234727942, -162.9306282551298, 55.40083915051066, -166.4473014134726, 89.96953303059074, -0.02813036146778347, -611.5271211830584, -727.9923725849968, 679.4654224771476, 45.169856381872094, 172.58444797205044, 5.731026643872553, 0.2517700493335724, 6.944275379180908, 1.2666230201721191, 0.2400055229663849, -0.0852356031537056, -0.02018737979233265, -1.5081098590512443, 4.51843899433839, -7.348500614374253, -3.1891643139196977, -0.10903840782169447, -0.1370346680298769, 0, 0, 0, 0, 0, 0, b00000000, b00000000, 
1648483142112.5667, -120.09905838511342, -162.92994523621277, 55.40357122617867, -166.4466183945556, 89.97227876663709, -0.027447342550782197, -611.5275434443002, -727.9617258245908, 679.4954654051144, 45.17275149762744, 172.58227802226784, 5.723722178993112, 0.2334595024585724, 6.939697742462158, 1.2688647508621216, 0.2377624809741974, -0.0986938551068306, -0.02243042178452015, -1.2961820674808975, 4.194797413737442, -7.123711410641602, -3.2093046428213965, -0.22926380739440916, -0.19850097423778923, 0, 0, 0, 0, 0, 0, b00000000, b00000000, 
1648483143113.1282, -120.09700932836242, -162.93131127404678, 55.40083915051066, -166.4473014134726, 89.97159574772009, -0.026764323633780923, -611.5182850722916, -728.0072945615327, 679.4542806008766, 45.17046174972754, 172.58210111643345, 5.731212657088934, 0.2471924126148224, 6.935120105743408, 1.2531720399856567, 0.2579498589038849, -0.0852356031537056, -0.01345825381577015, -0.9602457773594755, 5.177585815116958, -7.659398189940382, -3.1530518700560757, -0.10783321800322596, -0.06012853738513936, 0, 0, 0, 0, 0, 0, b00000000, b00000000, 
1648483144114.3281, -120.09905838511342, -162.93407067047147, 55.401522169427665, -166.4438589981309, 89.97021604950774, -0.026764323633780923, -611.563911465691, -728.01158349041, 679.4239627696228, 45.17393789372932, 172.58288045248, 5.72969576085585, 0.2380371391773224, 6.935120105743408, 1.2711066007614136, 0.2377624809741974, -0.0762634351849556, -0.01794433780014515, -1.5292147960884235, 4.182644006572229, -6.912393766811999, -3.034961219489108, -0.03793250151784982, -0.10875811914704628, 0, 0, 0, 0, 0, 0, b00000000, b00000000, 
1648483145114.8752, -120.09905838511342, -162.93338765155448, 55.40288820726167, -166.4466183945556, 89.97159574772009, -0.027447342550782197, -611.5480203121544, -727.9933156987457, 679.4350054255231, 45.17257382464159, 172.58165980373866, 5.730169619525285, 0.2105713039636612, 6.953430652618408, 1.2531720399856567, 0.2287903130054474, -0.0829925611615181, -0.02018737979233265, -0.6899898528093255, 4.341041398855445, -7.974614518545601, -3.371590105426924, 0.17560679197777715, -0.18678122310288414, 0, 0, 0, 0, 0, 0, b00000000, b00000000, 
1648483146115.8835, -120.09974140403042, -162.9306282551298, 55.40220518834467, -166.4459080548819, 89.97021604950774, -0.02881338038478475, -611.5484369327052, -727.967740193239, 679.4781091264848, 45.17199340212688, 172.5840013171746, 5.726550024226566, 0.2563476860523224, 6.953430652618408, 1.2576557397842407, 0.2377624809741974, -0.0942077711224556, -0.01570129580795765, -1.4032826680693824, 4.847725322296232, -7.89597345555732, -3.413962684523554, -0.13300484612449406, -0.08460404317104184, 0, 0, 0, 0, 0, 0, b00000000, b00000000, 
1648483147117.7893, -120.10110744186443, -162.93131127404678, 55.40288820726167, -166.4438589981309, 89.97159574772009, -0.02881338038478475, -611.5666285257138, -727.9621642781733, 679.4774795677843, 45.17395829115598, 172.5827189638346, 5.722863105431049, 0.2380371391773224, 6.958008289337158, 1.2486884593963623, 0.2444916069507599, -0.0897216871380806, -0.01570129580795765, -0.7681635365218553, 5.08997145549047, -8.380907192780777, -3.42893473486646, 0.022259172606880893, -0.10794766037972772, 0, 0, 0, 0, 0, 0, b00000000, b00000000, 
1648483148117.8772, -120.09837536619642, -162.93407067047147, 55.40220518834467, -166.4473014134726, 89.96816016256757, -0.024715266882777098, -611.5551144130546, -728.0020272290105, 679.4174553757553, 45.17617278646641, 172.58356045691005, 5.734767065210255, 0.2334595024585724, 6.935120105743408, 1.2598974704742432, 0.2332763969898224, -0.0852356031537056, -0.01570129580795765, -1.2978425294805078, 4.359524264832337, -7.24303684407397, -3.2249364783903016, -0.04437489287925746, -0.09638471368157094, 0, 0, 0, 0, 0, 0, b00000000, b00000000, 
1648483149118.5466, -120.09629898868874, -162.93202161372048, 55.39947311267666, -166.4479844323896, 89.97227876663709, -0.026081304716779646, -611.5151794415407, -728.0272432584502, 679.4322015811383, 45.17008022067415, 172.58068870507358, 5.73507513224338, 0.2700805962085724, 6.921387195587158, 1.2733484506607056, 0.2400055229663849, -0.0874786451458931, -0.02018737979233265, -2.093721148689584, 4.3383614358252744, -6.444681792797992, -3.030436994238228, -0.30934916602524987, -0.11158429110011953, 0, 0, 0, 0, 0, 0, b00000000, b00000000, 
1648483150118.678, -120.09700932836242, -162.93270463263747, 55.39947311267666, -166.4466183945556, 89.97159574772009, -0.02813036146778347, -611.5289231800575, -728.0292360647462, 679.4252662724014, 45.168236386658, 172.58195809338432, 5.734278698847672, 0.2655029594898224, 6.925964832305908, 1.2509303092956543, 0.2467346489429474, -0.0964508131146431, -0.0269165076315403, -1.2677303119134338, 5.006786018564949, -7.36705432206422, -3.266755540975844, -0.22951115138189782, -0.23141273946026125, 0, 0, 0, 0, 0, 0, b00000000, b00000000, 
1648483151120.5977, -120.09769234727942, -162.93338765155448, 55.40083915051066, -166.4438589981309, 89.97159574772009, -0.026764323633780923, -611.5421303870387, -728.0262114274093, 679.4309700427121, 45.17162353138182, 172.58217170439121, 5.729138836006221, 0.2380371391773224, 6.958008289337158, 1.2486884593963623, 0.2669220268726349, -0.0852356031537056, -0.02018737979233265, -0.3255834736007144, 5.514092709162191, -8.56071497834101, -3.2476534849048395, 0.02374001247510451, -0.17086502797060132, 0, 0, 0, 0, 0, 0, b00000000, b00000000, 
1648483152121.4185, -120.09974140403042, -162.93131127404678, 55.401522169427665, -166.44454201704792, 89.96953303059074, -0.02813036146778347, -611.5583735165005, -727.97947843122, 679.4669603530048, 45.17316524868086, 172.58437268007225, 5.726847647105092, 0.2471924126148224, 6.921387195587158, 1.275590181350708, 0.2444916069507599, -0.0874786451458931, -0.01570129580795765, -1.7633227954544721, 4.196267743921691, -6.410649322255932, -2.954737717219188, -0.28944324766122276, -0.07545738109636524, 0, 0, 0, 0, 0, 0, b00000000, b00000000, 
1648483153121.5894, -120.09974140403042, -162.9292622172958, 55.40428156585235, -166.44454201704792, 89.96953303059074, -0.02539828579977837, -611.5426074879357, -727.9451199557171, 679.5173146771521, 45.17767961952157, 172.58483582855996, 5.7197285604611245, 0.2746582329273224, 6.953430652618408, 1.2733484506607056, 0.2287903130054474, -0.0829925611615181, -0.008972168900072575, -2.304792530727813, 4.469111678135663, -7.309460413853135, -3.289329598808689, -0.15612744782636737, 0.0492782184733436, 0, 0, 0, 0, 0, 0, b00000000, b00000000, 
1648483154122.0706, -120.09700932836242, -162.93270463263747, 55.39947311267666, -166.4473014134726, 89.9709058986139, -0.02813036146778347, -611.5295655944832, -728.026530254795, 679.4231448712519, 45.16830933228595, 172.5824064873958, 5.735595495532728, 0.2380371391773224, 6.939697742462158, 1.2374794483184814, 0.2624359428882599, -0.0852356031537056, -0.02467346377670765, -0.20722882062472392, 5.551886116348151, -8.344216988112906, -3.2689837415662226, 0.05639761712949684, -0.23398774906354733, 0, 0, 0, 0, 0, 0, b00000000, b00000000, 
1648483155123.4636, -120.10179046078143, -162.92994523621277, 55.39876277300298, -166.4466183945556, 89.97227876663709, -0.027447342550782197, -611.5777358759789, -727.9597545465892, 679.4660240316156, 45.17644558591288, 172.57966931181224, 5.730842465923727, 0.2517700493335724, 6.967163562774658, 1.2688647508621216, 0.2669220268726349, -0.0897216871380806, -0.01345825381577015, -1.0250860787140277, 5.2210265774322195, -8.174949430173536, -3.1672459392046783, -0.18099898296213757, -0.058790109464351564, 0, 0, 0, 0, 0, 0, b00000000, b00000000, 
1648483156124.787, -120.09769234727942, -162.93131127404678, 55.39876277300298, -166.44454201704792, 89.97159574772009, -0.027447342550782197, -611.5370087975543, -728.0193236769469, 679.4500939686628, 45.170510680579255, 172.58223171064142, 5.7301490101307495, 0.2746582329273224, 6.935120105743408, 1.2464466094970703, 0.2467346489429474, -0.0964508131146431, -0.01794433780014515, -1.365176992765669, 5.3398760538353285, -7.785692259162678, -3.392226736748027, -0.21493043457591127, -0.10212940529748712, 0, 0, 0, 0, 0, 0, b00000000, b00000000, 
1648483157124.834, -120.09769234727942, -162.93202161372048, 55.401522169427665, -166.4473014134726, 89.9709058986139, -0.026764323633780923, -611.5298581587617, -728.0011199787796, 679.4468395481484, 45.171620428652275, 172.58244567205165, 5.731531624666632, 0.2655029594898224, 6.925964832305908, 1.2598974704742432, 0.2287903130054474, -0.0852356031537056, -0.02243042178452015, -1.8541985805330286, 4.441726104571162, -6.929868458993671, -3.234694662483441, -0.12997791387470786, -0.15004515450513523, 0, 0, 0, 0, 0, 0, b00000000, b00000000, 
1648483158124.9348, -120.09769234727942, -162.93270463263747, 55.39876277300298, -166.4466183945556, 89.96953303059074, -0.027447342550782197, -611.5456106651259, -728.0227421408956, 679.4208705561595, 45.17062467355303, 172.5831368017844, 5.736216743743717, 0.2609253227710724, 6.948853015899658, 1.2621393203735352, 0.2489776909351349, -0.0919647291302681, -0.008972168900072575, -1.4992149351755375, 5.0148638757627015, -7.7031733639228674, -3.2754336013181056, -0.21558066864750935, 0.014820893504905258, 0, 0, 0, 0, 0, 0, b00000000, b00000000, 
1648483159126.8987, -120.09769234727942, -162.93338765155448, 55.40083915051066, -166.4452250359649, 89.97227876663709, -0.026081304716779646, -611.5392027175578, -728.023171322944, 679.4267570822066, 45.172413632871624, 172.58088887137066, 5.730909735372475, 0.2517700493335724, 6.948853015899658, 1.2688647508621216, 0.2601929008960724, -0.0852356031537056, -0.02467346377670765, -1.1216308865094406, 4.870074060411108, -7.573774705399057, -3.0558717853410577, -0.14911245997618727, -0.20326064975881108, 0, 0, 0, 0, 0, 0, b00000000, b00000000, 
1648483160127.105, -120.09769234727942, -162.9306282551298, 55.40083915051066, -166.4459080548819, 89.9709058986139, -0.026081304716779646, -611.5281579853462, -727.9965720051165, 679.4697256460036, 45.172816336128435, 172.58281997943197, 5.728399173264997, 0.2380371391773224, 6.958008289337158, 1.2621393203735352, 0.2534637749195099, -0.0829925611615181, -0.01570129580795765, -0.9268177912363469, 4.9194584468203395, -8.014152576802624, -3.199584092374484, -0.01756128268471876, -0.0968907961092733, 0, 0, 0, 0, 0, 0, b00000000, b00000000, 
1648483161128.1804, -120.09905838511342, -162.9292622172958, 55.40220518834467, -166.4486674513066, 89.97159574772009, -0.02813036146778347, -611.526474345473, -727.957951999489, 679.491934091999, 45.17161061778983, 172.58237088013493, 5.728088330998778, 0.2334595024585724, 6.980896472930908, 1.2329957485198975, 0.2220611870288849, -0.0852356031537056, -0.01570129580795765, -0.5865929203900476, 5.175682876354114, -9.395160262140331, -3.824850245012063, 0.33168871040489595, -0.11522398404182622, 0, 0, 0, 0, 0, 0, b00000000, b00000000, 
1648483162128.6191, -120.09700932836242, -162.93202161372048, 55.39947311267666, -166.44454201704792, 89.9709058986139, -0.026764323633780923, -611.5318915772419, -728.0271500912578, 679.4428121694167, 45.17065926724097, 172.582916041916, 5.730471371151085, 0.2334595024585724, 6.944275379180908, 1.2554138898849487, 0.2803802788257599, -0.0919647291302681, -0.02018737979233265, -0.2534617064833607, 5.466264224221746, -8.041327057944743, -3.050636325044025, -0.16958357199340934, -0.1799841620057558, 0, 0, 0, 0, 0, 0, b00000000, b00000000, 
1648483163130.8855, -120.09561596977174, -162.93338765155448, 55.40288820726167, -166.44317597921392, 89.96953303059074, -0.029496399301786023, -611.512117641375, -728.0374589693998, 679.4456199290686, 45.16499379515782, 172.586793021849, 5.725919363569603, 0.2334595024585724, 6.930542469024658, 1.2509303092956543, 0.2489776909351349, -0.0807495191693306, -0.01794433780014515, -0.825903877372783, 4.86570857872856, -7.524852205169068, -3.15038379171371, 0.011972073220621389, -0.13057734969386975, 0, 0, 0, 0, 0, 0, b00000000, b00000000, 
